creator/production/LUTS/COLD.cube
TITLE "Generated by Resolve"
LUT_3D_SIZE 33
0.0378271 0.0423285 0.0500343
0.0514992 0.0433051 0.0499123
0.0607156 0.0440833 0.0494698
0.0678111 0.0450752 0.0491951
0.0793469 0.0461433 0.0486763
0.0954757 0.0475166 0.0480964
0.112093 0.0495766 0.0475776
0.126619 0.051957 0.0468757
0.13994 0.0541695 0.045716
0.158267 0.0557259 0.0441596
0.180362 0.05626 0.0417182
0.207095 0.0573281 0.0388952
0.233753 0.0582895 0.0357824
0.260334 0.0584878 0.0247044
0.290593 0.0582742 0.0154421
0.323827 0.0576638 0.0113222
0.356909 0.0547189 0.0099031
0.393027 0.0498207 0.00999466
0.427634 0.0423743 0.010544
0.461494 0.0272831 0.0111391
0.496941 0.0117037 0.0115511
0.531304 0.0093843 0.0118868
0.567254 0.00825513 0.0121157
0.604807 0.00972 0.0127565
0.640131 0.00979629 0.0142214
0.677607 0.0103151 0.0168612
0.695003 0.0108034 0.0184024
0.695003 0.0108034 0.0184024
0.695003 0.0108034 0.0184024
0.695003 0.0108034 0.0184024
0.695003 0.0108034 0.0184024
0.695003 0.0108034 0.0184024
0.695003 0.0108034 0.0184024
0.0299077 0.0488899 0.0518959
0.0443122 0.0500191 0.0514992
0.0581216 0.0510719 0.05037
0.0648661 0.0524605 0.0509651
0.0743267 0.0540322 0.0504311
0.0885786 0.0558785 0.0500191
0.107698 0.0582742 0.0495918
0.123354 0.0610971 0.0487526
0.137316 0.0637675 0.0477455
0.154391 0.0661631 0.0463417
0.17528 0.0676585 0.0442359
0.20206 0.0681926 0.0406958
0.229236 0.068513 0.0366217
0.256596 0.0680858 0.0279545
0.286427 0.066865 0.0171206
0.319295 0.0652781 0.0125887
0.353704 0.0618296 0.0120546
0.388449 0.0556497 0.0113832
0.420844 0.0469062 0.0109407
0.45185 0.0333867 0.0110018
0.485054 0.0124361 0.0114595
0.518853 0.010132 0.0117037
0.553933 0.00842298 0.0120546
0.59144 0.00923171 0.0123903
0.626795 0.0100404 0.0135653
0.662333 0.0099031 0.0156405
0.695003 0.0108034 0.0184024
0.695003 0.0108034 0.0184024
0.695003 0.0108034 0.0184024
0.695003 0.0108034 0.0184024
0.695003 0.0108034 0.0184024
0.695003 0.0108034 0.0184024
0.695003 0.0108034 0.0184024
0.026215 0.0542458 0.0536812
0.0382239 0.0552071 0.0520943
0.049958 0.0566262 0.0522011
0.0621653 0.0582895 0.0498207
0.0729381 0.0605783 0.0505531
0.0867018 0.0631418 0.0520027
0.103426 0.0657511 0.0521706
0.119753 0.0688029 0.0510262
0.134783 0.0718395 0.0497597
0.150408 0.0749371 0.0487373
0.171923 0.0772564 0.0475776
0.198093 0.0787671 0.0456397
0.227253 0.0802625 0.0427558
0.256245 0.0811933 0.0361791
0.286305 0.0812543 0.0237888
0.321645 0.0809644 0.0172885
0.35964 0.0789502 0.0167544
0.397681 0.0756085 0.016556
0.434867 0.0704662 0.0162814
0.467674 0.0615396 0.0159762
0.498283 0.0429999 0.0156558
0.530159 0.0247501 0.015198
0.562356 0.0198367 0.0148623
0.594903 0.0169528 0.0144656
0.625864 0.0139315 0.0146487
0.656519 0.0108644 0.0159915
0.696635 0.0126192 0.0191043
0.695476 0.0110628 0.0186007
0.695003 0.0108034 0.0184024
0.695003 0.0108034 0.0184024
0.695003 0.0108034 0.0184024
0.695003 0.0108034 0.0184024
0.695003 0.0108034 0.0184024
0.0243076 0.0609903 0.0560616
0.0327459 0.060853 0.0531472
0.0442206 0.062089 0.0529488
0.0552224 0.0634012 0.0525978
0.0664073 0.0654002 0.0505074
0.0804761 0.0686198 0.0518196
0.104112 0.0719005 0.0524453
0.122591 0.0752575 0.0527657
0.1355 0.078233 0.053193
0.14844 0.081529 0.0536965
0.169024 0.0843214 0.0530098
0.194308 0.0866865 0.0516518
0.223957 0.0889296 0.0493172
0.254398 0.0910811 0.0449836
0.285008 0.0923323 0.0349737
0.320928 0.0924544 0.0235599
0.360952 0.0915847 0.0206302
0.401114 0.0895094 0.0204929
0.441825 0.0859236 0.020325
0.477668 0.080827 0.0202335
0.510643 0.0725567 0.0200961
0.543603 0.0504158 0.0199283
0.577646 0.0351568 0.019791
0.611749 0.0315862 0.0197452
0.644053 0.0301976 0.0201267
0.675044 0.0285649 0.0210269
0.707164 0.0261845 0.0230259
0.714641 0.0247044 0.0234073
0.712016 0.0226749 0.0228275
0.709224 0.0205844 0.0222477
0.706981 0.019028 0.0216678
0.704829 0.0175479 0.0210727
0.703136 0.0163577 0.0206149
0.0243381 0.0674449 0.0578927
0.0288243 0.0665446 0.0539712
0.0404517 0.0673381 0.0534371
0.0420081 0.0689708 0.0572976
0.0604257 0.0699474 0.0542458
0.0731975 0.0726787 0.0552834
0.091783 0.0762188 0.0565652
0.116518 0.0800641 0.0571145
0.136965 0.0841077 0.0573739
0.155062 0.0878462 0.0574502
0.174762 0.0907912 0.0569772
0.196902 0.0934462 0.0560464
0.223484 0.0963149 0.0542916
0.252384 0.0992142 0.0509041
0.282811 0.101396 0.0439307
0.318303 0.102205 0.0308385
0.358846 0.102174 0.0235447
0.400305 0.101366 0.0235142
0.444144 0.0991531 0.0235294
0.483803 0.095613 0.0235904
0.518456 0.0904555 0.023682
0.553506 0.076463 0.0237736
0.58822 0.0547951 0.0238956
0.623636 0.0443275 0.0241245
0.65655 0.0422217 0.024506
0.688121 0.0412757 0.0253758
0.720516 0.0406653 0.0269932
0.735058 0.0393835 0.0277867
0.733013 0.037995 0.0273289
0.730877 0.0365301 0.0268559
0.728603 0.0349737 0.0263523
0.725933 0.0330663 0.025803
0.723522 0.0312657 0.0252537
0.0247654 0.0739452 0.0600595
0.0265202 0.0729229 0.0590372
0.0342412 0.0734112 0.0582284
0.0456397 0.0742504 0.0580301
0.0409094 0.0758831 0.0600748
0.0652628 0.0772564 0.0588998
0.0827955 0.0809796 0.0602426
0.10547 0.085069 0.0612955
0.128283 0.0898756 0.0619211
0.148913 0.0946365 0.0621653
0.175662 0.09897 0.0615091
0.206241 0.102159 0.0598154
0.235813 0.105165 0.0572518
0.261723 0.108034 0.0543374
0.287953 0.110338 0.0494698
0.319905 0.111788 0.0380102
0.357839 0.112642 0.0282597
0.399741 0.11339 0.026276
0.444724 0.113298 0.0263523
0.486961 0.111879 0.0264439
0.523125 0.108324 0.026566
0.559258 0.10135 0.0267033
0.594568 0.0853437 0.0269322
0.629816 0.0683757 0.0272221
0.663432 0.0587472 0.0275883
0.695064 0.0522621 0.028275
0.726986 0.0525216 0.0297704
0.749523 0.0497597 0.0311437
0.748196 0.0486152 0.0308232
0.746807 0.0476387 0.0304875
0.745251 0.0465095 0.0300908
0.74374 0.0454261 0.0297398
0.742092 0.0442512 0.0293736
0.0215457 0.0816663 0.0657511
0.0224765 0.0800641 0.0646067
0.0284276 0.0806134 0.0637369
0.037644 0.0814832 0.0630503
0.0477607 0.0828717 0.063386
0.0409552 0.0847791 0.0649424
0.0707561 0.0869306 0.0644236
0.0949569 0.0905776 0.0651713
0.119295 0.0956283 0.0662852
0.140246 0.101045 0.0669566
0.164004 0.107164 0.0670939
0.197635 0.112306 0.0657969
0.235935 0.116686 0.0628672
0.271 0.120531 0.0581369
0.303731 0.123659 0.0509957
0.337331 0.125673 0.0390021
0.372229 0.127687 0.0323339
0.409369 0.129656 0.0286412
0.451499 0.131533 0.0288243
0.492348 0.132464 0.0290532
0.52932 0.13196 0.0292363
0.565469 0.129488 0.0294804
0.601373 0.124681 0.0297551
0.636301 0.115908 0.0300755
0.669352 0.102022 0.0304875
0.700816 0.0898604 0.0311284
0.73196 0.0873121 0.0323491
0.762127 0.0860151 0.0342412
0.760601 0.0813764 0.0338903
0.759213 0.0775006 0.0335241
0.757794 0.0734722 0.0331884
0.756405 0.0695811 0.0328222
0.755154 0.06598 0.0325322
0.0165408 0.0897536 0.0714733
0.0175326 0.0880751 0.0703746
0.0220951 0.0880751 0.0695048
0.0272068 0.088838 0.0683909
0.0416419 0.0902876 0.0681468
0.0400092 0.0924086 0.0691539
0.0364538 0.0948653 0.0704662
0.0773785 0.0975357 0.069749
0.109056 0.102495 0.0703441
0.132372 0.109575 0.071519
0.153201 0.116609 0.072221
0.182132 0.12311 0.0719768
0.22153 0.12874 0.0700847
0.263462 0.134096 0.0661479
0.304524 0.138659 0.0579538
0.348196 0.141466 0.0446784
0.39263 0.143389 0.033402
0.434318 0.145571 0.0309606
0.47303 0.147677 0.0311284
0.509621 0.149798 0.0313725
0.543313 0.150958 0.031632
0.575967 0.150729 0.0319219
0.610544 0.14934 0.0322728
0.644709 0.145892 0.0326848
0.67776 0.141619 0.0331731
0.709072 0.138354 0.033875
0.739849 0.137423 0.03505
0.770962 0.137896 0.0368505
0.775433 0.133379 0.0369726
0.773846 0.127672 0.0366217
0.772229 0.12195 0.0363012
0.770672 0.116426 0.0359503
0.768994 0.110491 0.0356146
0.0116121 0.10016 0.0772106
0.0118868 0.0995193 0.0768749
0.0147097 0.0976272 0.0755322
0.0189822 0.0988632 0.0744182
0.0261692 0.100343 0.0737316
0.0407263 0.102205 0.0737316
0.0261387 0.104433 0.0754406
0.0305486 0.107073 0.0764477
0.0834821 0.109972 0.0750591
0.123537 0.117021 0.0756085
0.145495 0.124346 0.0766766
0.172061 0.131945 0.0770733
0.205829 0.138613 0.0764019
0.247227 0.14519 0.0740826
0.291524 0.151461 0.0682536
0.340047 0.156024 0.0561685
0.392645 0.159396 0.0392462
0.446143 0.162783 0.0335699
0.494942 0.165805 0.0336767
0.534096 0.167422 0.033814
0.567437 0.16875 0.0341039
0.598611 0.16965 0.0345006
0.629953 0.16994 0.0349432
0.660502 0.169528 0.0354467
0.691112 0.169421 0.0360571
0.72079 0.169238 0.0368353
0.750744 0.169741 0.0379492
0.781201 0.172381 0.0396429
0.791287 0.170733 0.0401465
0.789654 0.167285 0.0398108
0.787991 0.163714 0.0394751
0.786206 0.15996 0.0391089
0.784405 0.1561 0.0387427
0.00906386 0.110491 0.082826
0.0090486 0.110063 0.0825971
0.00892653 0.107027 0.0808118
0.0133059 0.108782 0.0802014
0.016907 0.11046 0.0795605
0.0264744 0.112184 0.0793011
0.0366217 0.114611 0.0797894
0.02327 0.116686 0.0818799
0.0303044 0.119356 0.0823987
0.0990768 0.124147 0.0808576
0.138308 0.131762 0.0809796
0.161852 0.139849 0.08159
0.193927 0.147646 0.0814374
0.233982 0.154665 0.079881
0.275593 0.162036 0.0764172
0.320729 0.168399 0.0683452
0.376318 0.17319 0.0504311
0.435889 0.177539 0.0362707
0.495384 0.182193 0.0363775
0.545541 0.185473 0.0365606
0.58706 0.187457 0.0368811
0.623636 0.188373 0.037232
0.655909 0.189395 0.037644
0.685298 0.190417 0.0381628
0.712718 0.192813 0.0388952
0.739178 0.195209 0.0397345
0.766964 0.199359 0.0409247
0.795087 0.204349 0.0425879
0.80621 0.203342 0.0431525
0.804929 0.200488 0.0429084
0.803494 0.197345 0.0426184
0.802014 0.194018 0.0423285
0.800443 0.190585 0.0420081
0.00949111 0.121309 0.0892348
0.00949111 0.121004 0.0890516
0.00935378 0.117739 0.0870985
0.0125887 0.118715 0.0864271
0.0158236 0.120729 0.0857557
0.0203403 0.122408 0.0852064
0.0278782 0.124147 0.0847486
0.0261845 0.126131 0.0858778
0.0215305 0.12871 0.0881971
0.0303655 0.131411 0.0882124
0.115938 0.137835 0.0859541
0.153216 0.146365 0.0854963
0.183627 0.155154 0.0859083
0.221271 0.162982 0.0848402
0.264042 0.171145 0.0821088
0.306981 0.178561 0.0766003
0.355993 0.186038 0.0632029
0.415579 0.193011 0.0424811
0.481666 0.200031 0.0393378
0.542184 0.205859 0.0395361
0.591272 0.210224 0.0398108
0.635386 0.212802 0.0401617
0.674617 0.214984 0.0406348
0.70869 0.217411 0.0412146
0.737438 0.220066 0.0419165
0.763607 0.222995 0.0428168
0.789425 0.228733 0.0441138
0.813993 0.233631 0.0455634
0.818875 0.232502 0.0457771
0.818067 0.230564 0.0456092
0.817151 0.22826 0.0454414
0.81619 0.225925 0.045243
0.815 0.223133 0.0450141
0.00993362 0.132067 0.0966506
0.00993362 0.131914 0.0965744
0.00981155 0.128985 0.0943923
0.0115816 0.128634 0.0933852
0.015259 0.130999 0.0924392
0.0182345 0.132753 0.091783
0.0222324 0.134188 0.0911727
0.0327153 0.13669 0.0908522
0.0247196 0.138415 0.0933547
0.0223392 0.140932 0.0953231
0.0346685 0.144106 0.0946822
0.130068 0.1514 0.0908827
0.17409 0.161822 0.0901503
0.208515 0.170794 0.089662
0.251698 0.180896 0.0872358
0.29543 0.190768 0.0825666
0.341558 0.199863 0.0728161
0.395911 0.208179 0.0545815
0.458 0.216831 0.0432136
0.525689 0.225544 0.0426642
0.584649 0.233585 0.0428168
0.635386 0.238819 0.043183
0.679973 0.242756 0.0436561
0.719692 0.247044 0.0442054
0.753887 0.251286 0.0450294
0.785092 0.256748 0.0461585
0.814817 0.264897 0.0476844
0.832349 0.265873 0.0485542
0.831281 0.263142 0.0483101
0.830579 0.261372 0.0481727
0.829953 0.2598 0.0480354
0.829313 0.258244 0.0479286
0.828428 0.256077 0.0477302
0.0103609 0.142611 0.10454
0.0103609 0.142504 0.104479
0.0102541 0.139834 0.10248
0.0102235 0.138033 0.101106
0.0146639 0.140581 0.100267
0.0174563 0.142809 0.0993973
0.0200198 0.144381 0.098558
0.0286259 0.146471 0.097612
0.0331273 0.149126 0.0977646
0.0245823 0.151919 0.101595
0.0253147 0.155108 0.103029
0.0398108 0.159487 0.102022
0.145357 0.168795 0.0963455
0.198077 0.181308 0.0946822
0.23946 0.191043 0.0930343
0.284108 0.201999 0.089662
0.328725 0.212879 0.0821698
0.380697 0.223987 0.0645914
0.439582 0.234989 0.0487526
0.505013 0.246006 0.0456703
0.567788 0.256306 0.0456245
0.624109 0.264683 0.0460059
0.676005 0.270848 0.046479
0.721584 0.276768 0.0470741
0.760296 0.282734 0.0478981
0.795972 0.289158 0.0490425
0.830213 0.298741 0.05066
0.845396 0.297307 0.0512398
0.84419 0.294423 0.0509804
0.843046 0.291707 0.0507668
0.842145 0.28957 0.0505379
0.841337 0.287602 0.0503853
0.84065 0.285985 0.0502327
0.0107881 0.155459 0.112535
0.0107881 0.155459 0.112535
0.0107424 0.153994 0.111467
0.010605 0.149279 0.108873
0.0140078 0.1514 0.107912
0.0170596 0.154498 0.106828
0.0193942 0.156954 0.106126
0.0250401 0.159091 0.105196
0.034165 0.162264 0.104372
0.0327306 0.164752 0.105898
0.0246128 0.167224 0.109453
0.0259709 0.170718 0.110506
0.0475776 0.177279 0.108965
0.161563 0.188891 0.102647
0.225498 0.200595 0.0985885
0.271473 0.214282 0.0951705
0.317143 0.227283 0.0879683
0.366857 0.23978 0.0735027
0.425208 0.252125 0.0569162
0.488121 0.26479 0.0493019
0.553628 0.277302 0.0483406
0.610498 0.288472 0.0488289
0.665187 0.2972 0.0492866
0.715282 0.304692 0.0498512
0.759716 0.311696 0.0505837
0.797742 0.318517 0.051606
0.834928 0.328054 0.0530556
0.858946 0.329915 0.0540322
0.857145 0.325689 0.0536812
0.855543 0.321904 0.0533455
0.854231 0.31873 0.0531014
0.853208 0.316197 0.0528725
0.852384 0.314183 0.0527047
0.0112001 0.169635 0.122805
0.0112001 0.169635 0.122805
0.0111849 0.168673 0.122133
0.0110323 0.163592 0.118364
0.0130312 0.163989 0.116823
0.0166323 0.167483 0.114809
0.0189822 0.170428 0.113741
0.0225681 0.1729 0.11284
0.0293889 0.175845 0.111833
0.0406653 0.180911 0.112047
0.0320439 0.183398 0.114549
0.0248264 0.186679 0.118288
0.0311131 0.191669 0.119158
0.0592355 0.199588 0.115419
0.181552 0.211231 0.10695
0.257679 0.22594 0.100908
0.305531 0.240543 0.0952926
0.353155 0.254246 0.0834516
0.410086 0.268009 0.0635538
0.471901 0.281727 0.0554208
0.538323 0.295811 0.0545815
0.597528 0.308248 0.0531014
0.652308 0.31928 0.0519417
0.705104 0.329076 0.0525673
0.751888 0.337636 0.0532235
0.794324 0.346029 0.0541695
0.834226 0.355383 0.0554818
0.869215 0.3635 0.0569009
0.870985 0.358587 0.0565805
0.868971 0.35375 0.0561532
0.867048 0.349157 0.0557565
0.865431 0.345327 0.0554055
0.864118 0.342168 0.0551003
0.0116274 0.186709 0.133104
0.0116274 0.186709 0.133104
0.0115969 0.185763 0.13254
0.0114443 0.179507 0.128832
0.0118105 0.177752 0.127413
0.0160525 0.182971 0.125689
0.0187228 0.186938 0.124254
0.021561 0.189853 0.122911
0.0263066 0.192538 0.121294
0.0387274 0.197513 0.12015
0.0432441 0.202304 0.121294
0.0319829 0.203922 0.126131
0.0285191 0.207752 0.12958
0.03505 0.213031 0.130053
0.0769513 0.224338 0.124163
0.206744 0.237247 0.112276
0.29279 0.254246 0.103212
0.340215 0.268193 0.0916304
0.394995 0.283131 0.0776379
0.45597 0.297597 0.0661173
0.521874 0.312291 0.0639048
0.585992 0.32639 0.0577401
0.640589 0.339025 0.0543221
0.693767 0.350317 0.054963
0.742733 0.360815 0.0556802
0.786542 0.371695 0.0565957
0.827665 0.382483 0.0576638
0.868635 0.397833 0.0593576
0.885069 0.395605 0.059617
0.882765 0.389288 0.0591135
0.880613 0.383368 0.0586404
0.878676 0.378073 0.0581979
0.876951 0.373373 0.0578622
0.0120394 0.204181 0.143908
0.0120394 0.204181 0.143908
0.0120241 0.203449 0.143481
0.0118715 0.197177 0.139345
0.0118105 0.194293 0.137621
0.0154116 0.199084 0.136706
0.0184176 0.20383 0.135332
0.0208896 0.206882 0.133944
0.0239872 0.209537 0.132418
0.0338903 0.214008 0.131029
0.0453193 0.219989 0.13022
0.0432746 0.223499 0.132982
0.0310216 0.224948 0.138354
0.0301518 0.229206 0.141085
0.0386816 0.23537 0.141299
0.074342 0.249531 0.133257
0.239612 0.265538 0.119493
0.327214 0.282383 0.104051
0.381765 0.297612 0.0921035
0.441337 0.313176 0.0807202
0.504555 0.328145 0.0732586
0.572442 0.343328 0.0607004
0.63151 0.358419 0.0565957
0.685298 0.372091 0.0573434
0.734844 0.384802 0.0582895
0.779477 0.397406 0.0589456
0.820233 0.409888 0.0599222
0.861219 0.425696 0.061326
0.898451 0.435142 0.0626383
0.896422 0.427665 0.062089
0.894102 0.420523 0.0615702
0.891768 0.414069 0.0610819
0.88983 0.408682 0.0606394
0.0124514 0.223407 0.15642
0.0124514 0.223438 0.156497
0.0124514 0.222919 0.15613
0.012314 0.217212 0.152422
0.0122225 0.212757 0.149554
0.0144961 0.214862 0.148577
0.0180056 0.220798 0.147189
0.0203708 0.224353 0.145556
0.0226596 0.227314 0.144228
0.0294041 0.2309 0.142473
0.0408484 0.236805 0.141451
0.0504158 0.243824 0.140917
0.0416266 0.244968 0.145464
0.0300145 0.246708 0.150881
0.032105 0.251957 0.153307
0.0433356 0.259632 0.15285
0.096376 0.278462 0.142718
0.274189 0.295048 0.12578
0.362585 0.310155 0.107668
0.427634 0.328054 0.0937362
0.489067 0.343465 0.0817273
0.555932 0.360418 0.0684977
0.61886 0.377584 0.0641947
0.67483 0.393301 0.0634012
0.728069 0.407568 0.060502
0.774227 0.423163 0.0612192
0.814893 0.438056 0.0621653
0.854047 0.45304 0.0634318
0.894377 0.472267 0.0651102
0.909773 0.468818 0.0651865
0.907378 0.461387 0.064622
0.904906 0.453758 0.0640421
0.902663 0.446799 0.0634928
0.0128786 0.243015 0.16907
0.0128786 0.243275 0.169314
0.0128786 0.24271 0.168826
0.0128176 0.240284 0.167285
0.0126497 0.232303 0.162051
0.0133516 0.231281 0.160723
0.0174411 0.238651 0.160021
0.0200809 0.243381 0.158587
0.0222477 0.24654 0.15697
0.0268406 0.249714 0.155093
0.0357977 0.254414 0.153231
0.0482185 0.261845 0.151598
0.0518044 0.26807 0.153109
0.0392462 0.267506 0.159335
0.0320439 0.27097 0.164889
0.0352636 0.276509 0.166247
0.0475471 0.286107 0.165301
0.11426 0.309316 0.153201
0.307698 0.324483 0.133181
0.404318 0.340963 0.108232
0.473915 0.360571 0.0955825
0.540566 0.378241 0.0831006
0.606195 0.396185 0.0775769
0.663294 0.414252 0.0700084
0.717968 0.431128 0.0629282
0.767697 0.447913 0.0633555
0.810727 0.464286 0.0642557
0.849073 0.480629 0.0655222
0.888701 0.50013 0.0669108
0.92256 0.510201 0.0680095
0.920439 0.503227 0.0675517
0.91812 0.495567 0.0670481
0.91577 0.487922 0.0665446
0.0133059 0.263218 0.182528
0.0133211 0.263478 0.182681
0.0133059 0.263127 0.182498
0.0132753 0.26128 0.181262
0.0130922 0.252659 0.17557
0.0130159 0.249775 0.173617
0.0168154 0.256535 0.173312
0.0198062 0.262592 0.172381
0.021973 0.265934 0.170596
0.0251621 0.269078 0.168673
0.0315709 0.27335 0.166522
0.0414893 0.279042 0.164187
0.0542611 0.289876 0.163333
0.0523537 0.294255 0.166934
0.0376135 0.291752 0.173281
0.034165 0.29601 0.177707
0.0377661 0.302464 0.179095
0.055024 0.317174 0.177295
0.162097 0.34255 0.162875
0.344503 0.359121 0.137575
0.453071 0.378332 0.113329
0.525093 0.396399 0.0988022
0.593088 0.416266 0.0874495
0.652766 0.435645 0.0723125
0.707958 0.453864 0.064744
0.760311 0.47219 0.0654002
0.805585 0.490242 0.0670634
0.845731 0.508324 0.0674754
0.884489 0.52694 0.0687114
0.921599 0.546304 0.0702983
0.932479 0.542931 0.0701457
0.930663 0.536828 0.069688
0.928557 0.52987 0.0692454
0.0137484 0.284901 0.196033
0.0137636 0.285191 0.196277
0.0137484 0.284611 0.19588
0.0137179 0.282902 0.194766
0.0135195 0.273564 0.188907
0.0134585 0.270253 0.186847
0.0159915 0.274128 0.185779
0.0194095 0.282002 0.185107
0.0217441 0.286137 0.18352
0.0242771 0.289372 0.181689
0.0290227 0.293629 0.179675
0.0374304 0.299016 0.177279
0.0522164 0.310719 0.176089
0.0603952 0.320989 0.17496
0.05243 0.321279 0.181079
0.0379492 0.318914 0.187625
0.0359197 0.324086 0.191333
0.0436866 0.334325 0.192767
0.0612192 0.35172 0.188907
0.199847 0.38024 0.172305
0.384344 0.396933 0.143328
0.499306 0.415396 0.116381
0.578729 0.435721 0.0951095
0.641154 0.456046 0.0722057
0.697749 0.47689 0.0704356
0.753567 0.496986 0.0717632
0.799771 0.515862 0.0695506
0.841184 0.534066 0.0695354
0.87982 0.552163 0.0707713
0.917952 0.572412 0.0722515
0.943069 0.578424 0.0726177
0.941497 0.573129 0.0722362
0.939864 0.567636 0.0718547
0.0142061 0.308415 0.21149
0.0142214 0.308736 0.211765
0.0142061 0.30811 0.211231
0.0141756 0.306874 0.210468
0.0139925 0.297078 0.204196
0.013901 0.292607 0.20116
0.0149081 0.292439 0.199527
0.0188907 0.301717 0.198779
0.0214847 0.307668 0.197208
0.0237583 0.311559 0.195422
0.0271763 0.315511 0.19324
0.0341497 0.32105 0.190784
0.0475013 0.331838 0.189441
0.0603647 0.345113 0.18645
0.0631571 0.35378 0.18819
0.0506752 0.349828 0.196262
0.0397498 0.350271 0.203342
0.0398413 0.356573 0.206439
0.0475929 0.367605 0.207004
0.0682383 0.391943 0.201007
0.246311 0.420645 0.180926
0.427665 0.437552 0.147143
0.546288 0.452064 0.110048
0.630472 0.47866 0.0897688
0.687663 0.500298 0.0847028
0.743221 0.520256 0.0749218
0.793133 0.539513 0.0710002
0.836316 0.558083 0.0715648
0.874998 0.57644 0.0727703
0.91313 0.59527 0.0741894
0.947127 0.608606 0.0787976
0.950637 0.605432 0.0774395
0.94966 0.60174 0.0755169
0.0146792 0.333242 0.2271
0.0146792 0.333532 0.227253
0.0146792 0.333242 0.2271
0.0146487 0.332036 0.226322
0.0145113 0.32401 0.221271
0.014374 0.317189 0.216999
0.014313 0.313741 0.214893
0.0182956 0.323278 0.212924
0.0212406 0.331411 0.211902
0.0234531 0.336202 0.210452
0.0259709 0.34023 0.208423
0.0312657 0.345327 0.205661
0.0427253 0.35494 0.203983
0.0564126 0.368902 0.201221
0.0672618 0.38468 0.198795
0.0648356 0.388968 0.203143
0.0486305 0.380453 0.212833
0.0399329 0.381353 0.218921
0.0413825 0.388495 0.22179
0.051957 0.40293 0.222293
0.0731518 0.431342 0.214527
0.296498 0.464546 0.190143
0.473472 0.480217 0.149096
0.598703 0.496742 0.109178
0.678431 0.522728 0.0957961
0.733639 0.542412 0.0780041
0.78529 0.561746 0.0731823
0.83032 0.580743 0.0735943
0.869139 0.597803 0.078233
0.906737 0.61503 0.0829175
0.94313 0.634806 0.0844739
0.957763 0.633509 0.0840162
0.956832 0.629847 0.0840772
0.0151827 0.358541 0.242893
0.0151827 0.358862 0.243091
0.0151827 0.358862 0.243091
0.0151522 0.357565 0.242252
0.0150912 0.35378 0.239948
0.0148623 0.341924 0.232547
0.014786 0.338384 0.230335
0.0175479 0.344244 0.228321
0.0209201 0.354757 0.227741
0.0232547 0.36083 0.22652
0.0254063 0.365057 0.224109
0.0280461 0.369589 0.221073
0.0372015 0.377722 0.218662
0.0500954 0.390661 0.217075
0.0648203 0.409323 0.212757
0.0706188 0.422217 0.212787
0.0636912 0.42092 0.220264
0.0472419 0.410681 0.23064
0.0405127 0.411841 0.23621
0.0449073 0.421958 0.239139
0.0565194 0.438422 0.238239
0.0795148 0.473472 0.228565
0.340566 0.508919 0.200855
0.523445 0.52314 0.156344
0.651392 0.542702 0.108003
0.723888 0.564095 0.0757
0.778103 0.583032 0.0787366
0.823407 0.601267 0.087068
0.862867 0.617899 0.0860761
0.899351 0.634485 0.0865797
0.935683 0.652979 0.0894636
0.963012 0.660166 0.0906386
0.962295 0.656687 0.0898146
0.0157168 0.38616 0.26186
0.0157321 0.386572 0.262074
0.0157321 0.386435 0.261921
0.0157015 0.385336 0.261128
0.0156405 0.382284 0.258808
0.0153811 0.368917 0.249378
0.0153048 0.364767 0.246738
0.016556 0.365438 0.24448
0.0204776 0.378042 0.243992
0.0230564 0.385641 0.243412
0.0252384 0.390204 0.241398
0.0273747 0.394629 0.238437
0.0335393 0.400931 0.235462
0.0441291 0.411826 0.233722
0.0589761 0.429267 0.230411
0.0708934 0.449409 0.227375
0.0728771 0.458854 0.230198
0.0607156 0.449088 0.239902
0.0468452 0.441444 0.250492
0.0437171 0.444907 0.255985
0.0491035 0.455238 0.258076
0.0620127 0.475639 0.256687
0.0973068 0.512718 0.243854
0.389105 0.550408 0.211795
0.576974 0.565179 0.160586
0.693904 0.581811 0.103746
0.768231 0.603021 0.104631
0.816983 0.621134 0.105531
0.856275 0.637888 0.0910811
0.892866 0.654627 0.0922103
0.929351 0.673274 0.0945602
0.961639 0.686259 0.0964828
0.967651 0.683665 0.0959029
0.0162966 0.414023 0.282979
0.0163119 0.414603 0.283391
0.0163119 0.414603 0.283391
0.0162814 0.413413 0.282582
0.0162356 0.410803 0.280537
0.0159457 0.397482 0.270375
0.0158541 0.392737 0.266743
0.0157778 0.389212 0.264179
0.0199435 0.401297 0.262974
0.022858 0.410742 0.262852
0.0251011 0.416587 0.261341
0.0272374 0.421073 0.258122
0.0311589 0.426078 0.254932
0.0390326 0.434134 0.252277
0.0528878 0.449561 0.249653
0.0674144 0.471031 0.245624
0.0767224 0.489876 0.243931
0.0745403 0.493629 0.250324
0.059617 0.478691 0.262348
0.0477607 0.472053 0.272297
0.046952 0.477409 0.277455
0.0542306 0.491142 0.279652
0.0685283 0.515877 0.277012
0.126604 0.555093 0.260014
0.439933 0.592798 0.227268
0.629252 0.606928 0.166201
0.734508 0.618067 0.133379
0.806668 0.640177 0.114366
0.849882 0.657588 0.0964981
0.886137 0.674556 0.0973526
