creator/production/LUTS/COLD.cube
TITLE "Generated by Resolve"
LUT_3D_SIZE 5
0.0378271 0.0423285 0.0500343
0.13994 0.0541695 0.045716
0.356909 0.0547189 0.0099031
0.640131 0.00979629 0.0142214
0.695003 0.0108034 0.0184024
0.0116121 0.10016 0.0772106
0.0834821 0.109972 0.0750591
0.392645 0.159396 0.0392462
0.691112 0.169421 0.0360571
0.784405 0.1561 0.0387427
0.0120394 0.204181 0.143908
0.0239872 0.209537 0.132418
0.239612 0.265538 0.119493
0.734844 0.384802 0.0582895
0.88983 0.408682 0.0606394
0.0157168 0.38616 0.26186
0.0204776 0.378042 0.243992
0.0728771 0.458854 0.230198
0.576974 0.565179 0.160586
0.967651 0.683665 0.0959029
0.022797 0.612299 0.511116
0.022797 0.612299 0.511116
0.0415351 0.63621 0.476036
0.0483558 0.67306 0.529809
0.882383 0.859602 0.425452
0.0322576 0.0434119 0.111803
0.141756 0.0545663 0.104845
0.373037 0.0322423 0.115648
0.653696 0.0109865 0.14548
0.709392 0.0108186 0.146227
0.00860609 0.113008 0.177264
0.0614176 0.119066 0.15761
0.341985 0.1467 0.154223
0.654429 0.0595102 0.116609
0.758053 0.0525978 0.101488
0.0118868 0.230137 0.265202
0.0205997 0.224537 0.22266
0.226825 0.280888 0.21471
0.737591 0.371283 0.171771
0.882368 0.405814 0.179995
0.01561 0.40763 0.365576
0.0188602 0.388327 0.320409
0.0787366 0.472099 0.285267
0.574334 0.570092 0.252018
0.966705 0.676997 0.0943923
0.022797 0.618662 0.546685
0.0226444 0.60943 0.505623
0.040589 0.626337 0.460075
0.517021 0.791424 0.435615
0.884916 0.848783 0.401404
0.0248417 0.0329747 0.1953
0.178332 0.0541695 0.220218
0.388952 0.0177157 0.226993
0.663722 0.0117342 0.297139
0.725078 0.0113069 0.310079
0.00972 0.124819 0.32253
0.0451667 0.119509 0.289448
0.34522 0.151598 0.303807
0.663752 0.0598001 0.327413
0.774411 0.0542916 0.341588
0.0118563 0.243412 0.391089
0.0199435 0.247745 0.37673
0.220905 0.304845 0.373724
0.6804 0.335103 0.370794
0.850355 0.319219 0.358419
0.015198 0.433661 0.519249
0.0179141 0.419257 0.491386
0.0500954 0.462577 0.455848
0.551324 0.60087 0.460883
0.950881 0.665614 0.437659
0.0228885 0.63949 0.684581
0.0222782 0.628656 0.662013
0.0337987 0.634272 0.604486
0.448814 0.796521 0.585565
0.870573 0.865431 0.582559
0.0212558 0.0182956 0.427802
0.262043 0.0204166 0.456397
0.510582 0.0152743 0.458686
0.6795 0.0116884 0.459617
0.745068 0.0135348 0.46804
0.0110475 0.0855421 0.499443
0.0416724 0.0709392 0.449088
0.428519 0.141192 0.488075
0.672419 0.0614023 0.480491
0.7879 0.0555428 0.498741
0.0129854 0.300862 0.570901
0.0203403 0.294423 0.551659
0.138064 0.328862 0.541146
0.681849 0.357137 0.558465
0.858137 0.337758 0.561593
0.015259 0.445701 0.622721
0.0173342 0.429419 0.598871
0.0383459 0.47509 0.600488
0.582406 0.624414 0.627176
0.936782 0.642664 0.618585
0.0224308 0.645914 0.754711
0.0213779 0.632059 0.737453
0.0325475 0.642084 0.718303
0.104005 0.766323 0.706386
0.85655 0.8757 0.720317
0.0214389 0.0187228 0.448478
0.263264 0.0208286 0.507408
0.532326 0.0146334 0.544518
0.698451 0.0104982 0.568002
0.761944 0.0154574 0.584512
0.0118715 0.0823072 0.592798
0.0405127 0.0672465 0.569024
0.479912 0.121202 0.637324
0.712917 0.0607919 0.652338
0.804959 0.0578927 0.657694
0.0140383 0.34345 0.70753
0.0209354 0.33933 0.707286
0.0965438 0.347387 0.710216
0.716014 0.383536 0.760494
0.870878 0.364187 0.761776
0.016495 0.504616 0.777081
0.0179751 0.496605 0.774212
0.0335393 0.522286 0.782315
0.554681 0.654871 0.83537
0.928954 0.665858 0.82916
0.0224613 0.653193 0.827604
0.0210422 0.633356 0.807752
0.031754 0.643961 0.800381
0.0922866 0.749752 0.820172
0.879683 0.880888 0.841856
