creator/production/LUTS/COLD.cube
TITLE "Generated by Resolve"
LUT_3D_SIZE 9
0.0378271 0.0423285 0.0500343
0.0793469 0.0461433 0.0486763
0.13994 0.0541695 0.045716
0.233753 0.0582895 0.0357824
0.356909 0.0547189 0.0099031
0.496941 0.0117037 0.0115511
0.640131 0.00979629 0.0142214
0.695003 0.0108034 0.0184024
0.695003 0.0108034 0.0184024
0.0243381 0.0674449 0.0578927
0.0604257 0.0699474 0.0542458
0.136965 0.0841077 0.0573739
0.223484 0.0963149 0.0542916
0.358846 0.102174 0.0235447
0.518456 0.0904555 0.023682
0.65655 0.0422217 0.024506
0.733013 0.037995 0.0273289
0.723522 0.0312657 0.0252537
0.0116121 0.10016 0.0772106
0.0261692 0.100343 0.0737316
0.0834821 0.109972 0.0750591
0.205829 0.138613 0.0764019
0.392645 0.159396 0.0392462
0.567437 0.16875 0.0341039
0.691112 0.169421 0.0360571
0.791287 0.170733 0.0401465
0.784405 0.1561 0.0387427
0.0103609 0.142611 0.10454
0.0146639 0.140581 0.100267
0.0331273 0.149126 0.0977646
0.145357 0.168795 0.0963455
0.328725 0.212879 0.0821698
0.567788 0.256306 0.0456245
0.760296 0.282734 0.0478981
0.84419 0.294423 0.0509804
0.84065 0.285985 0.0502327
0.0120394 0.204181 0.143908
0.0118105 0.194293 0.137621
0.0239872 0.209537 0.132418
0.0310216 0.224948 0.138354
0.239612 0.265538 0.119493
0.504555 0.328145 0.0732586
0.734844 0.384802 0.0582895
0.898451 0.435142 0.0626383
0.88983 0.408682 0.0606394
0.0137484 0.284901 0.196033
0.0135195 0.273564 0.188907
0.0217441 0.286137 0.18352
0.0522164 0.310719 0.176089
0.0359197 0.324086 0.191333
0.384344 0.396933 0.143328
0.697749 0.47689 0.0704356
0.87982 0.552163 0.0707713
0.939864 0.567636 0.0718547
0.0157168 0.38616 0.26186
0.0156405 0.382284 0.258808
0.0204776 0.378042 0.243992
0.0335393 0.400931 0.235462
0.0728771 0.458854 0.230198
0.0491035 0.455238 0.258076
0.576974 0.565179 0.160586
0.856275 0.637888 0.0910811
0.967651 0.683665 0.0959029
0.0185855 0.506523 0.36495
0.0185245 0.504173 0.362692
0.0177005 0.472969 0.333486
0.0292973 0.501945 0.325277
0.0673228 0.555489 0.311299
0.0725261 0.58793 0.331395
0.0670176 0.605905 0.364431
0.75938 0.726421 0.238254
0.963729 0.773693 0.23154
0.022797 0.612299 0.511116
0.022797 0.612299 0.511116
0.022797 0.612299 0.511116
0.0310063 0.624811 0.499413
0.0415351 0.63621 0.476036
0.0955978 0.729534 0.460502
0.0483558 0.67306 0.529809
0.0697795 0.710918 0.537743
0.882383 0.859602 0.425452
0.0345006 0.0437018 0.0775158
0.0779126 0.0471046 0.0762188
0.141665 0.0549783 0.0762798
0.240742 0.0603952 0.0729839
0.367712 0.0397345 0.044831
0.509667 0.0121614 0.0429847
0.64947 0.0105287 0.0471199
0.704005 0.0107729 0.0487221
0.703471 0.0107729 0.0466011
0.0179599 0.0708171 0.0960403
0.0577096 0.0730755 0.0895705
0.128374 0.0826886 0.0890822
0.221668 0.0926833 0.0846723
0.357733 0.0892042 0.0538949
0.510048 0.0506142 0.0403754
0.648234 0.0335699 0.0418097
0.727245 0.0298924 0.0446784
0.719631 0.0244755 0.041062
0.00854505 0.107759 0.124819
0.0163729 0.105394 0.107729
0.0770275 0.113909 0.102953
0.212589 0.139071 0.0990921
0.348592 0.156786 0.0887465
0.529564 0.164233 0.0479896
0.680049 0.160311 0.0477455
0.788556 0.155154 0.0496834
0.782971 0.146395 0.0450904
0.0103151 0.15169 0.155428
0.0137636 0.145464 0.136217
0.032929 0.152132 0.121645
0.143465 0.172259 0.120089
0.327764 0.210208 0.0833448
0.574777 0.251362 0.0449683
0.734081 0.276799 0.0491646
0.842588 0.30576 0.0516976
0.844617 0.29546 0.0510719
0.0119783 0.211643 0.179553
0.0117494 0.197772 0.158099
0.023209 0.20853 0.138949
0.0866407 0.231479 0.126101
0.242069 0.262181 0.117617
0.501335 0.324697 0.072282
0.737499 0.380606 0.0576791
0.895857 0.42594 0.0619669
0.889525 0.407889 0.0605936
0.0137026 0.281941 0.194156
0.0134737 0.271061 0.18735
0.0213779 0.282658 0.181964
0.0501106 0.305364 0.174655
0.0621042 0.334371 0.179736
0.38555 0.391516 0.140276
0.692958 0.471565 0.0679637
0.878279 0.547326 0.0703746
0.937102 0.558358 0.0712139
0.0156405 0.382635 0.259159
0.0155795 0.378927 0.256321
0.0199435 0.372412 0.241428
0.0323949 0.396139 0.233509
0.0920119 0.465232 0.217807
0.068452 0.471946 0.244709
0.57702 0.559152 0.156909
0.852735 0.632853 0.0900282
0.9673 0.680613 0.095201
0.0184634 0.501976 0.360632
0.0184024 0.499596 0.358221
0.0175937 0.468925 0.329824
0.0288701 0.497032 0.322011
0.0652476 0.547036 0.30782
0.239338 0.627146 0.2925
0.0842145 0.627909 0.344244
0.759167 0.719478 0.223682
0.961486 0.769757 0.226078
0.022797 0.612299 0.511116
0.022797 0.612299 0.511116
0.022797 0.612299 0.511116
0.0304723 0.619501 0.490639
0.0408331 0.630106 0.466392
0.0966354 0.725231 0.447318
0.0979171 0.752819 0.499168
0.0871595 0.74699 0.541619
0.883345 0.853361 0.411109
0.0322576 0.0434119 0.111803
0.0833906 0.0483406 0.109865
0.141756 0.0545663 0.104845
0.242679 0.061265 0.112764
0.373037 0.0322423 0.115648
0.515648 0.012665 0.125185
0.653696 0.0109865 0.14548
0.710109 0.0108186 0.153689
0.709392 0.0108186 0.146227
0.0074464 0.0766766 0.150515
0.0452888 0.0760357 0.137469
0.127214 0.0843977 0.138018
0.222934 0.0944839 0.140978
0.363714 0.0905165 0.139666
0.515358 0.0374914 0.135393
0.651453 0.0333867 0.140169
0.73254 0.0296941 0.150622
0.725841 0.0249332 0.138537
0.00860609 0.113008 0.177264
0.0151064 0.111513 0.164813
0.0614176 0.119066 0.15761
0.192477 0.13579 0.158297
0.341985 0.1467 0.154223
0.516152 0.128099 0.13872
0.654429 0.0595102 0.116609
0.762661 0.0562142 0.117372
0.758053 0.0525978 0.101488
0.0101778 0.16054 0.219013
0.0132906 0.156176 0.203952
0.0256504 0.16144 0.186267
0.128435 0.181964 0.184421
0.337209 0.216815 0.180529
0.523461 0.236759 0.175357
0.684474 0.245182 0.153811
0.81091 0.256535 0.150301
0.821591 0.243229 0.134936
0.0118868 0.230137 0.265202
0.0116884 0.217319 0.247242
0.0205997 0.224537 0.22266
0.0605631 0.246845 0.213092
0.226825 0.280888 0.21471
0.501686 0.333761 0.192599
0.737591 0.371283 0.171771
0.866987 0.408103 0.185626
0.882368 0.405814 0.179995
0.0136568 0.31075 0.313588
0.0134432 0.29752 0.295079
0.0197452 0.300359 0.26807
0.0378271 0.316411 0.252247
0.128603 0.369116 0.246784
0.377325 0.410285 0.241382
0.688792 0.477317 0.181979
0.876081 0.54342 0.109941
0.929091 0.548394 0.124025
0.01561 0.40763 0.365576
0.0155337 0.403372 0.36022
0.0188602 0.388327 0.320409
0.0285344 0.408347 0.29984
0.0787366 0.472099 0.285267
0.0950332 0.510216 0.320684
0.574334 0.570092 0.252018
0.850172 0.629282 0.0901198
0.966705 0.676997 0.0943923
0.0183719 0.517586 0.437705
0.0183108 0.515221 0.434607
0.0175326 0.478889 0.38027
0.0283055 0.501961 0.357183
0.06215 0.54435 0.329183
0.353811 0.633326 0.279805
0.0992599 0.654063 0.405219
0.760693 0.715053 0.213993
0.960006 0.766934 0.221836
0.022797 0.618662 0.546685
0.022797 0.618662 0.546685
0.0226444 0.60943 0.505623
0.0300755 0.615656 0.484306
0.040589 0.626337 0.460075
0.095552 0.719783 0.441718
0.517021 0.791424 0.435615
0.104875 0.783795 0.573571
0.884916 0.848783 0.401404
0.0257725 0.0419318 0.149477
0.0896773 0.047837 0.151904
0.156313 0.0573434 0.154238
0.251575 0.0612802 0.15877
0.380804 0.0281987 0.169207
0.521935 0.0130922 0.189578
0.659175 0.0114443 0.225177
0.718105 0.0109255 0.240543
0.717449 0.0109255 0.23386
0.00798047 0.075639 0.209995
0.0273594 0.0762951 0.187701
0.131029 0.086717 0.191012
0.223331 0.0954147 0.191089
0.365713 0.0903792 0.199451
0.52076 0.0376593 0.210056
0.656626 0.0335699 0.230579
0.740658 0.0298161 0.249775
0.733974 0.0250095 0.235691
0.00917067 0.120043 0.248676
0.0152438 0.119127 0.234928
0.0486152 0.122545 0.220951
0.189029 0.140612 0.225513
0.343725 0.150195 0.231388
0.520836 0.12874 0.231617
0.659495 0.0576028 0.236774
0.77055 0.0561837 0.255146
0.767285 0.0535897 0.244831
0.0102846 0.165652 0.280735
0.0130465 0.161135 0.268864
0.0238346 0.169894 0.259968
0.116075 0.19089 0.255344
0.312505 0.213428 0.257496
0.512413 0.217472 0.248981
0.669581 0.2009 0.238483
0.786389 0.178653 0.238071
0.799832 0.166262 0.229267
0.0117647 0.237995 0.332891
0.0115511 0.227222 0.317922
0.0200809 0.238666 0.30721
0.0468147 0.251835 0.291447
0.200458 0.29279 0.295109
0.512535 0.33463 0.289723
0.692897 0.355459 0.290913
0.824155 0.371603 0.285084
0.869841 0.371481 0.279118
0.0134279 0.324071 0.390478
0.0132448 0.311879 0.37464
0.0193484 0.318059 0.359701
0.0294804 0.325307 0.332586
0.0891737 0.380118 0.328664
0.364462 0.424659 0.332403
0.687266 0.484703 0.308614
0.874113 0.531838 0.310384
0.91989 0.533745 0.316487
0.0155032 0.425361 0.45275
0.0154269 0.421317 0.447837
0.0185092 0.407355 0.414832
0.0259556 0.419837 0.384482
0.0649882 0.467308 0.374273
0.323796 0.542107 0.368795
0.564431 0.587213 0.366644
0.843275 0.644297 0.333898
0.959731 0.680156 0.325063
0.0183108 0.532509 0.527199
0.0182498 0.530571 0.52491
0.0174868 0.499123 0.482826
0.0256809 0.511299 0.44654
0.0448615 0.539239 0.429221
0.174105 0.640482 0.418128
0.314153 0.682643 0.454108
0.75024 0.737438 0.405447
0.956588 0.781949 0.386419
0.0228428 0.631418 0.627085
0.0228428 0.631418 0.627085
0.022446 0.62298 0.602975
0.0280461 0.62388 0.570733
0.0364843 0.632761 0.542077
0.085069 0.710613 0.531426
0.547906 0.803128 0.511498
0.332952 0.807935 0.603326
0.878004 0.858686 0.501549
0.0248417 0.0329747 0.1953
0.102922 0.0424353 0.210101
0.178332 0.0541695 0.220218
0.280568 0.0545968 0.224491
0.388952 0.0177157 0.226993
0.527459 0.0132448 0.255711
0.663722 0.0117342 0.297139
0.725704 0.011368 0.315877
0.725078 0.0113069 0.310079
0.00856031 0.0530404 0.275532
0.0237888 0.0635386 0.249912
0.137667 0.0850385 0.259907
0.248585 0.0930495 0.264393
0.373587 0.0822003 0.264683
0.525002 0.037644 0.280568
0.659846 0.0334173 0.306249
0.747631 0.0297704 0.329259
0.740658 0.0246433 0.315084
0.00972 0.124819 0.32253
0.0154116 0.119539 0.306935
0.0451667 0.119509 0.289448
0.199313 0.144915 0.30135
0.34522 0.151598 0.303807
0.523949 0.126421 0.313146
0.663752 0.0598001 0.327413
0.77731 0.0567788 0.35079
0.774411 0.0542916 0.341588
0.0108186 0.175814 0.357977
0.0132296 0.169726 0.344457
0.0224155 0.177386 0.335241
0.0851148 0.198413 0.332189
0.3093 0.221103 0.34139
0.515465 0.226581 0.347585
0.673777 0.208759 0.349691
0.787472 0.181765 0.357214
0.804013 0.168383 0.348501
0.0118563 0.243412 0.391089
0.0116732 0.233646 0.377768
0.0199435 0.247745 0.37673
0.0435645 0.262501 0.370352
0.220905 0.304845 0.373724
0.479026 0.332876 0.378637
0.6804 0.335103 0.370794
0.804181 0.320867 0.360098
0.850355 0.319219 0.358419
0.0133669 0.332341 0.453666
0.0131533 0.319829 0.437659
0.0189975 0.326863 0.428931
0.0274357 0.339788 0.416892
0.0749218 0.386618 0.414206
0.34786 0.438254 0.419043
0.693996 0.482063 0.411994
0.832853 0.504189 0.414725
0.911665 0.51371 0.409018
0.015198 0.433661 0.519249
0.0151217 0.430106 0.515343
0.0179141 0.419257 0.491386
0.0254215 0.436881 0.477165
0.0500954 0.462577 0.455848
0.264134 0.550805 0.453986
0.551324 0.60087 0.460883
0.838758 0.649226 0.437949
0.950881 0.665614 0.437659
0.0180667 0.541466 0.59263
0.0180056 0.539666 0.590738
0.0172885 0.510735 0.557824
0.0254063 0.528405 0.542763
0.0322271 0.5355 0.504295
0.0908675 0.632227 0.50634
0.540261 0.711131 0.502632
0.74023 0.74966 0.502998
0.951049 0.787717 0.482841
0.0228885 0.63949 0.684581
0.0228885 0.63949 0.684581
0.0222782 0.628656 0.662013
0.0276646 0.631266 0.640833
0.0337987 0.634272 0.604486
0.0604257 0.669779 0.590173
0.448814 0.796521 0.585565
0.555932 0.831281 0.625162
0.870573 0.865431 0.582559
0.0199893 0.0155032 0.27509
0.112093 0.0198978 0.29395
0.210117 0.0228428 0.307973
0.325567 0.018616 0.314687
0.441306 0.0157473 0.319661
0.539849 0.0134127 0.326986
0.668605 0.0118563 0.365866
0.734646 0.012253 0.387793
0.733867 0.012192 0.381765
0.00918593 0.0480201 0.353689
0.0229648 0.0420386 0.322698
0.147356 0.0733196 0.336721
0.281224 0.0792554 0.345586
0.414801 0.0474556 0.346014
0.531868 0.0377203 0.3467
0.662745 0.0331273 0.372549
0.753643 0.0294499 0.397879
0.746456 0.0239719 0.383307
0.0102693 0.105074 0.398245
0.0155795 0.103044 0.382727
0.0438544 0.108324 0.358724
0.215793 0.147723 0.378439
0.378836 0.151446 0.384848
0.530892 0.117311 0.383734
0.666621 0.0615396 0.399542
0.78349 0.0573129 0.428443
0.780728 0.0548409 0.41857
0.011368 0.194491 0.443214
0.0133974 0.184024 0.428153
0.0217594 0.186236 0.4159
0.0686809 0.202472 0.407919
0.321904 0.229908 0.422431
0.516854 0.232639 0.425345
0.675868 0.215167 0.434241
0.789593 0.187457 0.448783
0.809583 0.174334 0.440482
0.0123751 0.269444 0.477348
0.0121767 0.257191 0.461555
0.0200961 0.268696 0.458869
0.0403754 0.277119 0.450584
0.183856 0.31632 0.455589
0.475257 0.343404 0.466712
0.681285 0.346502 0.470512
0.806394 0.33402 0.472618
0.853803 0.327688 0.467613
0.0134432 0.335973 0.506645
0.0132753 0.326406 0.49601
0.0189364 0.335836 0.493004
0.0265354 0.351019 0.489387
0.0706951 0.39588 0.496193
0.377905 0.451957 0.501854
0.664958 0.47982 0.504662
0.820386 0.477272 0.495399
0.898039 0.469062 0.485863
0.0151369 0.440528 0.572351
0.0150759 0.436866 0.568765
0.0175326 0.424063 0.547387
0.0250248 0.445319 0.544732
0.0413825 0.467231 0.534646
0.130831 0.552987 0.535897
0.537957 0.612375 0.548135
0.838407 0.645121 0.537346
0.945113 0.65922 0.540322
0.0176852 0.545068 0.642191
0.0176394 0.543435 0.640574
0.0169375 0.515358 0.610162
0.0248722 0.535103 0.605173
0.0318151 0.547295 0.587106
0.078172 0.619058 0.586252
0.502739 0.716411 0.585061
0.729503 0.759457 0.591531
0.945846 0.790005 0.571221
0.022797 0.643549 0.72491
0.022797 0.643549 0.724926
0.0219577 0.631632 0.705226
0.0271916 0.635218 0.692729
0.0331884 0.639765 0.669047
0.0434119 0.6495 0.640711
0.266728 0.782116 0.646036
0.728817 0.849134 0.650446
0.863264 0.871244 0.654917
0.0212558 0.0182956 0.427802
0.112367 0.0212863 0.443656
0.262043 0.0204166 0.456397
0.402167 0.0178378 0.460136
0.510582 0.0152743 0.458686
0.594751 0.0121309 0.455543
0.6795 0.0116884 0.459617
0.746242 0.0136721 0.477012
0.745068 0.0135348 0.46804
0.0102388 0.0523384 0.468772
0.0226444 0.0441901 0.432441
0.166201 0.0475776 0.449332
0.332418 0.0458381 0.462242
0.481865 0.0410315 0.464088
0.582422 0.0379492 0.4589
0.671077 0.0330968 0.454139
0.7617 0.029221 0.477775
0.753872 0.023209 0.459937
0.0110475 0.0855421 0.499443
0.0159457 0.073228 0.480919
0.0416724 0.0709392 0.449088
0.241505 0.148379 0.477867
0.428519 0.141192 0.488075
0.568627 0.101396 0.484306
0.672419 0.0614023 0.480491
0.788357 0.0579995 0.509407
0.7879 0.0555428 0.498741
0.0120089 0.214267 0.53875
0.0136263 0.203677 0.523293
0.0216678 0.19826 0.507546
0.0662394 0.202731 0.493294
0.344656 0.240543 0.516915
0.552224 0.239536 0.522271
0.679866 0.219837 0.518181
0.791104 0.190341 0.532815
0.814939 0.176394 0.525139
0.0129854 0.300862 0.570901
0.0127718 0.286137 0.55491
0.0203403 0.294423 0.551659
0.0365454 0.293233 0.537163
0.138064 0.328862 0.541146
0.490211 0.356374 0.557946
0.681849 0.357137 0.558465
0.807279 0.344381 0.565087
0.858137 0.337758 0.561593
0.0140078 0.372229 0.595132
0.0138094 0.358511 0.580438
0.0191806 0.367117 0.576883
0.0260471 0.377829 0.572366
0.0658122 0.409964 0.576989
0.361166 0.465141 0.587427
0.660273 0.491493 0.595834
0.818219 0.488807 0.596277
0.899886 0.481834 0.592096
0.015259 0.445701 0.622721
0.0151827 0.442008 0.618982
0.0173342 0.429419 0.598871
0.024918 0.454231 0.604212
0.0383459 0.47509 0.600488
0.0950637 0.561715 0.616846
0.582406 0.624414 0.627176
0.81416 0.64332 0.625925
0.936782 0.642664 0.618585
0.0175631 0.547127 0.685725
0.0175174 0.545495 0.684321
0.016846 0.51841 0.65684
0.0245365 0.538506 0.657008
0.0313268 0.553948 0.648157
0.0707713 0.614481 0.65391
0.42504 0.715358 0.656489
0.722286 0.766812 0.667659
0.945632 0.785702 0.655329
0.0224308 0.645914 0.754711
0.0224308 0.64593 0.754803
0.0213779 0.632059 0.737453
0.0264439 0.635187 0.72961
0.0325475 0.642084 0.718303
0.0400244 0.651148 0.700832
0.104005 0.766323 0.706386
0.70576 0.850813 0.713634
0.85655 0.8757 0.720317
0.0211948 0.0186313 0.448295
0.101091 0.0217288 0.476265
0.268254 0.0206912 0.508186
0.42182 0.0183108 0.530739
0.53518 0.0144961 0.544778
0.626062 0.0138857 0.557794
0.70103 0.010544 0.568429
0.761944 0.0154574 0.584512
0.761944 0.0154574 0.584512
0.0109407 0.0525978 0.534844
0.0227359 0.0455634 0.515389
0.173693 0.0463417 0.548699
0.370321 0.0453651 0.5794
0.530831 0.0427253 0.595178
0.630991 0.0389258 0.601297
0.7075 0.0337377 0.602945
0.778393 0.029984 0.609354
0.770443 0.0225834 0.597971
0.0119173 0.0839399 0.594873
0.0165713 0.0797436 0.589517
0.0415045 0.0677348 0.570672
0.269703 0.149752 0.613764
0.486259 0.126284 0.639796
0.62237 0.0707408 0.649256
0.716381 0.0615702 0.650263
0.797589 0.0601205 0.637781
0.800565 0.0575113 0.617716
0.0129854 0.242054 0.658579
0.0142672 0.230549 0.653025
0.0221256 0.210925 0.644053
0.0648203 0.199252 0.626886
0.381613 0.259846 0.66099
0.60206 0.252094 0.665568
0.714443 0.225635 0.653361
0.795285 0.195087 0.63978
0.822721 0.177356 0.628702
0.0140078 0.34464 0.698848
0.0137636 0.334005 0.681773
0.0208896 0.336385 0.673777
0.0326848 0.317922 0.652918
0.112917 0.342458 0.652476
0.521126 0.373159 0.6748
0.706706 0.370428 0.673777
0.809171 0.355047 0.664057
0.86334 0.347982 0.658976
0.0148775 0.421714 0.704158
0.0146181 0.408103 0.689662
0.0196841 0.413123 0.683192
0.0262608 0.415549 0.675685
0.060441 0.432761 0.675746
0.339147 0.480522 0.683497
0.668894 0.506844 0.697185
0.81648 0.501411 0.692226
0.902434 0.494285 0.688579
0.0159609 0.4822 0.712001
0.0158999 0.479667 0.709514
0.0176394 0.466636 0.689494
0.0251469 0.484672 0.691798
0.0352178 0.496773 0.685802
0.092256 0.577661 0.706249
0.570214 0.63566 0.717784
0.807401 0.652827 0.718975
0.932555 0.651164 0.716014
0.0177005 0.551156 0.731044
0.0176699 0.549798 0.730068
0.0169833 0.523232 0.705119
0.0244602 0.54258 0.706752
0.0312047 0.55964 0.705058
0.0666819 0.614466 0.718166
0.362631 0.718959 0.731014
0.757778 0.773358 0.742092
0.924804 0.783795 0.737728
0.0221103 0.647776 0.783673
0.0221103 0.647776 0.783749
0.0209659 0.631922 0.767361
0.0258793 0.635157 0.762387
0.0318761 0.643229 0.756588
0.0384833 0.652934 0.749065
0.0967727 0.755535 0.764172
0.661875 0.849546 0.773922
0.854398 0.878813 0.781582
0.0214389 0.0187228 0.448478
0.0962692 0.0216831 0.475151
0.263264 0.0208286 0.507408
0.417288 0.0184024 0.53019
0.532326 0.0146334 0.544518
0.623377 0.0138552 0.557305
0.698451 0.0104982 0.568002
0.761944 0.0154574 0.584512
0.761944 0.0154574 0.584512
0.0109102 0.0513008 0.532052
0.0214237 0.0439765 0.511604
0.169345 0.0454566 0.545937
0.364416 0.04448 0.576715
0.526085 0.0417029 0.59234
0.625727 0.037583 0.598032
0.702632 0.0320745 0.59971
0.776104 0.0277714 0.605966
0.768277 0.020737 0.594705
0.0118715 0.0823072 0.592798
0.0162814 0.0784009 0.5879
0.0405127 0.0672465 0.569024
0.263813 0.14551 0.610697
0.479912 0.121202 0.637324
0.617975 0.0700999 0.647196
0.712917 0.0607919 0.652338
0.795499 0.0596933 0.659617
0.804959 0.0578927 0.657694
0.0129549 0.237201 0.656092
0.0137484 0.224002 0.649561
0.0218509 0.205844 0.641794
0.063386 0.192844 0.631998
0.374884 0.2598 0.681086
0.600946 0.255283 0.702037
0.718242 0.229892 0.705653
0.799039 0.203998 0.705516
0.829908 0.187442 0.705074
0.0140383 0.34345 0.70753
0.013901 0.329961 0.701915
0.0209354 0.33933 0.707286
0.0315709 0.32079 0.696468
0.0965438 0.347387 0.710216
0.524941 0.384207 0.74699
0.716014 0.383536 0.760494
0.816388 0.367834 0.761257
0.870878 0.364187 0.761776
0.0151675 0.436469 0.748226
0.0150454 0.428153 0.744747
0.0199741 0.436912 0.749157
0.0264744 0.436667 0.748775
0.0564584 0.448432 0.755993
0.307485 0.498009 0.77525
0.674678 0.527962 0.805097
0.822599 0.522713 0.810925
0.907881 0.516777 0.811673
0.016495 0.504616 0.777081
0.0164645 0.502968 0.776516
0.0179751 0.496605 0.774212
0.0255589 0.514504 0.78172
0.0335393 0.522286 0.782315
0.0887007 0.595728 0.81268
0.554681 0.654871 0.83537
0.808652 0.671977 0.840253
0.928954 0.665858 0.82916
0.0183261 0.57496 0.801907
0.0183108 0.574075 0.801587
0.0178073 0.556848 0.795407
0.0250401 0.575601 0.796826
0.0316014 0.589258 0.794965
0.0555734 0.61828 0.799008
0.282902 0.732128 0.818219
0.748455 0.783856 0.836622
0.917952 0.791806 0.83267
0.0224613 0.653193 0.827604
0.0224613 0.653239 0.827848
0.0210422 0.633356 0.807752
0.0257877 0.636316 0.803311
0.031754 0.643961 0.800381
0.0383307 0.655634 0.797406
0.0922866 0.749752 0.820172
0.626322 0.849378 0.83743
0.879683 0.880888 0.841856
