creator/production/LUTS/Fresh.cube
TITLE "Generated by Resolve"
LUT_3D_SIZE 5
0.0302739 0.0373388 0.0473945
0.0714733 0.0454414 0.0465095
0.173495 0.055436 0.0313878
0.378408 0.0403601 0
0.577234 0 0
3.0518e-05 0.0729992 0.0485389
0.0826276 0.0873121 0.0486152
0.251026 0.109392 0.00602731
0.490059 0.114549 0
0.652857 0.0646677 0
0 0.173816 0.0637369
0 0.182452 0.0601968
0.158785 0.237766 0.0363317
0.558679 0.294224 0
0.794339 0.309987 0
0 0.326787 0.0117647
0 0.332723 0.00375372
0 0.414847 0.00198367
0.382818 0.565484 0
0.859998 0.65391 0
0 0.434226 0
0 0.439551 0
0 0.51075 0.011017
0 0.570794 0.110475
0.774365 0.794278 0
0.0303197 0.0386511 0.0693217
0.0748608 0.0484321 0.0706798
0.187304 0.0575418 0.0626535
0.401938 0 0.0041352
0.594995 0 0
0 0.0833906 0.0849775
0.0896773 0.0981155 0.087892
0.239368 0.12015 0.0829938
0.495735 0.0956436 0.0256809
0.665537 0.00425727 0.0191806
0 0.201831 0.101183
0 0.206683 0.122637
0.153155 0.265522 0.164355
0.58117 0.301885 0.124956
0.770245 0.318746 0.147448
0 0.352651 0.0870527
0 0.367025 0.117174
0 0.455482 0.188876
0.360998 0.590188 0.251438
0.833844 0.645197 0.0704051
0 0.468833 0.163943
0 0.48127 0.201465
0 0.51548 0.230121
0.275242 0.716121 0.35082
0.730587 0.802426 0.369802
0.00773632 0.0368963 0.133898
0.0784009 0.0473945 0.13904
0.200595 0.0543832 0.144228
0.425147 0 0.141817
0.610758 0 0.168948
0 0.0902266 0.180728
0.0723125 0.108675 0.183658
0.243503 0.129381 0.211734
0.508125 0.0915084 0.235386
0.680491 1.5259e-05 0.284962
0 0.232486 0.309575
0 0.234089 0.328634
0.141176 0.29688 0.369879
0.533867 0.344488 0.423224
0.773114 0.354925 0.473487
0 0.428656 0.372076
0 0.436347 0.393774
0 0.502922 0.484749
0.292073 0.637278 0.574151
0.813901 0.6869 0.574533
0 0.542412 0.469795
0 0.550286 0.521874
0 0.567041 0.554757
0.0615396 0.752575 0.610422
0.707118 0.837217 0.667292
0 0 0.252384
0.0814984 3.0518e-05 0.266255
0.218357 1.5259e-05 0.294926
0.45539 0 0.336065
0.636805 0 0.406073
0 0.0235294 0.337087
0.00816358 0.0965744 0.376318
0.242649 0.11075 0.434852
0.520989 0.0206912 0.486015
0.699931 1.5259e-05 0.534554
0 0.213306 0.54078
0 0.214099 0.555505
0.0142824 0.302708 0.611444
0.537987 0.350179 0.655146
0.776516 0.36022 0.687175
0 0.453696 0.651606
0 0.465126 0.667475
0 0.514519 0.709148
0.356863 0.660533 0.741756
0.777264 0.706233 0.753567
0 0.579492 0.722255
0 0.58024 0.724468
0 0.57998 0.725719
0 0.753399 0.774075
0.69572 0.849851 0.799893
0 0 0.405386
0.0340887 0 0.423499
0.222187 0 0.466606
0.478645 0 0.521492
0.657267 0 0.568841
0 0 0.508095
0 0.00331121 0.536812
0.226474 0.0500954 0.588861
0.529198 0 0.633341
0.71574 0 0.661707
0 0.186587 0.641093
0 0.186542 0.643885
0 0.301183 0.713466
0.533272 0.362387 0.76437
0.785351 0.372351 0.791348
0 0.450797 0.747066
0 0.466697 0.760128
0 0.525109 0.79707
0.288487 0.66508 0.835172
0.775769 0.709209 0.857801
0 0.585672 0.806989
0 0.589166 0.81091
0 0.587243 0.809445
0 0.741009 0.865309
0.72282 0.855589 0.88394
