creator/production/LUTS/Fresh.cube
TITLE "Generated by Resolve"
LUT_3D_SIZE 33
0.0302739 0.0373388 0.0473945
0.0316472 0.0379644 0.0479591
0.0345312 0.0386206 0.0480049
0.0365606 0.0394446 0.0480507
0.0381781 0.0403754 0.0480354
0.0440833 0.0415198 0.0478981
0.0521248 0.0426642 0.0475319
0.062623 0.044007 0.0471962
0.0714733 0.0454414 0.0465095
0.0794232 0.0471351 0.0458381
0.0868544 0.0490272 0.0449836
0.0941939 0.0512245 0.0441444
0.105653 0.0527504 0.0426947
0.119036 0.0541848 0.0410163
0.137011 0.0547494 0.0378271
0.156161 0.0551156 0.0345617
0.173495 0.055436 0.0313878
0.190982 0.055848 0.0254215
0.208392 0.0558022 0.00996414
0.228412 0.0563973 0.00122072
0.252033 0.0566262 0.000106813
0.279301 0.0543069 0
0.30956 0.0509804 0
0.344854 0.0471809 0
0.378408 0.0403601 0
0.410132 0.0236515 0
0.439338 0.00108339 0
0.468544 0.000274662 0
0.495689 0 0
0.521096 0 0
0.542794 0 0
0.561196 0 0
0.577234 0 0
0.0304723 0.0400397 0.0489967
0.032639 0.0408942 0.049485
0.0357824 0.0416724 0.0490883
0.0369726 0.0427405 0.0490883
0.0398871 0.0438392 0.0488594
0.0458534 0.0450752 0.0485847
0.0552071 0.0463417 0.0480507
0.0656291 0.0476387 0.0475319
0.0742046 0.0491646 0.0467842
0.082475 0.0509346 0.0460212
0.0898909 0.0528572 0.0451362
0.0972763 0.0549325 0.0441596
0.110185 0.0561837 0.0422065
0.124071 0.0573739 0.0400092
0.143053 0.0578012 0.0369879
0.162127 0.0583658 0.0338293
0.179873 0.0588235 0.0300755
0.197833 0.0590829 0.0196841
0.216144 0.0593729 0.00527962
0.239109 0.0592355 0.000900282
0.264515 0.0589456 0
0.294453 0.0573281 0
0.325444 0.054612 0
0.355444 0.0496834 0
0.382101 0.0395819 0
0.412421 0.0216983 0
0.441474 0.00102235 0
0.469856 0.000244144 0
0.496925 0 0
0.521889 0 0
0.542535 0 0
0.560891 0 0
0.576501 0 0
0.029221 0.0433814 0.0492103
0.0336461 0.0443122 0.0499733
0.0359197 0.045304 0.0503243
0.0377508 0.0464332 0.0496986
0.0433051 0.0478981 0.0494392
0.0497749 0.0492714 0.0492561
0.0590829 0.0506752 0.0487221
0.0687114 0.0519875 0.0480964
0.0770733 0.0537118 0.0471809
0.0855421 0.0554513 0.0462348
0.0930037 0.057557 0.0452888
0.10103 0.0594797 0.0439155
0.114839 0.0609445 0.0417029
0.129824 0.062089 0.0395514
0.149645 0.0628672 0.0366827
0.168582 0.0634928 0.0330816
0.187091 0.064271 0.0260929
0.205798 0.0648966 0.0132906
0.226535 0.0655985 0.00318914
0.251453 0.0656291 0.000656138
0.278996 0.0643931 0
0.310216 0.0622721 0
0.343053 0.0591135 0
0.375158 0.0542458 0
0.404395 0.0464027 0
0.430243 0.0307317 0
0.453132 0.0104829 0
0.47541 0.000686656 0
0.498634 0 0
0.522942 0 0
0.54345 0 0
0.561105 0 0
0.576593 0 0
0.0271611 0.0456703 0.0493324
0.0343938 0.0471351 0.0503395
0.0376593 0.0482185 0.0510262
0.0391699 0.0493935 0.0511635
0.0449683 0.0508736 0.0503243
0.0527657 0.0522774 0.0498512
0.065095 0.0537118 0.0489815
0.0748913 0.0554055 0.048188
0.0822614 0.0570993 0.0473945
0.0895857 0.0589761 0.0466163
0.0965438 0.0609903 0.0454108
0.105974 0.0630198 0.0442512
0.119707 0.0645457 0.0420386
0.135836 0.0659342 0.0395056
0.155749 0.0670176 0.0362707
0.17496 0.0680552 0.0308232
0.194278 0.069337 0.0219883
0.215137 0.070985 0.0125429
0.237278 0.0726635 0.00177005
0.263737 0.0737163 0.000564584
0.292836 0.0738842 0
0.325582 0.0720989 0
0.358938 0.0685435 0
0.39202 0.0634012 0
0.422873 0.0564736 0
0.448936 0.0445106 0
0.473899 0.0252079 0
0.498116 0.00291447 0
0.520745 1.5259e-05 0
0.541756 1.5259e-05 0
0.559228 0 0
0.574746 0 0
0.588388 0 0
0.0229953 0.0491798 0.0493019
0.0338293 0.0506447 0.0500954
0.0388495 0.0519722 0.0511177
0.0394446 0.0532082 0.0513924
0.045182 0.0547646 0.0513924
0.0545968 0.056199 0.0506294
0.0658122 0.0576944 0.0495308
0.0767681 0.0594492 0.0481727
0.0875715 0.0615244 0.0469825
0.095613 0.0636912 0.0462348
0.102327 0.0656901 0.0456092
0.113451 0.0674907 0.0440833
0.12575 0.0691234 0.0419318
0.142229 0.0705882 0.0388342
0.161578 0.0717021 0.0350042
0.181598 0.0731365 0.0292058
0.202319 0.0747234 0.0221408
0.223987 0.0765087 0.011902
0.247105 0.078294 0.00144961
0.274937 0.0793164 0.000518807
0.304891 0.0794995 0
0.338888 0.0787366 0
0.373465 0.076585 0
0.406836 0.0732433 0
0.438621 0.0686351 0
0.465568 0.0605173 0
0.490715 0.045655 0
0.515312 0.020325 0
0.538048 0.00495918 0
0.55935 0 0
0.577676 0 0
0.593561 0 0
0.607477 0 0
0.0158389 0.0533455 0.0489204
0.0307469 0.0548409 0.0495918
0.038819 0.0561532 0.0505531
0.0423438 0.0575113 0.0515145
0.0399634 0.0597543 0.0517128
0.0521401 0.0607156 0.0511635
0.0671244 0.06215 0.0498054
0.0775464 0.0639811 0.0486
0.0879225 0.0661479 0.0474708
0.0974289 0.0681621 0.0462959
0.107729 0.0704814 0.0448615
0.123049 0.0724041 0.0419165
0.138033 0.0740368 0.0389868
0.155444 0.0756542 0.036286
0.173068 0.077348 0.0339055
0.191226 0.0790875 0.0279088
0.210971 0.0808881 0.0212863
0.232868 0.0827955 0.0104372
0.256626 0.0846571 0.00135805
0.284962 0.0860761 0.000411994
0.316152 0.0865339 0
0.350347 0.0861219 0
0.38555 0.0843214 0
0.42002 0.0813001 0
0.452659 0.0771801 0
0.479698 0.0704662 0
0.505455 0.0608682 0
0.530266 0.0471809 0
0.552331 0.0242008 0
0.573266 0.00570687 0
0.591867 0.00109865 0
0.607507 4.57771e-05 0
0.621546 1.5259e-05 0
0.00495918 0.0602884 0.0484016
0.0155032 0.0616617 0.0491646
0.0343633 0.0632486 0.0497292
0.0390936 0.0648356 0.0507057
0.0445869 0.0664683 0.0512245
0.0412146 0.0684367 0.0514229
0.0629892 0.0699168 0.0505989
0.0778058 0.0716411 0.0492409
0.0878004 0.0737469 0.0477913
0.0968795 0.0759747 0.0453956
0.106889 0.0783246 0.0431067
0.124987 0.0806287 0.0412604
0.145556 0.0826123 0.0386511
0.168719 0.0844434 0.0353552
0.18938 0.086244 0.0289464
0.20795 0.0881056 0.021912
0.226673 0.0901198 0.0141146
0.246342 0.0921798 0.00552377
0.269657 0.0940871 0.000915541
0.296132 0.0956741 0.000213626
0.327382 0.0958724 0
0.361822 0.0953384 0
0.397574 0.0931868 0
0.431464 0.0902571 0
0.464393 0.0873884 0
0.491997 0.0822614 0
0.517922 0.074815 0
0.54287 0.0653239 0
0.565194 0.0476234 0
0.585504 0.0288396 0
0.603326 0.0112917 0
0.619104 0.00289921 0
0.633005 0.00128176 0
0 0.0665599 0.0487984
0.00202945 0.0671855 0.0487831
0.0256199 0.068986 0.0488289
0.0328527 0.071107 0.0503853
0.0431983 0.0729076 0.0512093
0.0450141 0.074815 0.051606
0.0425269 0.0766918 0.0519417
0.0734417 0.0783246 0.0501564
0.0881514 0.0806134 0.0478065
0.0973678 0.0829786 0.0450752
0.107652 0.0861219 0.0439765
0.124361 0.088716 0.0425116
0.144793 0.0911421 0.040116
0.171359 0.0931258 0.0358587
0.196597 0.0950484 0.0266117
0.219974 0.0969711 0.0165866
0.2439 0.0994736 0.00741588
0.266255 0.10161 0.000839246
0.291112 0.103929 0.000366217
0.316197 0.105684 0
0.345602 0.106401 0
0.377371 0.106859 0
0.411429 0.106157 0
0.444099 0.10425 0
0.476265 0.101534 0
0.503441 0.0969863 0
0.529076 0.0905013 0
0.553552 0.0827344 0
0.575952 0.0726482 0
0.596216 0.0602426 0
0.613825 0.0400244 0
0.629221 0.0262303 0
0.642603 0.0173953 0
3.0518e-05 0.0729992 0.0485389
3.0518e-05 0.0731518 0.0485847
0.0103761 0.0751354 0.0493172
0.0229801 0.0770275 0.0495003
0.0381628 0.0789654 0.0501869
0.0545205 0.0810254 0.0506294
0.045594 0.0829938 0.0514382
0.0513466 0.0849622 0.0514534
0.0826276 0.0873121 0.0486152
0.0984512 0.0905165 0.0467384
0.108537 0.0937514 0.0457465
0.125399 0.0967422 0.0439155
0.143938 0.0995651 0.0416724
0.169329 0.102007 0.037705
0.196429 0.10428 0.028687
0.223117 0.106447 0.0156405
0.251026 0.109392 0.00602731
0.280262 0.112047 0.00047303
0.310353 0.11429 7.62951e-05
0.342351 0.115572 0
0.372625 0.116457 0
0.403189 0.116899 0
0.433433 0.117067 0
0.462119 0.116136 0
0.490059 0.114549 0
0.515846 0.111788 0
0.540368 0.107286 0
0.564416 0.101808 0
0.586282 0.0957504 0
0.606638 0.0886549 0
0.623987 0.0787518 0
0.639658 0.0707561 0
0.652857 0.0646677 0
0 0.0801251 0.0510872
0 0.0803082 0.0511482
0.000396735 0.081651 0.0518502
0.0108492 0.083772 0.0516365
0.0281529 0.0856947 0.0515297
0.0502022 0.0875563 0.0510719
0.0627909 0.0895552 0.0509804
0.0455177 0.0912184 0.0522011
0.0598917 0.0934005 0.0521401
0.0925307 0.0971695 0.0496986
0.109285 0.101244 0.0476692
0.125765 0.104463 0.0456397
0.143938 0.107622 0.0432593
0.168887 0.110475 0.039292
0.194339 0.113191 0.0322881
0.220935 0.115862 0.0178836
0.251331 0.119341 0.00697337
0.283452 0.122728 0.000259403
0.318013 0.125536 3.0518e-05
0.356664 0.126986 0
0.393591 0.127581 0
0.428885 0.127825 0
0.459754 0.127596 0
0.488167 0.127108 0
0.511437 0.12578 0
0.534661 0.124392 0
0.556252 0.12134 0
0.577707 0.118151 0
0.598398 0.114214 0
0.61767 0.110292 0
0.634562 0.106783 0
0.65005 0.103914 0
0.662837 0.100633 0
0 0.0874037 0.0537423
0 0.0878309 0.0538186
0 0.0882124 0.0544747
0.000595102 0.0900587 0.0538949
0.0107729 0.0922103 0.0537423
0.0388647 0.0941939 0.0532082
0.0641337 0.096437 0.0527657
0.0661936 0.0982986 0.053193
0.0460365 0.101183 0.0541238
0.0678264 0.103456 0.0537728
0.101884 0.107485 0.0510414
0.125597 0.111894 0.0476692
0.143618 0.115312 0.0451514
0.167987 0.118578 0.0411078
0.193973 0.121706 0.035462
0.219623 0.124788 0.0202792
0.248356 0.128389 0.00805676
0.279225 0.132418 0.000366217
0.317067 0.136095 3.0518e-05
0.358694 0.138643 0
0.400443 0.139971 0
0.442359 0.140505 0
0.478477 0.140215 0
0.509209 0.139223 0
0.534051 0.137881 0
0.556573 0.136309 0
0.577218 0.134554 0
0.596307 0.132403 0
0.614801 0.130282 0
0.631891 0.128298 0
0.647517 0.126345 0
0.662303 0.125307 0
0.675044 0.124407 0
0 0.0983749 0.0559548
0 0.0988022 0.0560311
0 0.0984665 0.0560159
1.5259e-05 0.10016 0.0563821
0.000503548 0.102144 0.0559396
0.0173953 0.1037 0.0552224
0.0513771 0.105791 0.0544289
0.0707408 0.108309 0.0538796
0.057969 0.111192 0.0547036
0.0420081 0.114397 0.0554818
0.0700236 0.117159 0.0544747
0.10985 0.122133 0.0512245
0.141939 0.126116 0.0462806
0.164889 0.129809 0.0419928
0.191287 0.133333 0.0366979
0.21799 0.136995 0.0225986
0.246357 0.140871 0.00831617
0.276844 0.145296 0.00224308
0.311971 0.149111 0
0.352377 0.151965 0
0.398001 0.15317 0
0.443824 0.153704 0
0.485023 0.153994 0
0.52105 0.153475 0
0.55024 0.152193 0
0.57557 0.14992 0
0.597925 0.148165 0
0.617197 0.145907 0
0.635218 0.144594 0
0.650294 0.143633 0
0.665125 0.143328 0
0.678538 0.143404 0
0.6925 0.143297 0
0 0.110842 0.0578164
0 0.11133 0.0578622
0 0.111223 0.057847
0 0.11165 0.0585031
0 0.113298 0.057908
0.00262455 0.115053 0.0574502
0.0260471 0.116625 0.0562448
0.0601663 0.118822 0.0551614
0.070985 0.122148 0.0547189
0.0398566 0.12694 0.0558938
0.0339361 0.131044 0.0561379
0.0684977 0.13434 0.0543984
0.11931 0.138521 0.0499886
0.159686 0.142077 0.0431067
0.18703 0.146166 0.036408
0.214603 0.1505 0.0248722
0.243137 0.154818 0.00941482
0.274571 0.160037 0.00332647
0.307988 0.165072 0
0.345296 0.169223 0
0.389807 0.172076 0
0.437995 0.173571 0
0.484154 0.173587 0
0.525505 0.172961 0
0.557992 0.171008 0
0.586496 0.168338 0
0.612619 0.165866 0
0.634867 0.163104 0
0.653788 0.161349 0
0.669932 0.161089 0
0.68629 0.161456 0
0.701076 0.163195 0
0.715068 0.165454 0
0 0.12575 0.059144
0 0.126329 0.0591897
0 0.126329 0.0591897
0 0.125277 0.0590982
0 0.127169 0.0597543
0 0.129976 0.0592966
0.00236515 0.131975 0.0582742
0.0318761 0.134005 0.056199
0.0582284 0.136858 0.0547646
0.0552834 0.140948 0.0547494
0.0191958 0.145602 0.0568856
0.020737 0.149538 0.0565042
0.0664836 0.153216 0.0536965
0.12871 0.159274 0.0452277
0.179202 0.163745 0.0305791
0.208621 0.168643 0.0193179
0.238407 0.174182 0.00816358
0.269902 0.180423 0.0019379
0.304143 0.186435 1.5259e-05
0.341207 0.191119 0
0.383307 0.194949 0
0.428305 0.197086 0
0.477546 0.198047 0
0.523079 0.197513 0
0.560739 0.195407 0
0.593561 0.193225 0
0.622492 0.191135 0
0.647135 0.188464 0
0.668879 0.186725 0
0.689448 0.186801 0
0.707286 0.187778 0
0.722805 0.189929 0
0.736309 0.192172 0
0 0.141299 0.0607462
0 0.142 0.0608225
0 0.142107 0.0608377
0 0.141299 0.0607462
0 0.141268 0.0608225
0 0.143709 0.0606394
0 0.147097 0.0601511
0.00640879 0.149432 0.0582895
0.0271611 0.151675 0.0556649
0.0538338 0.156008 0.0540322
0.0281529 0.159747 0.0551766
0.00555428 0.164416 0.0578927
0.00787366 0.168688 0.0575418
0.0599374 0.176242 0.0563668
0.139345 0.18436 0.0446326
0.201282 0.189853 0.0249638
0.233524 0.195407 0.0117342
0.265202 0.201572 0.0015259
0.298772 0.207813 0.00015259
0.335836 0.213519 0
0.377386 0.219135 0
0.422263 0.223178 0
0.469459 0.226001 0
0.516732 0.227939 0
0.55967 0.228168 0
0.596475 0.227085 0
0.628779 0.224628 0
0.656886 0.22237 0
0.683604 0.221317 0
0.706493 0.221988 0
0.725872 0.223239 0
0.742824 0.225696 0
0.757092 0.228748 0
0 0.157443 0.0624399
0 0.158145 0.062501
0 0.158251 0.062501
0 0.157534 0.0624552
0 0.156634 0.0623789
0 0.157458 0.0625925
0 0.160784 0.0612497
0 0.164401 0.0603189
0.00521859 0.16733 0.0576638
0.0240787 0.170886 0.0546426
0.037705 0.175174 0.0532235
0.00288396 0.179416 0.0572976
0.000549325 0.185138 0.0609598
0.00138857 0.191775 0.0612802
0.0398871 0.199969 0.0575265
0.149096 0.210407 0.0422065
0.223316 0.218097 0.0135958
0.261097 0.22594 0.00254826
0.296712 0.233448 0.000259403
0.333608 0.240375 1.5259e-05
0.374319 0.246098 0
0.418677 0.250446 0
0.465461 0.25417 0
0.5131 0.257832 0
0.558083 0.260441 0
0.596338 0.26128 0
0.63238 0.26128 0
0.665949 0.260807 0
0.695903 0.260578 0
0.721569 0.262196 0
0.743435 0.263691 0
0.760845 0.265721 0
0.776333 0.268482 0
0 0.173816 0.0637369
0 0.174624 0.063798
0 0.174929 0.0638132
0 0.174121 0.0637522
0 0.173419 0.0637064
0 0.172305 0.0636149
0 0.173983 0.0638895
0 0.178286 0.0620279
0 0.182452 0.0601968
0.00189212 0.186267 0.0566415
0.0179751 0.19057 0.0525673
0.0107271 0.196872 0.0555886
0.000167849 0.201648 0.0619364
1.5259e-05 0.206744 0.0643168
0 0.214817 0.0630961
0.00747692 0.224247 0.058854
0.158785 0.237766 0.0363317
0.245716 0.248402 0.00772107
0.289006 0.257527 0
0.328313 0.266575 0
0.370901 0.274922 0
0.416266 0.281636 0
0.463706 0.286442 0
0.513649 0.290883 0
0.558679 0.294224 0
0.600183 0.296895 0
0.638071 0.299611 0
0.672206 0.300481 0
0.704097 0.301198 0
0.733562 0.303197 0
0.758053 0.304784 0
0.777173 0.307103 0
0.794339 0.309987 0
0 0.191485 0.0640116
0 0.192386 0.0639811
0 0.192737 0.0639658
0 0.192386 0.0639811
0 0.191485 0.0640116
0 0.190356 0.0640421
0 0.188769 0.0640879
0 0.191211 0.0643626
0 0.196368 0.06215
1.5259e-05 0.201297 0.0596323
0 0.205676 0.0552682
0.000732433 0.214069 0.0544442
0 0.220539 0.0586404
0 0.224277 0.0637064
0 0.230411 0.0647898
0 0.239322 0.0648203
0.00819409 0.251209 0.0569009
0.169543 0.268147 0.0252689
0.269413 0.281727 0.00262455
0.319722 0.292744 0
0.363806 0.303029 0
0.408789 0.311772 0
0.458839 0.318578 0
0.510796 0.325429 0
0.560906 0.330251 0
0.60592 0.334524 0
0.643381 0.337697 0
0.677378 0.339986 0
0.710399 0.342138 0
0.742046 0.34519 0
0.768322 0.347372 0
0.791104 0.350423 0
0.810361 0.35346 0
0 0.209934 0.063447
0 0.210773 0.0633707
0 0.211292 0.0633249
0 0.211292 0.0633249
0 0.210163 0.0634318
0 0.209369 0.0634623
0 0.207889 0.063508
0 0.206088 0.0635538
0 0.210376 0.0629587
0 0.217273 0.0597696
1.5259e-05 0.223041 0.0560769
1.5259e-05 0.231067 0.0534676
0 0.240131 0.0534981
0 0.244846 0.0597238
0 0.248524 0.0626841
0 0.256245 0.0633707
0 0.267506 0.0624857
0.00636301 0.282002 0.0495613
0.18088 0.301472 0.0109865
0.295964 0.318975 0
0.352972 0.332738 0
0.401602 0.343481 0
0.451865 0.352834 0
0.505516 0.361486 0
0.558755 0.368444 0
0.606485 0.37406 0
0.648371 0.379538 0
0.684489 0.38352 0
0.717006 0.386862 0
0.747784 0.390463 0
0.775845 0.393637 0
0.801358 0.39733 0
0.821988 0.400809 0
0 0.230396 0.061265
0 0.23154 0.0611429
0 0.231907 0.0611124
0 0.232044 0.0610971
0 0.231022 0.0612039
0 0.230518 0.0612497
0 0.229511 0.0613565
0 0.227741 0.0615549
0 0.225711 0.0617685
0 0.232563 0.06009
0 0.240391 0.0554818
1.5259e-05 0.248402 0.0486152
0 0.260212 0.0475013
0 0.267979 0.0485084
0 0.271534 0.057969
0 0.274128 0.0599985
0 0.284337 0.0607462
0 0.297841 0.057847
0.000106813 0.31603 0.037171
0.194842 0.341299 0.00131228
0.324559 0.363485 0
0.38938 0.377615 0
0.442039 0.389456 0
0.496925 0.400092 0
0.553155 0.409277 0
0.604608 0.416968 0
0.651453 0.423972 0
0.689281 0.429297 0
0.722942 0.433402 0
0.754238 0.438224 0
0.78291 0.442603 0
0.80824 0.446921 0
0.831601 0.451942 0
0 0.251087 0.0577859
0 0.25214 0.0575113
0 0.252796 0.0573434
0 0.252934 0.0573129
0 0.252399 0.0574502
0 0.252018 0.0575418
0 0.251347 0.0577096
0 0.249912 0.0580911
0 0.248585 0.0584268
0 0.248554 0.058732
0 0.257237 0.0552834
0 0.266728 0.0471656
0 0.279881 0.0420844
1.5259e-05 0.290883 0.0347906
0 0.298146 0.0404822
0 0.298741 0.054078
0 0.303014 0.0572366
0 0.314504 0.0572213
0 0.330587 0.0514534
0 0.35407 0.014847
0.220111 0.386282 3.0518e-05
0.357992 0.41146 0
0.430915 0.426825 0
0.487205 0.439185 0
0.544869 0.44979 0
0.601236 0.459709 0
0.65156 0.468772 0
0.692271 0.47541 0
0.727962 0.480751 0
0.761074 0.486717 0
0.78938 0.491051 0
0.815488 0.495964 0
0.839536 0.501472 0
0 0.272145 0.052369
0 0.273198 0.0520943
0 0.273854 0.0519265
0 0.274235 0.0518196
0 0.274113 0.0518502
0 0.274113 0.0518502
0 0.273716 0.051957
0 0.272923 0.0521553
0 0.272007 0.0523995
0 0.270695 0.0527352
0 0.273854 0.0522469
0 0.285252 0.0421607
0 0.298268 0.0284123
0 0.314137 0.0187381
0 0.324361 0.0164492
0 0.327611 0.0357977
0 0.325826 0.0482032
0 0.330861 0.0529335
0 0.345144 0.0532845
0 0.363653 0.0400244
1.5259e-05 0.393072 0.00392157
0.247181 0.432319 0
0.396506 0.461219 0
0.477974 0.477806 0
0.536599 0.49012 0
0.59649 0.501289 0
0.648737 0.511589 0
0.694133 0.519768 0
0.732387 0.526528 0
0.76582 0.532341 0
0.795499 0.537148 0
0.823163 0.542412 0
0.846281 0.547616 0
0 0.291661 0.0446632
0 0.29276 0.0441901
0 0.29337 0.0439155
0 0.293721 0.0437629
0 0.293843 0.0437171
0 0.294697 0.0433356
0 0.294697 0.0433356
0 0.294209 0.0435492
0 0.293965 0.0436561
0 0.293248 0.0439765
0 0.292393 0.0443427
0 0.300404 0.0371099
0 0.314046 0.0184787
0 0.333364 0.0139162
0 0.348852 0.00743114
0 0.356542 0.00944533
0 0.356115 0.0303349
0 0.352224 0.045655
0 0.359747 0.0510567
0 0.374899 0.0514992
0 0.395438 0.026154
0.00552377 0.432502 0
0.286732 0.478813 0
0.441062 0.510185 0
0.529046 0.526085 0
0.589578 0.538384 0
0.64567 0.549599 0
0.694453 0.559152 0
0.734295 0.566766 0
0.769024 0.573373 0
0.800244 0.578729 0
0.827817 0.5832 0
0.852216 0.588373 0
0 0.310002 0.0343938
0 0.31107 0.0329595
0 0.311818 0.0319524
0 0.312337 0.0312352
0 0.312657 0.030808
0 0.313832 0.0292363
0 0.31426 0.0286564
0 0.31458 0.0282292
0 0.314366 0.0285191
0 0.314153 0.028809
0 0.313832 0.0292363
0 0.314641 0.0293584
0 0.329168 0.0087129
0 0.350561 0.00444038
0 0.370336 0.00332647
0 0.382879 0.00157168
0 0.386526 0.0121004
0 0.381323 0.0353857
0 0.379278 0.0493172
0 0.38883 0.0537881
0 0.405264 0.0424964
0 0.42948 0.0116732
0.0105135 0.471931 0.000503548
0.331624 0.522637 0
0.490303 0.554131 0
0.582177 0.570306 0
0.642344 0.58294 0
0.69398 0.593362 0
0.734722 0.601083 0
0.770657 0.608042 0
0.803159 0.613458 0
0.830594 0.617945 0
0.856565 0.622889 0
0 0.326787 0.0117647
0 0.327733 0.0104829
0 0.328374 0.00962844
0 0.329015 0.00875868
0 0.329549 0.00805676
0 0.331563 0.0053254
0 0.332509 0.00404364
0 0.33283 0.00361639
0 0.332723 0.00375372
0 0.332937 0.0034638
0 0.333043 0.00332647
0 0.332616 0.00390631
0 0.341878 0.00328069
0 0.364996 0.00122072
0 0.387182 0.000823987
0 0.4047 0.00132753
0 0.414847 0.00198367
0 0.414069 0.0115206
0 0.406912 0.0362249
0 0.407568 0.0507362
0 0.418753 0.0480659
0 0.437049 0.0305638
0 0.464591 0.0123598
0.0448768 0.511025 0
0.382818 0.565484 0
0.543511 0.595666 0
0.638086 0.612436 0
0.69247 0.623316 0
0.734936 0.631907 0
0.772931 0.639719 0
0.805402 0.644953 0
0.83328 0.649424 0
0.859998 0.65391 0
0 0.343252 0.000808728
0 0.344213 0.000762951
0 0.345068 0.000732433
0 0.345602 0.000701915
0 0.346349 0.000671397
0 0.348577 0.000579843
0 0.350179 0.000503548
0 0.351019 0.00047303
0 0.351232 0.000457771
0 0.351446 0.000457771
0 0.351873 0.000427253
0 0.351766 0.000442512
0 0.354162 0.000427253
0 0.378637 0.00015259
0 0.403647 0.00138857
0 0.423407 0.00173953
0 0.439811 0.000732433
0 0.446433 0.000915541
0 0.440482 0.00831617
0 0.433387 0.0345464
0 0.435538 0.0479744
0 0.449256 0.0430304
0 0.467842 0.0302586
0 0.50013 0.0113832
0.0856794 0.550286 0
0.436591 0.606409 0
0.599145 0.635126 0
0.68748 0.650324 0
0.73518 0.659861 0
0.773953 0.667933 0
0.805753 0.673152 0
0.835294 0.678096 0
0.861723 0.682292 0
0 0.359747 9.15541e-05
0 0.360708 4.57771e-05
0 0.361563 1.5259e-05
0 0.362371 0
0 0.363058 0
0 0.364248 0
0 0.3673 0
0 0.36849 0
0 0.368978 0
0 0.369375 0
0 0.369772 0
0 0.36997 0
0 0.369772 0
0 0.392203 1.5259e-05
0 0.41912 7.62951e-05
0 0.440253 1.5259e-05
0 0.460487 1.5259e-05
0 0.474769 0
0 0.475853 0.00257877
0 0.466758 0.0171054
0 0.459037 0.0420844
0 0.463478 0.0547494
0 0.476844 0.0485389
0 0.497932 0.0397192
0 0.534157 0.0235752
0.218112 0.589975 1.5259e-05
0.494606 0.644419 0
0.652399 0.671122 0
0.731823 0.684474 0
0.774578 0.693278 0
0.807385 0.699245 0
0.837201 0.70425 0
0.863111 0.708202 0
0 0.375387 0
0 0.376486 0
0 0.377264 0
0 0.377951 0
0 0.378744 0
0 0.379934 0
0 0.38378 0
0 0.38526 0
0 0.386145 0
