creator/production/LUTS/Fresh.cube
TITLE "Generated by Resolve"
LUT_3D_SIZE 9
0.0302739 0.0373388 0.0473945
0.0381781 0.0403754 0.0480354
0.0714733 0.0454414 0.0465095
0.105653 0.0527504 0.0426947
0.173495 0.055436 0.0313878
0.252033 0.0566262 0.000106813
0.378408 0.0403601 0
0.495689 0 0
0.577234 0 0
0.0229953 0.0491798 0.0493019
0.045182 0.0547646 0.0513924
0.0875715 0.0615244 0.0469825
0.12575 0.0691234 0.0419318
0.202319 0.0747234 0.0221408
0.304891 0.0794995 0
0.438621 0.0686351 0
0.538048 0.00495918 0
0.607477 0 0
3.0518e-05 0.0729992 0.0485389
0.0381628 0.0789654 0.0501869
0.0826276 0.0873121 0.0486152
0.143938 0.0995651 0.0416724
0.251026 0.109392 0.00602731
0.372625 0.116457 0
0.490059 0.114549 0
0.586282 0.0957504 0
0.652857 0.0646677 0
0 0.110842 0.0578164
0 0.113298 0.057908
0.070985 0.122148 0.0547189
0.11931 0.138521 0.0499886
0.243137 0.154818 0.00941482
0.389807 0.172076 0
0.557992 0.171008 0
0.653788 0.161349 0
0.715068 0.165454 0
0 0.173816 0.0637369
0 0.173419 0.0637064
0 0.182452 0.0601968
0.000167849 0.201648 0.0619364
0.158785 0.237766 0.0363317
0.370901 0.274922 0
0.558679 0.294224 0
0.704097 0.301198 0
0.794339 0.309987 0
0 0.251087 0.0577859
0 0.252399 0.0574502
0 0.248585 0.0584268
0 0.279881 0.0420844
0 0.303014 0.0572366
0.220111 0.386282 3.0518e-05
0.544869 0.44979 0
0.727962 0.480751 0
0.839536 0.501472 0
0 0.326787 0.0117647
0 0.329549 0.00805676
0 0.332723 0.00375372
0 0.341878 0.00328069
0 0.414847 0.00198367
0 0.418753 0.0480659
0.382818 0.565484 0
0.734936 0.631907 0
0.859998 0.65391 0
0 0.390463 0
0 0.393469 0
0 0.400549 0
0 0.402975 0
0 0.48954 0
0 0.521981 0.0132906
0 0.525872 0.0814832
0.609277 0.708141 0
0.863767 0.751827 0
0 0.434226 0
0 0.436011 0
0 0.439551 0
0 0.439261 0
0 0.51075 0.011017
0.0120851 0.606546 0.00926223
0 0.570794 0.110475
0 0.60502 0.149096
0.774365 0.794278 0
0.0301823 0.0382544 0.051606
0.0383307 0.0418708 0.0533608
0.0734569 0.0470588 0.053727
0.109697 0.0543221 0.0521706
0.181308 0.0565805 0.0427253
0.26305 0.0522621 0.00402838
0.386603 0.0329747 0
0.499565 0 0
0.578698 0 0
0.0182956 0.0508431 0.0570687
0.0459754 0.0566873 0.059266
0.084947 0.063508 0.0584878
0.129473 0.072221 0.0543069
0.212451 0.0778668 0.0388952
0.316304 0.0777447 1.5259e-05
0.446036 0.0648508 0
0.542107 0.00323491 0
0.613794 0 0
0 0.078706 0.0586404
0.0294957 0.0831769 0.0599527
0.0869154 0.092958 0.0635843
0.153933 0.104585 0.0550851
0.2392 0.114305 0.0445869
0.350408 0.11873 0.00248722
0.493706 0.11339 0
0.595239 0.0858625 0
0.663355 0.0393988 0
0 0.114748 0.0619364
0 0.117342 0.0630503
0.0705272 0.130541 0.0698711
0.123888 0.149966 0.0743267
0.253697 0.165896 0.0570993
0.408469 0.174197 0.00268559
0.554849 0.174838 0
0.643702 0.171618 1.5259e-05
0.714244 0.167971 1.5259e-05
0 0.176822 0.0679942
0 0.178363 0.0697795
0 0.193225 0.0755322
0.0406806 0.221958 0.086305
0.160372 0.251438 0.0916609
0.374044 0.282429 0.0209049
0.576135 0.303395 0
0.71899 0.304341 1.5259e-05
0.791974 0.308812 0
0 0.249256 0.0582589
0 0.251347 0.0577096
0 0.257786 0.0625315
0 0.299168 0.0842145
0 0.335073 0.10454
0.216175 0.398108 0.0766155
0.544198 0.456168 0.000442512
0.735012 0.491279 3.0518e-05
0.846769 0.504997 0
0 0.325719 0.0131991
0 0.329122 0.00862135
0 0.335958 0.00146487
0 0.355596 0.0715648
0 0.439628 0.0866255
0 0.452674 0.139315
0.373968 0.566018 0.0390326
0.728313 0.633219 0
0.858518 0.65832 0
0 0.390616 0
0 0.395712 1.5259e-05
0 0.412451 0.0037995
0 0.423087 0.0654002
0 0.495689 0.105592
0.00714122 0.574304 0.130846
0 0.563516 0.207843
0.594537 0.699825 0.0061799
0.847852 0.744427 0
0 0.445151 0.0323033
0 0.447517 0.037644
0 0.45623 0.0725719
0 0.460914 0.0948959
0 0.509773 0.130327
1.5259e-05 0.613947 0.157458
0 0.645609 0.215274
0 0.644587 0.279194
0.747097 0.780118 0.0325322
0.0303197 0.0386511 0.0693217
0.0417639 0.0429694 0.0693828
0.0748608 0.0484321 0.0706798
0.113375 0.0555428 0.0698711
0.187304 0.0575418 0.0626535
0.273716 0.0467231 0.0423438
0.401938 0 0.0041352
0.517525 0 0
0.594995 0 0
0.00410468 0.0536049 0.0768139
0.0426032 0.0592355 0.0740826
0.0841993 0.0659648 0.0762188
0.132342 0.0755016 0.0740063
0.218692 0.0811475 0.066392
0.324468 0.0726024 0.0415351
0.45658 0.0167544 0.0009308
0.559579 0 0
0.626963 0 0.00143435
0 0.0833906 0.0849775
0.0111696 0.0885939 0.0860456
0.0896773 0.0981155 0.087892
0.143069 0.110323 0.0874952
0.239368 0.12015 0.0829938
0.356268 0.119982 0.0667124
0.495735 0.0956436 0.0256809
0.596551 0.0328832 0.016022
0.665537 0.00425727 0.0191806
0 0.131518 0.0944228
0 0.129152 0.0957046
0.0439307 0.139147 0.102205
0.121736 0.158099 0.12047
0.258473 0.173968 0.116365
0.375952 0.184894 0.116747
0.523659 0.179095 0.0945449
0.631769 0.158877 0.0752422
0.705699 0.142824 0.0757458
0 0.201831 0.101183
0 0.195682 0.11284
0 0.206683 0.122637
0.016144 0.233631 0.139101
0.153155 0.265522 0.164355
0.373892 0.294423 0.147005
0.58117 0.301885 0.124956
0.698634 0.30428 0.129961
0.770245 0.318746 0.147448
0 0.279118 0.095552
0 0.275776 0.11014
0 0.280476 0.119783
0 0.31136 0.133242
0.00488289 0.369955 0.184649
0.188846 0.420478 0.202365
0.537499 0.465461 0.157351
0.72256 0.483543 0.0892042
0.831083 0.493141 0.12018
0 0.352651 0.0870527
0 0.355276 0.0997177
0 0.367025 0.117174
0 0.376516 0.133089
0 0.455482 0.188876
0 0.506065 0.251865
0.360998 0.590188 0.251438
0.707637 0.63093 0.168322
0.833844 0.645197 0.0704051
0 0.41857 0.104479
0 0.422782 0.120928
0 0.436881 0.14876
0 0.445212 0.164706
0 0.505684 0.203372
0 0.60798 0.277714
0 0.613626 0.348165
0.581231 0.719463 0.304814
0.81883 0.739528 0.225071
0 0.468833 0.163943
0 0.472465 0.17734
0 0.48127 0.201465
0 0.483986 0.208194
0 0.51548 0.230121
0 0.626917 0.297917
0.275242 0.716121 0.35082
3.0518e-05 0.691356 0.429511
0.730587 0.802426 0.369802
0.0233616 0.0398718 0.0971695
0.0395972 0.0432898 0.0980697
0.0769207 0.049134 0.100206
0.11725 0.055848 0.10219
0.193469 0.0572366 0.100053
0.283497 0.0407416 0.0926528
0.412299 0 0.0809949
0.525475 0 0.0682994
0.600565 0 0.0782635
0 0.0559701 0.109331
0.0370184 0.0617533 0.107286
0.0849775 0.0686809 0.108293
0.134401 0.0780194 0.112032
0.224475 0.0831006 0.112123
0.333532 0.0724804 0.105791
0.463661 0.00103761 0.092607
0.565911 0 0.0933242
0.632074 0 0.104585
0 0.0881971 0.125917
0.00442512 0.0938125 0.124743
0.0851453 0.103197 0.123995
0.13962 0.115587 0.132494
0.241169 0.125383 0.136187
0.361898 0.124712 0.135607
0.501045 0.0953078 0.128161
0.601038 0.0187381 0.12961
0.671611 0 0.149203
0 0.138247 0.153445
0 0.137942 0.156664
0.0127413 0.149538 0.16321
0.129717 0.16672 0.177554
0.236378 0.18555 0.188693
0.370199 0.195972 0.196933
0.529091 0.188098 0.198169
0.639353 0.168032 0.203265
0.713924 0.152255 0.224445
0 0.219913 0.184802
0 0.218708 0.184955
0 0.219059 0.192386
0.000457771 0.248829 0.218158
0.124651 0.281361 0.258015
0.37499 0.310323 0.268101
0.544884 0.327474 0.284398
0.679561 0.333501 0.290761
0.771908 0.340856 0.312657
0 0.309148 0.180468
0 0.307256 0.18233
0 0.305547 0.209323
0 0.334829 0.241352
0.0009308 0.391653 0.286534
0.155062 0.445548 0.344961
0.532982 0.488869 0.334051
0.726497 0.505684 0.343542
0.819165 0.523537 0.380957
0 0.385992 0.178805
0 0.384756 0.191379
0 0.397513 0.240269
0 0.408453 0.266239
0 0.471809 0.298985
0.0366217 0.562615 0.397971
0.331533 0.618143 0.431479
0.696864 0.657084 0.399222
0.82446 0.668345 0.378561
0 0.453361 0.22121
0 0.455268 0.246296
0 0.472099 0.300954
0 0.480476 0.320089
0 0.526299 0.341344
1.5259e-05 0.626993 0.422461
0 0.675608 0.487846
0.565499 0.743984 0.495216
0.803113 0.764446 0.455619
0 0.502434 0.297002
0 0.507561 0.326604
0 0.518791 0.369207
0 0.520882 0.375341
0 0.536492 0.380056
0 0.634424 0.431342
0.281315 0.747478 0.50338
0.042771 0.740826 0.55668
0.715831 0.824582 0.549874
0.00773632 0.0368963 0.133898
0.0375677 0.0413977 0.135866
0.0784009 0.0473945 0.13904
0.121721 0.0540627 0.142657
0.200595 0.0543832 0.144228
0.293675 0.0270237 0.142123
0.425147 0 0.141817
0.536858 0 0.148806
0.610758 0 0.168948
0 0.0535134 0.154009
0.0223239 0.0631571 0.151141
0.0849012 0.0705272 0.152804
0.137392 0.0796674 0.160678
0.229908 0.0836194 0.168322
0.342397 0.0691539 0.171008
0.474464 0.000244144 0.171145
0.575875 0 0.186603
0.64152 0 0.214176
0 0.0902266 0.180728
0.00015259 0.0983139 0.1832
0.0723125 0.108675 0.183658
0.138125 0.120638 0.195026
0.243503 0.129381 0.211734
0.368383 0.126696 0.225895
0.508125 0.0915084 0.235386
0.609323 0.0167391 0.254032
0.680491 1.5259e-05 0.284962
0 0.144167 0.232578
0 0.145449 0.240864
0.00030518 0.158343 0.252796
0.0969253 0.176104 0.264057
0.233417 0.194034 0.284245
0.37084 0.203998 0.310399
0.532189 0.194278 0.327688
0.644602 0.173251 0.345434
0.719158 0.156527 0.37203
0 0.232486 0.309575
0 0.231357 0.317143
0 0.234089 0.328634
0 0.265034 0.35462
0.141176 0.29688 0.369879
0.34406 0.327657 0.393881
0.533867 0.344488 0.423224
0.680217 0.349157 0.446296
0.773114 0.354925 0.473487
0 0.336889 0.349676
0 0.337087 0.350851
0 0.340047 0.363867
0 0.350576 0.382757
0 0.413886 0.438224
0.106477 0.4663 0.483101
0.532067 0.507683 0.504219
0.687419 0.534874 0.527672
0.793454 0.551263 0.542031
0 0.428656 0.372076
0 0.428946 0.372992
0 0.436347 0.393774
0 0.442512 0.431144
0 0.502922 0.484749
0.00134279 0.581476 0.525139
0.292073 0.637278 0.574151
0.684901 0.675273 0.565469
0.813901 0.6869 0.574533
0 0.499886 0.416403
0 0.499565 0.420279
0 0.508354 0.455192
0 0.514855 0.495827
0 0.557671 0.528252
0 0.634989 0.549111
0.333669 0.72314 0.60647
0.551629 0.75903 0.629313
0.789349 0.779385 0.6112
0 0.542412 0.469795
0 0.543526 0.482414
0 0.550286 0.521874
0 0.553246 0.546075
0 0.567041 0.554757
0 0.644495 0.574426
0.0615396 0.752575 0.610422
0.409079 0.794659 0.657969
0.707118 0.837217 0.667292
0.000106813 0.0151217 0.187228
0.0346075 0.0250858 0.192248
0.0807355 0.0320134 0.198337
0.127245 0.0394446 0.205356
0.207858 0.0317082 0.21297
0.306279 0.00106813 0.219852
0.439429 0 0.232639
0.550591 0 0.25304
0.623392 0 0.285252
0 0.0304875 0.212253
0.00602731 0.0569772 0.217288
0.0823682 0.0665446 0.224186
0.141314 0.0743114 0.237751
0.235889 0.0748455 0.252506
0.350668 0.0436866 0.264454
0.486976 0 0.281743
0.586297 0 0.306859
0.650355 0 0.34049
0 0.0814679 0.253788
0 0.0909895 0.264729
0.0426184 0.110369 0.273426
0.132769 0.121569 0.292744
0.245731 0.127626 0.316823
0.373358 0.119356 0.341741
0.514122 0.0545052 0.361852
0.61857 0.00460822 0.389746
0.690135 0 0.422339
0 0.136858 0.33196
0 0.133211 0.34284
0 0.155703 0.367071
0.0256199 0.180377 0.385718
0.223377 0.196094 0.414054
0.372808 0.203998 0.442451
0.534844 0.190051 0.462821
0.647471 0.165301 0.482979
0.722377 0.143633 0.506691
0 0.231434 0.436027
0 0.229114 0.445472
0 0.233127 0.459617
0 0.266712 0.4907
0.0476692 0.305486 0.508782
0.334508 0.33547 0.532753
0.536721 0.350134 0.554696
0.681453 0.354833 0.576486
0.77348 0.360159 0.598856
0 0.343862 0.510262
0 0.344701 0.514244
0 0.348287 0.526604
0 0.364981 0.547539
0 0.422049 0.585412
0.128588 0.480644 0.598627
0.488487 0.522026 0.620493
0.679774 0.546151 0.637125
0.789364 0.559701 0.655299
0 0.451301 0.55288
0 0.452338 0.554803
0 0.460151 0.569482
0 0.466712 0.581582
0 0.503883 0.610834
0 0.591287 0.650172
0.278996 0.649393 0.67068
0.684108 0.684779 0.67158
0.779263 0.70164 0.685756
0 0.527489 0.592401
0 0.528237 0.5935
0 0.531197 0.598718
0 0.539254 0.615503
0 0.55761 0.640055
0 0.646372 0.679896
0.210101 0.72755 0.682399
0.541863 0.767681 0.714122
0.784329 0.78677 0.706371
0 0.570321 0.629969
0 0.570474 0.630838
0 0.570687 0.633738
0 0.571832 0.648127
0 0.57113 0.660609
0 0.657923 0.696651
0 0.747921 0.693889
0.592706 0.823072 0.728267
0.701244 0.844633 0.742977
0 0 0.252384
0.00926223 1.5259e-05 0.257755
0.0814984 3.0518e-05 0.266255
0.133532 0 0.278843
0.218357 1.5259e-05 0.294926
0.318639 0 0.309819
0.45539 0 0.336065
0.565255 0 0.368887
0.636805 0 0.406073
0 0 0.28304
0.00137331 0.0197604 0.293339
0.0787213 0.0465553 0.307057
0.142184 0.0478065 0.328145
0.240131 0.0298314 0.350607
0.360189 0.000503548 0.375235
0.498314 0 0.401373
0.594079 0 0.428107
0.655192 0 0.455573
0 0.0235294 0.337087
0 0.0516976 0.356329
0.00816358 0.0965744 0.376318
0.118456 0.110857 0.402869
0.242649 0.11075 0.434852
0.373922 0.0820935 0.46244
0.520989 0.0206912 0.486015
0.628107 0 0.509453
0.699931 1.5259e-05 0.534554
0 0.104082 0.434043
0 0.0982376 0.444099
0 0.123964 0.474006
0 0.166827 0.500526
0.202411 0.189914 0.528664
0.366445 0.194949 0.556527
0.53547 0.175921 0.572793
0.649927 0.145235 0.586908
0.726085 0.119844 0.605356
0 0.213306 0.54078
0 0.208682 0.544945
0 0.214099 0.555505
0 0.254322 0.589105
0.0142824 0.302708 0.611444
0.314763 0.336629 0.63447
0.537987 0.350179 0.655146
0.684916 0.353628 0.670161
0.776516 0.36022 0.687175
0 0.335943 0.605554
0 0.338415 0.610773
0 0.342565 0.617716
0 0.364416 0.638987
0 0.424033 0.676432
0.0542306 0.485573 0.68838
0.481102 0.528084 0.709484
0.683391 0.54992 0.722332
0.790555 0.563165 0.734112
0 0.453696 0.651606
0 0.455406 0.654383
0 0.465126 0.667475
0 0.471901 0.676966
0 0.514519 0.709148
0 0.593332 0.739773
0.356863 0.660533 0.741756
0.653391 0.692622 0.749737
0.777264 0.706233 0.753567
0 0.536034 0.691112
0 0.537362 0.693141
0 0.54403 0.702953
0 0.54931 0.710811
0 0.550759 0.713252
0 0.629191 0.749233
0.0835584 0.729412 0.756466
0.554421 0.77435 0.77409
0.780987 0.791363 0.76965
0 0.579492 0.722255
0 0.579858 0.723354
0 0.58024 0.724468
0 0.581476 0.727993
0 0.57998 0.725719
0 0.647028 0.759228
0 0.753399 0.774075
0.547997 0.825269 0.77763
0.69572 0.849851 0.799893
0 0 0.33109
4.57771e-05 0 0.338369
0.0706035 0 0.346563
0.132952 0 0.366537
0.224903 0 0.387854
0.331746 0 0.409232
0.469581 0 0.441642
0.576761 0 0.473136
0.648707 0 0.505104
0 0 0.370993
0 0 0.38616
0.0605325 0.00448615 0.399619
0.13611 0.00340276 0.425101
0.242741 0 0.452735
0.36672 0 0.479332
0.505592 0 0.502403
0.598062 0 0.519997
0.657496 0 0.53669
0 0 0.432776
0 0 0.449363
0.002121 0.0416419 0.468772
0.0961776 0.0764172 0.497841
0.234668 0.0669108 0.529351
0.371176 0.0362097 0.55581
0.526406 3.0518e-05 0.577127
0.635706 3.0518e-05 0.593194
0.707835 0 0.609308
0 0.0119326 0.513909
0 0.00999466 0.519905
0 0.0678874 0.546944
3.0518e-05 0.145861 0.576654
0.182361 0.18381 0.603311
0.357992 0.187808 0.63003
0.5355 0.166644 0.645472
0.653605 0.13167 0.655268
0.731655 0.103838 0.669306
0 0.19382 0.601663
0 0.191257 0.603052
0 0.192691 0.608026
0 0.242374 0.645441
0.00155642 0.298711 0.671885
0.297841 0.338903 0.695537
0.535546 0.352514 0.718517
0.68896 0.354879 0.732387
0.780468 0.362341 0.745861
0 0.330739 0.663035
0 0.334371 0.667323
0 0.340139 0.673213
0 0.358694 0.69012
0 0.423865 0.729
0.0228275 0.490089 0.74551
0.469505 0.532403 0.76875
0.684749 0.552773 0.782696
0.7935 0.565606 0.791669
0 0.451759 0.706722
0 0.45449 0.709453
0 0.466438 0.722423
0 0.473716 0.729732
0 0.519936 0.761593
0 0.597482 0.790722
0.324834 0.663478 0.795697
0.648264 0.696117 0.806577
0.777661 0.708812 0.809827
0 0.535256 0.744045
0 0.536492 0.745953
0 0.544427 0.755703
0 0.54818 0.760098
0 0.561151 0.770275
0 0.641321 0.80676
0 0.728008 0.81239
0.598428 0.779904 0.821317
0.760342 0.796658 0.824018
0 0.583566 0.775418
0 0.583917 0.776547
0 0.584375 0.778225
0 0.584985 0.779873
0 0.584253 0.778561
0 0.630472 0.800351
0 0.726864 0.824384
0.50341 0.826017 0.829557
0.706493 0.853788 0.842741
0 0 0.405386
0 0 0.415442
0.0340887 0 0.423499
0.122347 0 0.446265
0.222187 0 0.466606
0.337774 0 0.492485
0.478645 0 0.521492
0.58645 0 0.547265
0.657267 0 0.568841
0 0 0.45214
0 0 0.468971
0.0178836 1.5259e-05 0.48101
0.120821 0 0.505074
0.239353 0 0.531502
0.368582 0 0.554269
0.509758 0 0.569497
0.602365 0 0.578286
0.660899 0 0.586984
0 0 0.508095
0 0 0.519692
0 0.00331121 0.536812
0.071046 0.0558633 0.55996
0.226474 0.0500954 0.588861
0.368048 0.0191501 0.613657
0.529198 0 0.633341
0.641474 0 0.647334
0.71574 0 0.661707
0 0.00457771 0.567926
0 0.00360113 0.570932
0 0.0179294 0.592081
1.5259e-05 0.134051 0.621683
0.160845 0.187488 0.649332
0.350225 0.192142 0.67744
0.535668 0.172824 0.695506
0.659052 0.138949 0.706081
0.738781 0.118257 0.718486
0 0.186587 0.641093
0 0.184619 0.641535
0 0.186542 0.643885
0 0.236942 0.682521
0 0.301183 0.713466
0.282246 0.348913 0.73817
0.533272 0.362387 0.76437
0.69279 0.365087 0.779644
0.785351 0.372351 0.791348
0 0.326497 0.700435
0 0.333211 0.70486
0 0.341848 0.710765
0 0.361959 0.725673
0 0.428504 0.766888
0.0103609 0.495888 0.785946
0.456153 0.539284 0.811185
0.683146 0.558221 0.828672
0.795148 0.568841 0.837217
0 0.450797 0.747066
0 0.45481 0.750134
0 0.466697 0.760128
0 0.474372 0.765042
0 0.525109 0.79707
0 0.59942 0.828061
0.288487 0.66508 0.835172
0.637705 0.697795 0.852338
0.775769 0.709209 0.857801
0 0.536034 0.783536
0 0.537804 0.784802
0 0.545419 0.791196
0 0.548623 0.793713
0 0.568673 0.806363
0 0.646845 0.841566
0.00480659 0.730007 0.851331
0.576074 0.779965 0.8654
0.752956 0.797436 0.871244
0 0.585672 0.806989
0 0.586404 0.80798
0 0.589166 0.81091
0 0.588937 0.810925
0 0.587243 0.809445
0 0.646799 0.840787
0 0.741009 0.865309
0.448585 0.822873 0.87393
0.72282 0.855589 0.88394
