creator/production/LUTS/WARM.cube
TITLE "Generated by Resolve"
LUT_3D_SIZE 5
0.0331426 0.039826 0.048249
0.137041 0.0515908 0.0406348
0.372915 0.0457465 0.00207523
0.676707 0.00325017 0.00326543
0.713787 0.00366217 0.00367742
0.00195315 0.10248 0.0568399
0.110246 0.11725 0.0539712
0.465507 0.157916 0.00289921
0.723873 0.155856 0.00357061
0.797848 0.16408 0.00424201
0.00317388 0.236408 0.0692454
0.0123903 0.258137 0.0517586
0.371359 0.341253 0.00360113
0.809247 0.423178 0.0043183
0.923537 0.44506 0.00500496
0.00447089 0.41149 0.0113069
0.00872816 0.418875 0.00457771
0.348074 0.575433 0.0047303
0.755444 0.674678 0.0049897
0.996872 0.735775 0.00596628
0.00695811 0.567498 0.116091
0.00695811 0.567498 0.116091
0.379705 0.735119 0.0069276
0.535393 0.784848 0.00737011
0.986114 0.890028 0.00708019
0.00923171 0.0339208 0.146181
0.133608 0.046891 0.147616
0.388708 0.0021973 0.159625
0.693965 0.00328069 0.194171
0.733379 0.0037232 0.188449
0.00210575 0.120043 0.158022
0.10753 0.13077 0.146014
0.414862 0.146227 0.13106
0.695232 0.0321355 0.0771954
0.774639 0.0149996 0.0631113
0.00326543 0.265049 0.169345
0.0112001 0.27158 0.138094
0.369177 0.341924 0.0698863
0.813428 0.402487 0.0103456
0.924041 0.446128 0.0111391
0.00453193 0.434394 0.145678
0.00772107 0.424598 0.0993973
0.380331 0.579934 0.00843824
0.757153 0.670924 0.00807202
0.996857 0.728481 0.00593576
0.00698863 0.578836 0.181476
0.00695811 0.567498 0.116091
0.338323 0.720913 0.00675975
0.804562 0.85095 0.00679026
0.98613 0.885252 0.0069276
0.00434882 0.00138857 0.317937
0.159976 0.00184634 0.34522
0.414801 0.00234989 0.367422
0.712276 0.00335698 0.427146
0.758434 0.00383001 0.435126
0.00250248 0.113771 0.358892
0.0489815 0.138781 0.363119
0.413504 0.147967 0.379538
0.707362 0.0256962 0.396612
0.792401 0.0193027 0.413001
0.0033875 0.304189 0.394614
0.0108644 0.313008 0.387823
0.370672 0.377234 0.383536
0.755566 0.379843 0.366186
0.889708 0.391287 0.365743
0.00454719 0.495247 0.430838
0.0069276 0.482002 0.399603
0.16318 0.595163 0.354177
0.719478 0.674952 0.321263
0.985809 0.703365 0.265751
0.00715648 0.650492 0.547906
0.00704967 0.638498 0.509911
0.0195621 0.720088 0.406302
0.748791 0.84036 0.298466
0.9617 0.870497 0.249516
0.00523384 0.00230411 0.548699
0.197162 0.00254826 0.580133
0.500374 0.00288396 0.612482
0.734813 0.00352483 0.628824
0.786603 0.00402838 0.634104
0.00294499 0.0236667 0.57171
0.01561 0.101671 0.576684
0.447974 0.106218 0.618448
0.718639 0.0127413 0.622629
0.813153 0.0124514 0.638529
0.00378424 0.344778 0.638773
0.010956 0.352041 0.637827
0.337957 0.399512 0.651652
0.748287 0.397269 0.658396
0.893584 0.408499 0.670253
0.00463874 0.524269 0.652934
0.0062562 0.510063 0.630686
0.0196994 0.632609 0.653651
0.722301 0.70695 0.653422
0.971511 0.725582 0.653849
0.00708019 0.679438 0.745296
0.00680552 0.661616 0.714107
0.0177005 0.753201 0.698207
0.661433 0.87396 0.657969
0.939529 0.912108 0.641367
0.00529488 0.00230411 0.548806
0.196399 0.00271611 0.60061
0.519036 0.00297551 0.658289
0.757168 0.00370794 0.696651
0.807004 0.00411994 0.710491
0.00326543 0.0562295 0.636912
0.0138399 0.136461 0.65922
0.479347 0.186648 0.724422
0.746746 0.103441 0.74612
0.833112 0.107622 0.758541
0.00419623 0.386969 0.755489
0.0110475 0.398505 0.770672
0.304723 0.437049 0.792782
0.760998 0.444327 0.8309
0.908217 0.456764 0.843732
0.00514229 0.569253 0.818677
0.00595102 0.556481 0.81503
0.0197604 0.673716 0.859846
0.696605 0.728908 0.891264
0.963363 0.735271 0.897887
0.00720226 0.694743 0.860059
0.00674449 0.668223 0.841215
0.0171817 0.761425 0.8636
0.597025 0.889982 0.879759
0.942779 0.931395 0.880323
