creator/production/LUTS/WARM.cube
TITLE "Generated by Resolve"
LUT_3D_SIZE 33
0.0331426 0.039826 0.048249
0.0422522 0.0403449 0.048249
0.0475319 0.0409247 0.0478523
0.0586252 0.0417639 0.0473793
0.0757 0.0431678 0.0468299
0.0887465 0.0453346 0.0459907
0.100328 0.0480964 0.0446937
0.116793 0.0502632 0.043061
0.137041 0.0515908 0.0406348
0.160586 0.0517586 0.0369879
0.183505 0.0525368 0.0333104
0.207431 0.0534676 0.0250248
0.233051 0.0538796 0.0124971
0.262867 0.0538949 0.00404364
0.296788 0.0529793 0.00224308
0.333791 0.0506294 0.00198367
0.372915 0.0457465 0.00207523
0.410727 0.0362707 0.00216678
0.448112 0.0129549 0.00228885
0.486549 0.00274662 0.00241093
0.529152 0.00254826 0.002533
0.569619 0.00267033 0.00267033
0.606928 0.00282292 0.00282292
0.64184 0.00300603 0.00302129
0.676707 0.00325017 0.00326543
0.711299 0.00363165 0.00364691
0.713787 0.00366217 0.00367742
0.713787 0.00366217 0.00367742
0.713787 0.00366217 0.00367742
0.713787 0.00366217 0.00367742
0.713787 0.00366217 0.00367742
0.713787 0.00366217 0.00367742
0.713787 0.00366217 0.00367742
0.0280613 0.0471199 0.0469062
0.0393378 0.047715 0.0466468
0.0467079 0.0483864 0.0460059
0.0558328 0.0497139 0.0466621
0.0738842 0.0515145 0.0456703
0.088838 0.0539254 0.0444343
0.101381 0.0565042 0.0432593
0.117708 0.0586557 0.0415656
0.138994 0.0598917 0.0389715
0.165667 0.0603494 0.0351415
0.190738 0.0610361 0.0306859
0.214786 0.0612192 0.0194858
0.240406 0.0608835 0.00527962
0.269932 0.0601663 0.00273136
0.302098 0.0582132 0.0019379
0.336599 0.0548714 0.00201419
0.37174 0.0496834 0.00209049
0.404349 0.0402686 0.00216678
0.437461 0.0205997 0.00225834
0.474601 0.00291447 0.00236515
0.514092 0.00251774 0.00248722
0.554665 0.00260929 0.00262455
0.592493 0.00276188 0.00276188
0.628305 0.00292973 0.00292973
0.662837 0.00314336 0.00314336
0.697124 0.0034638 0.0034638
0.713787 0.00366217 0.00367742
0.713787 0.00366217 0.00367742
0.713787 0.00366217 0.00367742
0.713787 0.00366217 0.00367742
0.713787 0.00366217 0.00367742
0.713787 0.00366217 0.00367742
0.713787 0.00366217 0.00367742
0.0242161 0.0508125 0.0455024
0.0370794 0.0517739 0.0454108
0.0442206 0.0532387 0.0456703
0.0539712 0.0547646 0.0438849
0.0751049 0.0571298 0.0436561
0.0906081 0.0600443 0.0437781
0.101732 0.0627909 0.0431983
0.116365 0.0654917 0.0411383
0.137743 0.0676738 0.0386053
0.166766 0.0692149 0.0357366
0.194583 0.0709697 0.031693
0.221256 0.072343 0.0217594
0.248493 0.0731975 0.00514229
0.2804 0.0738842 0.00285344
0.314992 0.0728313 0.00205997
0.352346 0.0704051 0.00215152
0.390646 0.066743 0.00222782
0.426642 0.0609751 0.00230411
0.461524 0.0493324 0.00239567
0.495094 0.0292363 0.00247196
0.530129 0.00793469 0.00256352
0.566888 0.00509651 0.00267033
0.600931 0.00469978 0.0027924
0.632502 0.00448615 0.00294499
0.663417 0.00427253 0.0031281
0.69398 0.00410468 0.00340276
0.715023 0.00389105 0.00367742
0.713787 0.00366217 0.00367742
0.713787 0.00366217 0.00367742
0.713787 0.00366217 0.00367742
0.713787 0.00366217 0.00367742
0.713787 0.00366217 0.00367742
0.713787 0.00366217 0.00367742
0.0189975 0.0560006 0.0456092
0.0326238 0.0560006 0.0447089
0.0431678 0.0574502 0.0447547
0.0486 0.0588693 0.0444953
0.0662242 0.0611582 0.0442359
0.0871748 0.064271 0.0437171
0.104906 0.0679179 0.0432746
0.123537 0.0710002 0.0419928
0.142947 0.0733349 0.0401007
0.168765 0.0754406 0.037644
0.196414 0.0777295 0.034165
0.224033 0.0797436 0.0263066
0.252384 0.0812543 0.00779736
0.28574 0.0827497 0.00354009
0.321492 0.0831006 0.00218204
0.360037 0.0823377 0.00225834
0.400488 0.0802319 0.00233463
0.438392 0.0763256 0.00242618
0.47512 0.0705425 0.00250248
0.510262 0.0602579 0.00259403
0.545419 0.0394598 0.00268559
0.58204 0.0107881 0.0027924
0.616403 0.00741588 0.00289921
0.64744 0.00729381 0.00303655
0.677607 0.00720226 0.00320439
0.707561 0.007187 0.00344854
0.734905 0.00727855 0.0037995
0.732815 0.00695811 0.00378424
0.730648 0.00662242 0.00376898
0.728496 0.0062562 0.00375372
0.726192 0.00585946 0.00373846
0.723934 0.00547799 0.0037232
0.721675 0.00509651 0.00370794
0.012253 0.063447 0.0454719
0.0221408 0.0621653 0.0448615
0.0416266 0.063859 0.0456703
0.0419776 0.0659648 0.0465248
0.0545815 0.0669566 0.0465858
0.0805676 0.0691539 0.0458534
0.100069 0.073167 0.0454566
0.119066 0.0770886 0.0446784
0.148806 0.080415 0.0416266
0.181613 0.0828717 0.0378271
0.207874 0.0851759 0.0340581
0.231662 0.0872511 0.0255131
0.257465 0.0892348 0.0090486
0.289403 0.0912184 0.00404364
0.324712 0.0926223 0.00227359
0.363943 0.09308 0.00234989
0.40557 0.0922866 0.00242618
0.445457 0.0904555 0.00251774
0.483589 0.0871901 0.00259403
0.519509 0.0814679 0.00268559
0.555001 0.0701762 0.00277714
0.591394 0.0460822 0.00288396
0.626261 0.0222324 0.00299077
0.65716 0.0162966 0.0031281
0.686381 0.0107271 0.00328069
0.715694 0.00932326 0.00350958
0.744564 0.00985733 0.00386053
0.74818 0.0103761 0.00392157
0.746639 0.00988785 0.00390631
0.745037 0.0093843 0.00389105
0.743328 0.00886549 0.00387579
0.741573 0.00833143 0.00386053
0.739895 0.0080415 0.00384527
0.00300603 0.0731975 0.0472572
0.0056611 0.0713359 0.0468605
0.0294957 0.0729839 0.0476234
0.0413519 0.0748455 0.0483253
0.0378271 0.0772106 0.0488289
0.0656901 0.0785992 0.0485389
0.0939956 0.0824292 0.0476844
0.112245 0.0872511 0.0467536
0.138506 0.0914321 0.044831
0.176303 0.0944076 0.0401007
0.213703 0.0969863 0.0339513
0.246021 0.0992142 0.0195468
0.275792 0.101518 0.00526436
0.305165 0.104143 0.00318914
0.33666 0.10631 0.00238041
0.372183 0.107942 0.0024567
0.411826 0.108583 0.002533
0.451164 0.108354 0.00260929
0.490089 0.106874 0.00268559
0.52636 0.104051 0.00277714
0.561837 0.0971084 0.0028687
0.598108 0.0858473 0.00296025
0.632776 0.0681163 0.00306706
0.664408 0.0574197 0.00318914
0.692729 0.0437324 0.00334173
0.721233 0.0353246 0.00354009
0.749538 0.0416266 0.00384527
0.760922 0.0498817 0.00401312
0.759564 0.0439918 0.00399786
0.758144 0.0379187 0.00399786
0.756695 0.0316167 0.0039826
0.75523 0.0253147 0.00396735
0.753658 0.0185855 0.00396735
0.00199893 0.0832074 0.0507362
0.00221256 0.081117 0.0500191
0.0108644 0.0820478 0.0504463
0.0288701 0.0842908 0.0506752
0.0393835 0.0862745 0.0510262
0.0291905 0.0884871 0.0516976
0.0811322 0.0911269 0.0505989
0.107851 0.0961929 0.0492256
0.131441 0.101488 0.0475776
0.164065 0.105776 0.0439918
0.204089 0.109499 0.0373999
0.2439 0.11281 0.0247196
0.282429 0.115953 0.00459297
0.321553 0.119127 0.00260929
0.360357 0.12105 0.00251774
0.396765 0.122896 0.00257877
0.431846 0.124529 0.00263981
0.466178 0.125643 0.00271611
0.501472 0.126085 0.0027924
0.53576 0.125353 0.0028687
0.569955 0.122011 0.00296025
0.605768 0.117189 0.0030518
0.640406 0.111315 0.00314336
0.671687 0.104189 0.00326543
0.700099 0.092134 0.00340276
0.727581 0.0813916 0.00358587
0.755779 0.0894942 0.00386053
0.775021 0.105348 0.00410468
0.773281 0.0987716 0.00408942
0.771542 0.0921798 0.00408942
0.769802 0.0855726 0.00407416
0.768063 0.078996 0.0040589
0.766491 0.0729534 0.0040589
0.00178531 0.0924849 0.0538643
0.00175479 0.0908064 0.0532998
0.00418097 0.0908522 0.0534981
0.0148165 0.0929427 0.0531777
0.0313878 0.0952621 0.0533761
0.0308385 0.0973373 0.0539406
0.0279088 0.0994888 0.0545815
0.0957046 0.104219 0.0525368
0.124407 0.110262 0.0505684
0.155291 0.115892 0.0476997
0.194995 0.120409 0.0418097
0.233845 0.12488 0.0327916
0.274556 0.129351 0.010193
0.320684 0.13402 0.0030518
0.367758 0.137148 0.00263981
0.415061 0.139361 0.00271611
0.457511 0.140932 0.00277714
0.49366 0.142061 0.00283818
0.525124 0.142779 0.00291447
0.555688 0.143084 0.00297551
0.586267 0.142168 0.0030518
0.618753 0.140078 0.00314336
0.651286 0.137346 0.00323491
0.68191 0.134646 0.00334173
0.70988 0.131319 0.00347906
0.736553 0.129168 0.00364691
0.764096 0.134051 0.00387579
0.790585 0.14995 0.00419623
0.788846 0.146609 0.00418097
0.786984 0.142962 0.00418097
0.785183 0.139483 0.00416571
0.783383 0.135988 0.00415045
0.781674 0.130724 0.00415045
0.00195315 0.10248 0.0568399
0.0019379 0.101625 0.0566567
0.00277714 0.0989853 0.0561837
0.00695811 0.101198 0.0560159
0.0150149 0.103807 0.0561379
0.0394598 0.106279 0.0559091
0.02121 0.108888 0.0569009
0.0282902 0.112108 0.057145
0.110246 0.11725 0.0539712
0.148882 0.124361 0.0506752
0.186984 0.130068 0.0454871
0.227405 0.135485 0.0365301
0.266453 0.140642 0.019852
0.309682 0.14612 0.0037995
0.359655 0.151415 0.00274662
0.41326 0.155123 0.00282292
0.465507 0.157916 0.00289921
0.511208 0.159579 0.00297551
0.549477 0.16025 0.0030518
0.582528 0.159777 0.00311284
0.613153 0.159136 0.00318914
0.643351 0.157977 0.00326543
0.671519 0.157092 0.00335698
0.69836 0.156512 0.00344854
0.723873 0.155856 0.00357061
0.748714 0.155825 0.0037232
0.775128 0.161532 0.00393683
0.803555 0.178912 0.00425727
0.804852 0.178439 0.00428778
0.803021 0.174395 0.00427253
0.801266 0.170764 0.00425727
0.799558 0.167422 0.00425727
0.797848 0.16408 0.00424201
0.00210575 0.115663 0.0595865
0.00210575 0.115053 0.0594492
0.00205997 0.111192 0.0586557
0.00575265 0.113268 0.0587778
0.00839246 0.116152 0.0586862
0.0223239 0.118746 0.0582284
0.0511025 0.122087 0.0579232
0.0172122 0.124651 0.0592813
0.0458228 0.128618 0.0588693
0.125566 0.135592 0.0542611
0.179004 0.142351 0.0478676
0.220371 0.148959 0.037995
0.260792 0.155322 0.0217899
0.302358 0.162219 0.00378424
0.348684 0.169162 0.00294499
0.401068 0.174273 0.00291447
0.45861 0.178195 0.00299077
0.511589 0.180743 0.00306706
0.557809 0.182406 0.00315862
0.598444 0.182727 0.00323491
0.635843 0.181933 0.00332647
0.669459 0.180682 0.00340276
0.697734 0.179965 0.00349432
0.722316 0.180621 0.00358587
0.744762 0.181994 0.00370794
0.767224 0.184848 0.00384527
0.79118 0.192782 0.00404364
0.817411 0.210391 0.00433356
0.820523 0.212451 0.00437934
0.81915 0.209461 0.00437934
0.81767 0.206271 0.00436408
0.816068 0.202747 0.00434882
0.814359 0.199054 0.00434882
0.00225834 0.131044 0.0617533
0.00225834 0.130632 0.0617075
0.00221256 0.125628 0.0610971
0.00485237 0.12665 0.0613413
0.00767529 0.130114 0.0609598
0.0135805 0.133333 0.0604715
0.0501869 0.136782 0.0591745
0.0470588 0.140612 0.0593881
0.0222934 0.144503 0.0607919
0.056733 0.149615 0.0589456
0.14902 0.156786 0.0521401
0.212757 0.162875 0.0408484
0.254643 0.171237 0.0198825
0.296925 0.180117 0.00677501
0.343603 0.188861 0.00311284
0.392645 0.195926 0.00300603
0.44683 0.201892 0.00308232
0.503136 0.206226 0.00317388
0.556085 0.209186 0.00325017
0.601953 0.210529 0.00332647
0.644297 0.210224 0.00341802
0.683955 0.209293 0.00350958
0.717418 0.209323 0.00361639
0.745251 0.210346 0.0037232
0.769268 0.212543 0.00386053
0.791501 0.217563 0.00401312
0.813672 0.229068 0.00421149
0.835737 0.248112 0.00447089
0.83505 0.246464 0.00445563
0.834089 0.244175 0.00445563
0.833036 0.241688 0.00445563
0.831891 0.238987 0.00444038
0.830488 0.235676 0.00444038
0.00242618 0.147814 0.0637675
0.00242618 0.147509 0.0637522
0.00236515 0.142519 0.0631571
0.00352483 0.141573 0.0632486
0.00706493 0.146258 0.0630198
0.00975052 0.150423 0.0625772
0.0292973 0.154284 0.0606546
0.0628367 0.159228 0.0585946
0.0330053 0.162036 0.0602274
0.0250858 0.1664 0.0610513
0.0725109 0.173342 0.0577707
0.175784 0.180896 0.0445716
0.248508 0.190051 0.0175784
0.291417 0.200259 0.00604257
0.337697 0.210742 0.00308232
0.38677 0.219806 0.00309758
0.439597 0.22768 0.00318914
0.495232 0.234485 0.00326543
0.548287 0.239918 0.00334173
0.598413 0.24361 0.00343328
0.644862 0.244709 0.00350958
0.689357 0.244633 0.00360113
0.727703 0.24506 0.00370794
0.759533 0.24622 0.00383001
0.787335 0.2486 0.0039826
0.813748 0.256291 0.00416571
0.839246 0.272602 0.00442512
0.850324 0.281605 0.00456245
0.848981 0.278706 0.00454719
0.848157 0.276875 0.00454719
0.847288 0.275029 0.00453193
0.846464 0.273198 0.00453193
0.845518 0.271138 0.00453193
0.00257877 0.164691 0.065568
0.00257877 0.164477 0.0655375
0.002533 0.160128 0.0650797
0.00250248 0.156939 0.064744
0.00636301 0.162249 0.0647593
0.0087129 0.167285 0.0643473
0.0158999 0.171969 0.0624399
0.0456703 0.177386 0.0590677
0.0693675 0.182467 0.0574655
0.0201572 0.184024 0.0605936
0.0226749 0.188846 0.0602731
0.0879988 0.198093 0.0546731
0.210117 0.207752 0.0248264
0.287449 0.220371 0.00434882
0.332815 0.231891 0.00309758
0.381445 0.242741 0.00318914
0.434195 0.251774 0.00326543
0.489906 0.260136 0.00335698
0.542901 0.267353 0.00343328
0.592798 0.273228 0.00350958
0.640024 0.277211 0.00360113
0.686793 0.278813 0.00369268
0.730724 0.27982 0.00378424
0.767712 0.281178 0.00390631
0.798062 0.283467 0.0040589
0.827359 0.290349 0.00424201
0.856626 0.309056 0.00453193
0.866163 0.316075 0.004654
0.864469 0.312383 0.00463874
0.863157 0.309499 0.00463874
0.862013 0.307027 0.00462348
0.860883 0.30457 0.00462348
0.860044 0.302724 0.00460822
0.00273136 0.181521 0.0675059
0.00273136 0.181415 0.0674907
0.00271611 0.17966 0.067277
0.00265507 0.173861 0.0665599
0.00546273 0.177081 0.0665599
0.00820935 0.183413 0.0659495
0.0103456 0.188769 0.0643473
0.0213321 0.194629 0.0601511
0.068574 0.201907 0.055787
0.0584115 0.205432 0.0557412
0.0201877 0.206699 0.0593423
0.0274968 0.212726 0.0572976
0.106096 0.224353 0.0475624
0.247593 0.237552 0.00689708
0.327977 0.25185 0.00320439
0.377676 0.264179 0.00328069
0.429114 0.274571 0.00335698
0.484382 0.284153 0.00344854
0.539849 0.293019 0.00352483
0.59144 0.300816 0.00361639
0.637858 0.307057 0.00369268
0.683085 0.311269 0.00376898
0.728649 0.313603 0.00387579
0.769512 0.315694 0.0039826
0.804456 0.317891 0.00410468
0.835294 0.322942 0.00428778
0.865782 0.33875 0.00454719
0.883665 0.353384 0.00474556
0.881132 0.348028 0.0047303
0.879072 0.343664 0.00471504
0.877348 0.339971 0.00471504
0.875868 0.336858 0.00469978
0.874723 0.334401 0.00469978
0.00288396 0.198505 0.0695659
0.00288396 0.198489 0.0695659
0.0028687 0.197177 0.069398
0.00280766 0.190707 0.0686198
0.00418097 0.191165 0.0686046
0.00762951 0.199191 0.0672923
0.00968948 0.205356 0.0653697
0.012314 0.211749 0.0608377
0.0297704 0.219699 0.0549783
0.0767071 0.227695 0.0489662
0.0262455 0.228656 0.0529335
0.0124819 0.230884 0.0559091
0.0172732 0.238666 0.0509041
0.133852 0.252491 0.0260777
0.285451 0.268193 0.00325017
0.372152 0.284566 0.00335698
0.424796 0.296788 0.00344854
0.478981 0.307576 0.00352483
0.53608 0.317739 0.00361639
0.588876 0.326635 0.00369268
0.637003 0.334371 0.00378424
0.681575 0.340322 0.00386053
0.726146 0.34519 0.00395209
0.769314 0.349004 0.0040589
0.806455 0.352346 0.00416571
0.839445 0.356344 0.00433356
0.871595 0.368612 0.00454719
0.902113 0.394049 0.00486763
0.899123 0.387137 0.00485237
0.896422 0.380896 0.00483711
0.893996 0.375326 0.00482185
0.891859 0.370779 0.00480659
0.889998 0.366827 0.00479133
0.00302129 0.217182 0.0696269
0.00302129 0.217182 0.0696269
0.00302129 0.216205 0.0696269
0.00296025 0.20911 0.0697185
0.00294499 0.206332 0.069749
0.0069276 0.21532 0.0682231
0.00923171 0.223117 0.0658885
0.0110323 0.230152 0.0612192
0.0127565 0.238804 0.053315
0.0635691 0.248325 0.0403906
0.0880751 0.255238 0.0322271
0.025803 0.254673 0.0436561
0.0130922 0.257801 0.0474403
0.0449989 0.267628 0.0307469
0.171496 0.285222 0.00700389
0.326253 0.302968 0.00341802
0.419104 0.3196 0.00352483
0.474235 0.331151 0.00361639
0.531197 0.342657 0.00369268
0.585092 0.353277 0.00378424
0.63534 0.362615 0.00386053
0.68127 0.370535 0.00395209
0.725414 0.37702 0.00404364
0.768185 0.382803 0.0041352
0.807126 0.388251 0.00424201
0.84126 0.392844 0.00436408
0.87361 0.400504 0.00454719
0.906996 0.422415 0.00485237
0.917494 0.42974 0.00497444
0.914427 0.422599 0.00494392
0.911559 0.415915 0.00492866
0.908843 0.409674 0.00491341
0.906538 0.404303 0.00489815
0.00317388 0.236408 0.0692454
0.00317388 0.236408 0.0692454
0.00317388 0.235599 0.0692912
0.00311284 0.228397 0.0694896
0.00308232 0.225132 0.0695354
0.00605783 0.23154 0.0683299
0.00875868 0.241062 0.0658274
0.010605 0.248768 0.0614633
0.0123903 0.258137 0.0517586
0.039765 0.268452 0.0320134
0.09514 0.279149 0.0136416
0.0829938 0.283268 0.0121767
0.0265049 0.282704 0.0274205
0.0230869 0.288151 0.0248417
0.0478981 0.300557 0.00978103
0.214343 0.321599 0.00366217
0.371359 0.341253 0.00360113
0.466835 0.355169 0.00369268
0.526925 0.367803 0.00378424
0.581979 0.379736 0.00386053
0.634043 0.390784 0.00395209
0.681208 0.400626 0.00402838
0.725841 0.409003 0.00411994
0.76968 0.415946 0.00421149
0.809247 0.423178 0.0043183
0.843397 0.429603 0.00442512
0.875059 0.436835 0.00457771
0.907164 0.452033 0.00480659
0.935699 0.476738 0.00509651
0.932311 0.467948 0.005066
0.929137 0.459663 0.00505074
0.926162 0.451896 0.00502022
0.923537 0.44506 0.00500496
0.00332647 0.257298 0.0684825
0.00332647 0.25742 0.0684825
0.00331121 0.256733 0.0684977
0.00326543 0.250217 0.0686503
0.00323491 0.245472 0.0688487
0.00482185 0.247486 0.0683452
0.00819409 0.259663 0.0644083
0.0102083 0.268757 0.0589914
0.0120394 0.278721 0.0452583
0.0208743 0.290349 0.024094
0.0637064 0.303059 0.00880446
0.12575 0.314366 0.00494392
0.0664683 0.315129 0.00621042
0.0155642 0.313832 0.00927749
0.0145571 0.322042 0.00631724
0.0822309 0.337774 0.00370794
0.258885 0.361166 0.00373846
0.41529 0.381231 0.00376898
0.516411 0.393866 0.00386053
0.579065 0.408377 0.00395209
0.632105 0.420905 0.00402838
0.679606 0.432166 0.00411994
0.724819 0.441657 0.00421149
0.769162 0.450187 0.00430304
0.810987 0.458274 0.0043946
0.847471 0.466194 0.00450141
0.878187 0.473945 0.00463874
0.908965 0.485176 0.00480659
0.940993 0.509834 0.00509651
0.950408 0.515511 0.00520333
0.94699 0.506416 0.00517281
0.943679 0.497566 0.00514229
0.940566 0.489418 0.00512703
0.0034638 0.279713 0.0661936
0.0034638 0.27985 0.0661784
0.0034638 0.279164 0.0663005
0.00344854 0.276326 0.0666972
0.0033875 0.267002 0.0680858
0.00337224 0.263981 0.0682536
0.00749218 0.278538 0.0630655
0.00978103 0.289281 0.0567941
0.0115969 0.299443 0.04094
0.0135805 0.312413 0.0133211
0.0198672 0.327306 0.00364691
0.122118 0.341817 0.00373846
0.143755 0.351431 0.00376898
0.0552224 0.348989 0.00375372
0.0147097 0.349569 0.00436408
0.0297551 0.360204 0.00381476
0.105898 0.377997 0.00386053
0.304997 0.404639 0.00389105
0.461112 0.421851 0.00393683
0.5682 0.435248 0.00402838
0.629068 0.449897 0.00411994
0.67805 0.462638 0.00419623
0.723903 0.473762 0.00428778
0.768353 0.483742 0.00437934
0.811368 0.492821 0.00447089
0.84947 0.501671 0.00457771
0.882628 0.510216 0.00469978
0.912261 0.52015 0.00485237
0.942489 0.538125 0.005066
0.967514 0.561196 0.00531014
0.964614 0.553475 0.00529488
0.961379 0.544854 0.00527962
0.95816 0.536248 0.0052491
0.00361639 0.302647 0.0628519
0.00361639 0.302907 0.0627909
0.00361639 0.302373 0.0629129
0.00360113 0.300114 0.0632334
0.00354009 0.290181 0.064683
0.00350958 0.286763 0.0651408
0.00665293 0.297337 0.0607919
0.00932326 0.310689 0.0501564
0.0111696 0.321675 0.0285954
0.0130312 0.336095 0.0100557
0.0146792 0.352773 0.00434882
0.075227 0.368872 0.00383001
0.15996 0.383185 0.00386053
0.143313 0.38938 0.00389105
0.0440223 0.383856 0.00392157
0.0251926 0.386236 0.00395209
0.0426032 0.398322 0.0039826
0.167163 0.418647 0.00402838
0.351263 0.449042 0.00407416
0.510018 0.465385 0.00410468
0.619669 0.480323 0.00419623
0.677287 0.493263 0.00428778
0.724102 0.505852 0.00436408
0.768658 0.517052 0.00445563
0.81236 0.526864 0.00454719
0.852094 0.536477 0.004654
0.885863 0.545007 0.00476081
0.916396 0.553903 0.00489815
0.94609 0.568093 0.00508125
0.975052 0.592187 0.00535592
0.980591 0.595041 0.00541695
0.977935 0.588174 0.00538643
0.975097 0.580835 0.00537118
0.00378424 0.324529 0.0582284
0.00378424 0.324773 0.0581521
0.00376898 0.324376 0.0582132
0.00376898 0.322637 0.0585641
0.00369268 0.3131 0.0606241
0.00366217 0.309392 0.0614176
0.00546273 0.314305 0.0590219
0.00877394 0.330724 0.0429236
0.0107729 0.343313 0.0218204
0.0125734 0.358404 0.00680552
0.0143282 0.376669 0.00392157
0.0429084 0.393774 0.00396735
0.141894 0.410864 0.00399786
0.218708 0.423468 0.00402838
0.144076 0.423484 0.0040589
0.0329747 0.418265 0.00407416
0.0268559 0.423056 0.00410468
0.0572976 0.437079 0.00415045
0.232853 0.460166 0.00419623
0.399878 0.49279 0.00424201
0.563622 0.510048 0.00428778
0.667384 0.522087 0.00436408
0.7243 0.536217 0.00445563
0.768704 0.547829 0.00454719
0.812192 0.558236 0.00463874
0.853147 0.567971 0.0047303
0.889113 0.577813 0.00483711
0.919554 0.58648 0.00497444
0.949172 0.597925 0.00512703
0.97673 0.617273 0.00535592
0.991867 0.631006 0.00552377
0.991241 0.626535 0.00550851
0.990585 0.621683 0.00549325
0.00393683 0.345998 0.0510414
0.00393683 0.346349 0.0508431
0.00393683 0.345998 0.0510414
0.00392157 0.344717 0.0516365
0.00386053 0.336065 0.0557565
0.00383001 0.331701 0.0566873
0.0037995 0.328756 0.0573129
0.00808728 0.348928 0.0349126
0.0103456 0.363867 0.0128176
0.0121614 0.379721 0.00433356
0.0139773 0.398917 0.00404364
0.023743 0.418158 0.00408942
0.0988785 0.436301 0.0041352
0.227436 0.45333 0.00416571
0.244541 0.462776 0.00419623
0.148028 0.457023 0.00422675
0.0333715 0.452018 0.00425727
0.0360723 0.459083 0.00428778
0.135561 0.475486 0.00433356
0.281422 0.501671 0.00437934
0.450523 0.535332 0.00442512
0.614725 0.552148 0.00445563
0.711864 0.563622 0.00453193
0.768612 0.577508 0.00462348
0.81207 0.58854 0.00471504
0.853178 0.598245 0.00480659
0.890043 0.608026 0.00491341
0.922225 0.616434 0.00503548
0.950835 0.625849 0.00518807
0.979263 0.641764 0.00538643
0.995712 0.660517 0.00564584
0.995254 0.656687 0.00563058
0.994705 0.652415 0.00561532
0.00410468 0.367361 0.0406806
0.00410468 0.367681 0.0403754
0.00410468 0.367361 0.0406806
0.00410468 0.366308 0.0415045
0.00404364 0.359091 0.0448463
0.00399786 0.353002 0.0476692
0.00396735 0.35021 0.049012
0.00727855 0.365484 0.0277256
0.0099031 0.382666 0.00894179
0.0117342 0.398672 0.0041352
0.0135653 0.418723 0.00419623
0.0195926 0.439628 0.00422675
0.0675822 0.459022 0.00427253
0.210895 0.478035 0.0043183
0.273106 0.494255 0.00434882
0.263035 0.499489 0.00437934
0.158602 0.490166 0.00440986
0.0710155 0.487266 0.00444038
0.099443 0.496849 0.00448615
0.195666 0.515023 0.00453193
0.33257 0.544472 0.00457771
0.50396 0.577508 0.00460822
0.6636 0.592508 0.00462348
0.756512 0.6038 0.00469978
0.8112 0.615305 0.00479133
0.853193 0.625742 0.00489815
0.890883 0.635752 0.0049897
0.923644 0.64506 0.00511177
0.952895 0.653819 0.0052491
0.97998 0.666712 0.00541695
0.994156 0.682017 0.0056611
0.99675 0.684825 0.00573739
0.996735 0.681193 0.00572213
0.00428778 0.389013 0.0230564
0.00428778 0.389334 0.0227512
0.00428778 0.38912 0.0229496
0.00427253 0.388006 0.0238804
0.00424201 0.384817 0.0264286
0.00416571 0.374716 0.0345617
0.0041352 0.371542 0.037171
0.00614939 0.379843 0.0215
0.0093843 0.401373 0.00669871
0.0113222 0.418036 0.00428778
0.0131533 0.437919 0.00433356
0.0155947 0.460334 0.00437934
0.0366217 0.481315 0.00442512
0.180163 0.501472 0.00445563
0.275639 0.521645 0.00450141
0.31577 0.535119 0.00453193
0.277104 0.535164 0.00457771
0.164782 0.523873 0.00459297
0.108827 0.523842 0.00463874
0.145708 0.5355 0.00466926
0.243977 0.556527 0.00471504
0.384405 0.588571 0.00476081
0.55967 0.6206 0.00479133
0.710857 0.633188 0.00480659
0.799054 0.642924 0.00488289
0.853498 0.653193 0.0049897
0.892226 0.663676 0.00508125
0.925246 0.673381 0.00518807
0.954162 0.682277 0.0053254
0.981338 0.693004 0.00547799
0.992325 0.704021 0.00567636
0.996826 0.712367 0.00585946
0.996811 0.708904 0.00584421
0.00447089 0.41149 0.0113069
0.00447089 0.411826 0.0111238
0.00447089 0.411597 0.0112459
0.00447089 0.410727 0.0116579
0.00444038 0.408118 0.0128481
0.00434882 0.397086 0.0173495
0.0043183 0.393561 0.0194705
0.00453193 0.391913 0.0207523
0.00872816 0.418875 0.00457771
0.010956 0.438132 0.00445563
0.0127565 0.457481 0.00448615
0.0146181 0.480964 0.00453193
0.0268864 0.503456 0.00457771
0.141253 0.524941 0.00462348
0.256901 0.546502 0.004654
0.333928 0.565927 0.00468452
0.348074 0.575433 0.0047303
0.286397 0.568612 0.00476081
0.159197 0.559213 0.00480659
0.1234 0.56202 0.00483711
0.184237 0.576379 0.00488289
0.308019 0.599527 0.00492866
0.435813 0.633051 0.00495918
0.615518 0.663279 0.00497444
0.755444 0.674678 0.0049897
0.836973 0.679362 0.00505074
0.892134 0.691325 0.00517281
0.926696 0.701762 0.00527962
0.956344 0.710903 0.00540169
0.981201 0.719875 0.00553903
