creator/production/LUTS/WARM.cube
TITLE "Generated by Resolve"
LUT_3D_SIZE 9
0.0331426 0.039826 0.048249
0.0757 0.0431678 0.0468299
0.137041 0.0515908 0.0406348
0.233051 0.0538796 0.0124971
0.372915 0.0457465 0.00207523
0.529152 0.00254826 0.002533
0.676707 0.00325017 0.00326543
0.713787 0.00366217 0.00367742
0.713787 0.00366217 0.00367742
0.012253 0.063447 0.0454719
0.0545815 0.0669566 0.0465858
0.148806 0.080415 0.0416266
0.257465 0.0892348 0.0090486
0.40557 0.0922866 0.00242618
0.555001 0.0701762 0.00277714
0.686381 0.0107271 0.00328069
0.746639 0.00988785 0.00390631
0.739895 0.0080415 0.00384527
0.00195315 0.10248 0.0568399
0.0150149 0.103807 0.0561379
0.110246 0.11725 0.0539712
0.266453 0.140642 0.019852
0.465507 0.157916 0.00289921
0.613153 0.159136 0.00318914
0.723873 0.155856 0.00357061
0.804852 0.178439 0.00428778
0.797848 0.16408 0.00424201
0.00257877 0.164691 0.065568
0.00636301 0.162249 0.0647593
0.0693675 0.182467 0.0574655
0.210117 0.207752 0.0248264
0.434195 0.251774 0.00326543
0.640024 0.277211 0.00360113
0.798062 0.283467 0.0040589
0.864469 0.312383 0.00463874
0.860044 0.302724 0.00460822
0.00317388 0.236408 0.0692454
0.00308232 0.225132 0.0695354
0.0123903 0.258137 0.0517586
0.0265049 0.282704 0.0274205
0.371359 0.341253 0.00360113
0.634043 0.390784 0.00395209
0.809247 0.423178 0.0043183
0.935699 0.476738 0.00509651
0.923537 0.44506 0.00500496
0.00378424 0.324529 0.0582284
0.00369268 0.3131 0.0606241
0.0107729 0.343313 0.0218204
0.141894 0.410864 0.00399786
0.0268559 0.423056 0.00410468
0.563622 0.510048 0.00428778
0.812192 0.558236 0.00463874
0.949172 0.597925 0.00512703
0.990585 0.621683 0.00549325
0.00447089 0.41149 0.0113069
0.00444038 0.408118 0.0128481
0.00872816 0.418875 0.00457771
0.0268864 0.503456 0.00457771
0.348074 0.575433 0.0047303
0.184237 0.576379 0.00488289
0.755444 0.674678 0.0049897
0.956344 0.710903 0.00540169
0.996872 0.735775 0.00596628
0.00547799 0.491264 0.00550851
0.00546273 0.490059 0.00549325
0.00515755 0.472938 0.00518807
0.0150607 0.573556 0.00534066
0.382071 0.677455 0.00546273
0.424018 0.702861 0.0056611
0.427283 0.718914 0.00593576
0.910445 0.813169 0.00581369
0.99443 0.820859 0.00642405
0.00695811 0.567498 0.116091
0.00695811 0.567498 0.116091
0.00695811 0.567498 0.116091
0.0145113 0.634195 0.0187686
0.379705 0.735119 0.0069276
0.659175 0.813169 0.00688182
0.535393 0.784848 0.00737011
0.632151 0.811658 0.00743114
0.986114 0.890028 0.00708019
0.0296635 0.0399481 0.085771
0.072755 0.0429541 0.0844892
0.135515 0.0510109 0.0813916
0.240467 0.0541695 0.0767376
0.380667 0.002121 0.0587778
0.539681 0.00256352 0.0397498
0.684474 0.00326543 0.0392309
0.722744 0.00369268 0.0356298
0.722744 0.00367742 0.0273442
0.00201419 0.0683452 0.0830091
0.0517739 0.0700236 0.0788434
0.138674 0.0821546 0.0751354
0.259388 0.0891737 0.0639811
0.403723 0.0707713 0.0192569
0.553384 0.0123598 0.00929274
0.687663 0.00830091 0.00933852
0.748531 0.00817884 0.00943008
0.74168 0.00721752 0.00874342
0.00201419 0.110323 0.0876783
0.00816358 0.109422 0.0811017
0.112383 0.122866 0.0772564
0.277089 0.142321 0.0562905
0.422324 0.151202 0.00799573
0.58143 0.1561 0.00735485
0.71603 0.145296 0.00697337
0.803555 0.166461 0.0068513
0.796643 0.156313 0.00569161
0.00262455 0.17438 0.0924086
0.00573739 0.16817 0.0859388
0.0800488 0.18674 0.074403
0.21474 0.210666 0.0556191
0.431937 0.24741 0.00325017
0.643915 0.269215 0.00358587
0.777035 0.279271 0.00395209
0.870741 0.325933 0.00466926
0.864836 0.313191 0.00463874
0.00318914 0.243381 0.0892653
0.00308232 0.227161 0.0772564
0.0120546 0.253407 0.0545968
0.194369 0.294911 0.00476081
0.371771 0.336583 0.00358587
0.630182 0.385641 0.00393683
0.809857 0.416114 0.00430304
0.931395 0.465522 0.005066
0.923064 0.443839 0.00500496
0.00375372 0.321736 0.0588083
0.00367742 0.310445 0.0611887
0.0104219 0.337697 0.0282292
0.118517 0.4038 0.00396735
0.229847 0.439292 0.00410468
0.562829 0.503639 0.00425727
0.807568 0.55256 0.00460822
0.947387 0.592935 0.00511177
0.986984 0.611597 0.00546273
0.00444038 0.408453 0.012726
0.00442512 0.405173 0.0141299
0.00823987 0.411582 0.00596628
0.0246738 0.495735 0.00454719
0.399115 0.578943 0.00468452
0.334401 0.592523 0.00485237
0.753979 0.66804 0.00495918
0.95285 0.705745 0.00537118
0.996872 0.73228 0.00595102
0.00544747 0.48893 0.00546273
0.00541695 0.487739 0.00544747
0.00512703 0.470817 0.00514229
0.0146792 0.565896 0.00529488
0.36463 0.669871 0.00543221
0.585382 0.734554 0.00555428
0.501274 0.733593 0.00582895
0.909102 0.808728 0.00576791
0.993957 0.818082 0.00637827
0.00695811 0.567498 0.116091
0.00695811 0.567498 0.116091
0.00695811 0.567498 0.116091
0.0140993 0.625147 0.0113375
0.356649 0.727184 0.00683604
0.655253 0.810071 0.00677501
0.694148 0.827543 0.00721752
0.686168 0.826642 0.00746166
0.986084 0.887282 0.00698863
0.00923171 0.0339208 0.146181
0.0702678 0.0375219 0.149264
0.133608 0.046891 0.147616
0.242542 0.0496376 0.153368
0.388708 0.0021973 0.159625
0.549874 0.00260929 0.174884
0.693965 0.00328069 0.194171
0.734508 0.0037232 0.201282
0.733379 0.0037232 0.188449
0.00161746 0.0725261 0.152178
0.0331273 0.0724346 0.150271
0.134356 0.0841688 0.152667
0.260273 0.0902266 0.152224
0.406592 0.0647135 0.147189
0.556634 0.0084535 0.145495
0.69099 0.00805676 0.151476
0.753964 0.00796521 0.16347
0.747219 0.00698863 0.150011
0.00210575 0.120043 0.158022
0.00788891 0.118257 0.150057
0.10753 0.13077 0.146014
0.259373 0.14522 0.14226
0.414862 0.146227 0.13106
0.56875 0.122194 0.109209
0.695232 0.0321355 0.0771954
0.779339 0.0277409 0.079408
0.774639 0.0149996 0.0631113
0.00268559 0.188479 0.164996
0.0053254 0.18085 0.153353
0.0259403 0.197711 0.142473
0.213184 0.222461 0.135012
0.439582 0.241764 0.0972915
0.600015 0.250294 0.0664225
0.739513 0.252003 0.0251926
0.845777 0.277531 0.0124514
0.849821 0.273457 0.0120851
0.00326543 0.265049 0.169345
0.00317388 0.249821 0.153841
0.0112001 0.27158 0.138094
0.192645 0.309667 0.111025
0.369177 0.341924 0.0698863
0.629496 0.383261 0.010193
0.813428 0.402487 0.0103456
0.915434 0.440146 0.0112612
0.924041 0.446128 0.0111391
0.00386053 0.353582 0.162127
0.00376898 0.338186 0.146365
0.00981155 0.356146 0.12369
0.0390631 0.408698 0.0519112
0.375372 0.466148 0.0121004
0.562646 0.507881 0.0100862
0.808942 0.554559 0.00816358
0.949386 0.590143 0.00642405
0.98468 0.603891 0.00720226
0.00453193 0.434394 0.145678
0.00450141 0.430289 0.141207
0.00772107 0.424598 0.0993973
0.0167544 0.494759 0.0109102
0.380331 0.579934 0.00843824
0.439429 0.616205 0.0105745
0.757153 0.670924 0.00807202
0.950134 0.701625 0.00534066
0.996857 0.728481 0.00593576
0.00547799 0.503624 0.12755
0.00544747 0.502037 0.124147
0.00514229 0.476295 0.0547799
0.0143435 0.561868 0.00688182
0.350744 0.664088 0.00540169
0.633875 0.740215 0.00549325
0.566491 0.749691 0.0103761
0.909224 0.8047 0.00573739
0.993652 0.815976 0.00634775
0.00698863 0.578836 0.181476
0.00698863 0.578759 0.181033
0.00695811 0.567498 0.116091
0.0137789 0.618616 0.00961318
0.338323 0.720913 0.00675975
0.643671 0.805875 0.00672923
0.804562 0.85095 0.00679026
0.72961 0.836957 0.00973526
0.98613 0.885252 0.0069276
0.00376898 0.00311284 0.228443
0.0684215 0.00173953 0.234531
0.143404 0.00383001 0.242664
0.250965 0.00311284 0.25127
0.401968 0.00225834 0.2692
0.560098 0.00267033 0.292226
0.703975 0.00331121 0.321263
0.747372 0.00378424 0.334539
0.746242 0.00378424 0.324407
0.00178531 0.0480354 0.241169
0.013611 0.0617838 0.2439
0.132784 0.0773327 0.2551
0.258488 0.0812543 0.256672
0.40827 0.0373846 0.264225
0.563348 0.00822461 0.27686
0.698619 0.0078584 0.294881
0.764538 0.00773632 0.314626
0.757977 0.00671397 0.300526
0.00231937 0.127672 0.259449
0.00794995 0.12369 0.255009
0.0830091 0.137789 0.256428
0.254948 0.150393 0.261006
0.41622 0.149889 0.261189
0.573037 0.124498 0.258824
0.701976 0.0417182 0.260044
0.786526 0.0318303 0.280018
0.783673 0.0243839 0.26894
0.00277714 0.204578 0.269261
0.00508125 0.195804 0.256138
0.0125887 0.213367 0.256886
0.21503 0.234974 0.250568
0.414603 0.247333 0.243809
0.591928 0.241825 0.230167
0.72842 0.22237 0.217182
0.827665 0.2327 0.225925
0.831724 0.227314 0.218585
0.00331121 0.285924 0.280522
0.00321965 0.270405 0.260334
0.0109407 0.294224 0.258152
0.0964065 0.327916 0.23859
0.36199 0.360632 0.229648
0.625986 0.375265 0.195117
0.763943 0.38201 0.186191
0.868055 0.39202 0.166537
0.899947 0.41236 0.164675
0.00387579 0.381872 0.287327
0.0037995 0.366491 0.268223
0.00962844 0.384237 0.255558
0.0169223 0.427283 0.226261
0.359747 0.477394 0.194797
0.547097 0.509483 0.170565
0.785794 0.532708 0.0242313
0.927855 0.555611 0.0148928
0.954833 0.570886 0.0509346
0.00457771 0.467414 0.288899
0.00454719 0.463172 0.283375
0.00737011 0.4551 0.248829
0.014435 0.506416 0.212558
0.302739 0.575402 0.153323
0.566079 0.623575 0.0619211
0.73283 0.658167 0.0148318
0.93669 0.692851 0.0132601
0.996857 0.719661 0.0127413
0.00553903 0.539437 0.301244
0.00552377 0.537972 0.298421
0.00521859 0.512718 0.246708
0.0131838 0.567712 0.204044
0.192508 0.650752 0.0911727
0.579477 0.729229 0.0143893
0.642741 0.754894 0.0324865
0.891997 0.798657 0.0133974
0.993408 0.813886 0.0122988
0.00709544 0.621485 0.396475
0.00709544 0.621408 0.396124
0.00706493 0.61294 0.356741
0.0129397 0.637461 0.288624
0.140429 0.705272 0.188724
0.572915 0.782544 0.023331
0.799359 0.841398 0.0127565
0.743084 0.84477 0.248493
0.984848 0.879789 0.0125582
0.00434882 0.00138857 0.317937
0.0491798 0.0016022 0.328862
0.159976 0.00184634 0.34522
0.275669 0.00209049 0.355688
0.414801 0.00234989 0.367422
0.569375 0.00274662 0.393149
0.712276 0.00335698 0.427146
0.759533 0.00384527 0.444419
0.758434 0.00383001 0.435126
0.00195315 0.0125887 0.334752
0.0096437 0.0146639 0.338293
0.134722 0.044358 0.355673
0.270588 0.0408942 0.364508
0.413184 0.0109102 0.369085
0.56846 0.00802625 0.386145
0.705425 0.00764477 0.409354
0.77467 0.00749218 0.433326
0.768048 0.00643931 0.418189
0.00250248 0.113771 0.358892
0.00793469 0.111223 0.357046
0.0489815 0.138781 0.363119
0.254978 0.150927 0.377707
0.413504 0.147967 0.379538
0.575189 0.115785 0.386435
0.707362 0.0256962 0.396612
0.794781 0.0220798 0.424521
0.792401 0.0193027 0.413001
0.00297551 0.218128 0.382773
0.00500496 0.208591 0.371359
0.0124666 0.228321 0.381491
0.198489 0.246128 0.38468
0.40853 0.257191 0.389227
0.593408 0.250889 0.388403
0.73167 0.229572 0.387304
0.829023 0.234363 0.403922
0.836027 0.23209 0.398383
0.0033875 0.304189 0.394614
0.00331121 0.289281 0.377615
0.0108644 0.313008 0.387823
0.0396887 0.348302 0.386999
0.370672 0.377234 0.383536
0.60145 0.386282 0.377157
0.755566 0.379843 0.366186
0.85771 0.37145 0.359747
0.889708 0.391287 0.365743
0.00392157 0.405066 0.41442
0.00384527 0.389303 0.395895
0.00944533 0.408713 0.396719
0.0154269 0.452598 0.390738
0.301839 0.498299 0.368765
0.5364 0.531945 0.36347
0.786068 0.539757 0.333425
0.892699 0.548836 0.336706
0.947631 0.577951 0.339681
0.00454719 0.495247 0.430838
0.00451667 0.491447 0.426017
0.0069276 0.482002 0.399603
0.0140383 0.535592 0.390585
0.16318 0.595163 0.354177
0.549386 0.646311 0.331685
0.719478 0.674952 0.321263
0.912032 0.682658 0.246403
0.985809 0.703365 0.265751
0.00552377 0.56994 0.456764
0.00550851 0.568627 0.454337
0.00523384 0.545647 0.407782
0.0130159 0.602197 0.396155
0.0341955 0.666117 0.34342
0.514244 0.738689 0.306111
0.743465 0.776471 0.272969
0.863005 0.793988 0.252399
0.993317 0.802853 0.138247
0.00715648 0.650492 0.547906
0.00715648 0.650492 0.547906
0.00704967 0.638498 0.509911
0.012726 0.66656 0.471473
0.0195621 0.720088 0.406302
0.491524 0.795041 0.353628
0.748791 0.84036 0.298466
0.799237 0.864729 0.375555
0.9617 0.870497 0.249516
0.00462348 0.00169375 0.420478
0.0238041 0.0018616 0.43209
0.171344 0.00207523 0.451804
0.302861 0.00230411 0.467216
0.445823 0.002533 0.478798
0.578225 0.00282292 0.490196
0.721294 0.00340276 0.525368
0.772625 0.00392157 0.544152
0.771496 0.00390631 0.535256
0.00213626 0.0108644 0.438148
0.00939956 0.00985733 0.442222
0.134798 0.00991836 0.459815
0.288563 0.0100404 0.476234
0.438285 0.00842298 0.48275
0.574334 0.00784314 0.487511
0.71133 0.00743114 0.510735
0.784909 0.00724804 0.536141
0.77821 0.00613413 0.520241
0.00268559 0.0712902 0.459007
0.00788891 0.076997 0.458289
0.0237125 0.128283 0.468513
0.258595 0.144305 0.49044
0.426993 0.137301 0.498466
0.576623 0.0887312 0.498848
0.712901 0.0128176 0.513329
0.804379 0.0130617 0.54403
0.802182 0.0125582 0.532372
0.00315862 0.223545 0.496818
0.00486763 0.212833 0.484413
0.0123903 0.234577 0.499321
0.171527 0.252918 0.502647
0.407767 0.262989 0.517342
0.590509 0.254292 0.517632
0.732082 0.230549 0.52253
0.830442 0.231357 0.542107
0.841093 0.233906 0.53872
0.00357061 0.32401 0.515099
0.00349432 0.308125 0.49778
0.0108949 0.333761 0.514504
0.0265507 0.368414 0.52163
0.356512 0.390799 0.527214
0.593637 0.398764 0.528618
0.753323 0.390967 0.525887
0.85774 0.382498 0.529747
0.891417 0.402747 0.535805
0.00399786 0.419638 0.526284
0.00392157 0.406119 0.51133
0.00935378 0.425208 0.517235
0.0152895 0.470344 0.526238
0.238209 0.517281 0.521675
0.555932 0.547173 0.520027
0.759579 0.551522 0.512673
0.881758 0.544076 0.505074
0.938033 0.566613 0.512963
0.00457771 0.513771 0.55021
0.00456245 0.510369 0.546273
0.00656138 0.499413 0.52256
0.0137942 0.555291 0.531792
0.0256657 0.616587 0.517647
0.501305 0.666545 0.504921
0.707256 0.696101 0.501793
0.908003 0.695888 0.477302
0.978637 0.722637 0.498161
0.00546273 0.589548 0.579431
0.00544747 0.588571 0.577691
0.00517281 0.56907 0.538735
0.0127871 0.625757 0.544839
0.0187381 0.692378 0.525704
0.437827 0.75729 0.497337
0.725002 0.800092 0.479759
0.850965 0.818402 0.475425
0.992142 0.826108 0.43444
0.00715648 0.669047 0.662013
0.00715648 0.669047 0.662013
0.00697337 0.653849 0.626749
0.0124666 0.684367 0.607355
0.0181125 0.740978 0.575433
0.388067 0.807797 0.530098
0.705959 0.860136 0.505104
0.872053 0.882307 0.480705
0.950225 0.894286 0.479957
0.00523384 0.00230411 0.548699
0.0128328 0.0024567 0.56199
0.197162 0.00254826 0.580133
0.34931 0.00270085 0.599771
0.500374 0.00288396 0.612482
0.626444 0.00311284 0.620966
0.734813 0.00352483 0.628824
0.788571 0.00404364 0.643977
0.786603 0.00402838 0.634104
0.00248722 0.0111849 0.558068
0.00943008 0.0099031 0.558953
0.133303 0.00941482 0.575677
0.31368 0.0089723 0.597925
0.476493 0.0084535 0.608911
0.607065 0.00779736 0.611719
0.720653 0.00727855 0.614984
0.798032 0.00703441 0.634821
0.790875 0.00582895 0.618296
0.00294499 0.0236667 0.57171
0.00788891 0.0240024 0.570153
0.01561 0.101671 0.576684
0.265736 0.130404 0.603922
0.447974 0.106218 0.618448
0.59585 0.0491798 0.620462
0.718639 0.0127413 0.622629
0.815457 0.0130007 0.650385
0.813153 0.0124514 0.638529
0.00337224 0.221256 0.610758
0.00468452 0.207019 0.597055
0.0123293 0.233478 0.61384
0.122362 0.255222 0.615259
0.411414 0.264225 0.638895
0.599863 0.25272 0.643198
0.73196 0.226322 0.640208
0.831296 0.221256 0.65742
0.846159 0.229129 0.6551
0.00378424 0.344778 0.638773
0.00370794 0.327825 0.621271
0.010956 0.352041 0.637827
0.0168765 0.383291 0.647593
0.337957 0.399512 0.651652
0.589776 0.406897 0.66183
0.748287 0.397269 0.658396
0.856519 0.386481 0.664408
0.893584 0.408499 0.670253
0.00419623 0.447318 0.651789
0.00410468 0.432044 0.634516
0.0093843 0.449775 0.64152
0.015198 0.491707 0.654582
0.180209 0.535424 0.654414
0.543374 0.559152 0.666239
0.748913 0.561517 0.664134
0.876631 0.552254 0.661021
0.935866 0.575372 0.668421
0.00463874 0.524269 0.652934
0.00462348 0.52134 0.649729
0.0062562 0.510063 0.630686
0.0137331 0.569986 0.651759
0.0196994 0.632609 0.653651
0.463493 0.682078 0.656733
0.722301 0.70695 0.653422
0.885939 0.706661 0.646448
0.971511 0.725582 0.653849
0.00546273 0.602716 0.681605
0.00544747 0.60174 0.680217
0.00520333 0.583597 0.646723
0.0126345 0.640421 0.663096
0.0184176 0.707393 0.662821
0.366964 0.77261 0.650095
0.688731 0.815564 0.640635
0.840009 0.835584 0.639323
0.987381 0.840772 0.625986
0.00708019 0.679438 0.745296
0.00708019 0.679454 0.745403
0.00680552 0.661616 0.714107
0.0121157 0.693507 0.708659
0.0177005 0.753201 0.698207
0.297871 0.82208 0.673365
0.661433 0.87396 0.657969
0.855268 0.89958 0.640284
0.939529 0.912108 0.641367
0.0052491 0.00230411 0.54873
0.0127108 0.00256352 0.569604
0.201968 0.00271611 0.601709
0.363317 0.00283818 0.633524
0.523674 0.00299077 0.659022
0.656123 0.00323491 0.679164
0.760723 0.00373846 0.697337
0.807004 0.00411994 0.710491
0.807004 0.00411994 0.710491
0.0027924 0.0115053 0.598825
0.00944533 0.0101625 0.608301
0.140856 0.0368658 0.634333
0.336385 0.0324865 0.669474
0.51397 0.0103914 0.693126
0.649973 0.00827039 0.708156
0.753567 0.00762951 0.717983
0.81883 0.00729381 0.730007
0.814206 0.00579843 0.721691
0.00328069 0.0691386 0.639612
0.00801099 0.0856184 0.646326
0.0140383 0.142473 0.661952
0.275868 0.19292 0.698787
0.488304 0.190921 0.727077
0.642206 0.164401 0.741283
0.751492 0.111208 0.747707
0.833616 0.118547 0.75787
0.826703 0.0305486 0.739864
0.00375372 0.263645 0.706294
0.00460822 0.250141 0.700999
0.0124361 0.277897 0.723812
0.0634318 0.298894 0.728222
0.428199 0.309316 0.758343
0.627436 0.284062 0.765957
0.751827 0.246357 0.761395
0.836973 0.231006 0.75964
0.855039 0.239658 0.75697
0.00419623 0.390021 0.75584
0.00407416 0.359991 0.736645
0.0111086 0.382376 0.751598
0.016846 0.406394 0.761608
0.318959 0.412528 0.763195
0.594263 0.417624 0.780591
0.754604 0.405585 0.781537
0.855772 0.390234 0.776715
0.896727 0.412695 0.780362
0.00450141 0.474342 0.765805
0.00440986 0.460929 0.753796
0.00947585 0.477852 0.760433
0.0151522 0.515984 0.774792
0.130755 0.553796 0.774365
0.527871 0.56733 0.788632
0.742901 0.569299 0.794324
0.870771 0.558038 0.789548
0.935347 0.57998 0.793713
0.00491341 0.552193 0.768246
0.00488289 0.548852 0.765423
0.00608835 0.533806 0.747433
0.0137942 0.592493 0.771603
0.0199893 0.652827 0.779614
0.43769 0.696071 0.787182
0.70956 0.716091 0.796704
0.875486 0.714305 0.792432
0.96759 0.731929 0.794751
0.00553903 0.612482 0.770703
0.00552377 0.611643 0.769757
0.00526436 0.594247 0.743435
0.0125734 0.649577 0.764569
0.0182498 0.715221 0.774929
0.297902 0.782803 0.775051
0.659739 0.827253 0.783948
0.854734 0.844785 0.778378
0.970352 0.847715 0.774151
0.00703441 0.686061 0.809125
0.00703441 0.686076 0.809247
0.00669871 0.665721 0.786023
0.0118563 0.698009 0.788754
0.0173342 0.758343 0.793286
0.160922 0.829496 0.782376
0.624491 0.884321 0.784131
0.82919 0.911986 0.774105
0.932357 0.925048 0.773831
0.00529488 0.00230411 0.548806
0.0125124 0.00256352 0.569055
0.196399 0.00271611 0.60061
0.357351 0.00283818 0.632547
0.519036 0.00297551 0.658289
0.651682 0.00321965 0.678477
0.757168 0.00370794 0.696651
0.807004 0.00411994 0.710491
0.807004 0.00411994 0.710491
0.00276188 0.0112459 0.59736
0.00921645 0.00993362 0.606378
0.133074 0.0319829 0.631601
0.329198 0.0272679 0.66685
0.506203 0.00978103 0.6907
0.643122 0.00798047 0.705821
0.74815 0.00729381 0.715282
0.817746 0.00686656 0.727916
0.811978 0.00520333 0.717952
0.00326543 0.0562295 0.636912
0.00773632 0.075227 0.64361
0.0138399 0.136461 0.65922
0.268467 0.18822 0.69575
0.479347 0.186648 0.724422
0.635172 0.160388 0.739101
0.746746 0.103441 0.74612
0.832883 0.129885 0.760815
0.833112 0.107622 0.758541
0.00373846 0.258488 0.704326
0.00399786 0.241505 0.69688
0.0122683 0.271427 0.720882
0.0563668 0.291951 0.725505
0.419898 0.312734 0.760403
0.627039 0.310338 0.781262
0.75938 0.29189 0.789044
0.847288 0.286275 0.796063
0.870436 0.302403 0.801846
0.00419623 0.386969 0.755489
0.0041352 0.371206 0.749722
0.0110475 0.398505 0.770672
0.0167544 0.424384 0.785504
0.304723 0.437049 0.792782
0.593637 0.449546 0.819135
0.760998 0.444327 0.8309
0.864317 0.433188 0.835462
0.908217 0.456764 0.843732
0.00463874 0.4878 0.791485
0.00459297 0.477974 0.788205
0.00949111 0.49781 0.803021
0.0151827 0.53875 0.823438
0.0806592 0.575204 0.827832
0.517937 0.588312 0.849073
0.740276 0.594217 0.865309
0.872236 0.586206 0.87126
0.940703 0.607324 0.879133
0.00514229 0.569253 0.818677
0.00512703 0.567391 0.818082
0.00595102 0.556481 0.81503
0.0139315 0.616953 0.845075
0.0197604 0.673716 0.859846
0.417777 0.712688 0.872831
0.696605 0.728908 0.891264
0.867262 0.729091 0.899413
0.963363 0.735271 0.897887
0.00581369 0.627497 0.836896
0.00581369 0.626947 0.836744
0.00561532 0.614984 0.832609
0.0127718 0.668788 0.856352
0.0181735 0.729824 0.870069
0.205463 0.796063 0.873503
0.64416 0.836225 0.890883
0.843732 0.850782 0.897215
0.961822 0.851316 0.895155
0.00720226 0.694743 0.860059
0.00720226 0.694804 0.860227
0.00674449 0.668223 0.841215
0.0117494 0.701167 0.85037
0.0171817 0.761425 0.8636
0.032517 0.834653 0.864286
0.597025 0.889982 0.879759
0.808179 0.919707 0.884031
0.942779 0.931395 0.880323
