creator/3-Post-Production/Color/LUTS/3-Archive-Sony/SLog2-Base.cube
TITLE "BaseLUTs - Sony S-Log2 Conversion LUT by Gamut"
# Designed for converting Sony S-Gamut / S-Log2 to Rec709 Color Space. Version 1.1 - 10/05/2022 -  Copyright 2022 Gamut, LLC
# 
LUT_3D_SIZE 5
0.0000000000 0.0000000000 0.0000000000
0.1521905000 0.0033515000 0.0000000000
0.4681475000 0.0343030000 0.0138000000
0.7513565000 0.0682437500 0.0356827500
0.9377530000 0.1502030000 0.0824160000
0.0285860000 0.2125592500 0.0461810000
0.1620122500 0.1889215000 0.0465347500
0.4626582500 0.1851900000 0.0646610000
0.7315747500 0.2146227500 0.0706545000
0.9128117500 0.2734120000 0.1097050000
0.0708735000 0.5461190000 0.0509130000
0.1011072500 0.5125805000 0.0303600000
0.4724380000 0.4994410000 0.0141945000
0.7833405000 0.4876082500 0.0566267500
0.9821165000 0.5040105000 0.1672550000
0.1194205000 0.8411645000 0.2078207500
0.1201695000 0.8326552500 0.1959325000
0.4155672500 0.8061777500 0.0942075000
0.7765770000 0.7835845000 0.1071130000
1.0000000000 0.7690612500 0.1282710000
0.0736490000 1.0000000000 0.4750980000
0.0736490000 1.0000000000 0.4750980000
0.1432340000 1.0000000000 0.4075505000
0.7094157500 1.0000000000 0.3164772500
0.9894350000 0.9822990000 0.4944320000
0.0000000000 0.0007890000 0.0893250000
0.1734382500 0.0289802500 0.1201255000
0.4853435000 0.0392317500 0.1429330000
0.7768375000 0.0707865000 0.1727220000
0.9723560000 0.1463682500 0.2414450000
0.0080827500 0.2126255000 0.2083562500
0.1727560000 0.1819242500 0.1858170000
0.5572787500 0.1241622500 0.1286360000
0.7917410000 0.1689117500 0.1354217500
0.9629392500 0.2487115000 0.2004212500
0.0444910000 0.5596397500 0.2512697500
0.0825350000 0.5766645000 0.2131695000
0.5165987500 0.5376322500 0.1047332500
0.8198015000 0.4665245000 0.1966290000
0.9745257500 0.4721075000 0.2678525000
0.1096130000 0.8532112500 0.3118820000
0.1061295000 0.8470695000 0.3306902500
0.4001247500 0.8491995000 0.2136975000
0.7915765000 0.7964050000 0.1615915000
1.0000000000 0.7590040000 0.2215225000
0.0731325000 1.0000000000 0.4794815000
0.0707957500 1.0000000000 0.4886222500
0.1048277500 0.9999865000 0.4679327500
0.7085465000 1.0000000000 0.3264285000
0.9897685000 0.9826012500 0.4988687500
0.0000000000 0.0366690000 0.3173325000
0.2215187500 0.0468902500 0.3496087500
0.5046655000 0.0443485000 0.3990205000
0.8053267500 0.0745105000 0.4313090000
0.9836300000 0.1582115000 0.4568460000
0.0238542500 0.2459690000 0.4221510000
0.1577245000 0.1578895000 0.4928602500
0.5276302500 0.0869590000 0.4674997500
0.8213847500 0.1445877500 0.4529422500
0.9886722500 0.2480585000 0.4500910000
0.0047310000 0.5652020000 0.5555865000
0.0106457500 0.5616547500 0.5534510000
0.4795330000 0.4902920000 0.4933960000
0.8443877500 0.4102990000 0.4145940000
0.9981460000 0.4099310000 0.3948860000
0.0674365000 0.8601805000 0.6201727500
0.0691987500 0.8667927500 0.6097842500
0.2613227500 0.8912760000 0.5129705000
0.8092625000 0.8178497500 0.3903732500
1.0000000000 0.7372205000 0.4097565000
0.0047315000 1.0000000000 0.6725255000
0.0043375000 1.0000000000 0.6624535000
0.0070970000 0.9998660000 0.6739255000
0.6814180000 1.0000000000 0.5221765000
0.9956140000 0.9894085000 0.5990120000
0.0657297500 0.0617890000 0.5716800000
0.2988562500 0.0571295000 0.6056960000
0.5630047500 0.0613362500 0.6481625000
0.8218162500 0.1285235000 0.7093550000
0.9999460000 0.2024490000 0.7250735000
0.0499840000 0.2427075000 0.6643645000
0.2244460000 0.1514880000 0.7220580000
0.5714450000 0.0918517500 0.6875625000
0.8229980000 0.1298467500 0.6940880000
1.0000000000 0.2026897500 0.7174915000
0.0106455000 0.6086425000 0.7588822500
0.0726837500 0.5636985000 0.7768942500
0.4627167500 0.4377027500 0.8027877500
0.8260002500 0.3360400000 0.7845032500
1.0000000000 0.3526912500 0.7539485000
0.0752867500 0.8630397500 0.8554320000
0.0778842500 0.8626645000 0.8557280000
0.2175535000 0.8606880000 0.8525577500
0.7685407500 0.7744425000 0.7746155000
1.0000000000 0.6920220000 0.7063997500
0.0025627500 1.0000000000 0.9318165000
0.0017742500 1.0000000000 0.9299755000
0.0021685000 1.0000000000 0.9129345000
0.5255735000 1.0000000000 0.8109765000
0.9998120000 0.9991142500 0.8368230000
0.2376770000 0.0838030000 0.8288750000
0.4099790000 0.0841465000 0.8424352500
0.6355160000 0.1098690000 0.8635950000
0.8536727500 0.1766427500 0.8649772500
1.0000000000 0.2339290000 0.8547420000
0.1565122500 0.1238397500 0.8509077500
0.3935827500 0.0903267500 0.8370682500
0.6498047500 0.1102295000 0.8512077500
0.8603272500 0.1789802500 0.8645467500
1.0000000000 0.2352400000 0.8544862500
0.0948580000 0.5967510000 0.9396840000
0.1856632500 0.5219320000 0.9507735000
0.5062460000 0.3696285000 0.9947875000
0.8465535000 0.2906145000 0.9570467500
1.0000000000 0.3329315000 0.9151285000
0.0860595000 0.8965712500 0.9998455000
0.0938927500 0.8935967500 0.9999665000
0.2418617500 0.8482562500 1.0000000000
0.7424622500 0.7224997500 1.0000000000
1.0000000000 0.6285825000 0.9891902500
0.0047310000 1.0000000000 1.0000000000
0.0047310000 1.0000000000 1.0000000000
0.0090685000 0.9997450000 0.9997450000
0.5176022500 1.0000000000 1.0000000000
0.9991410000 0.9985230000 0.9992750000
