creator/3-Post-Production/Color/LUTS/3-Archive-Sony/SLog2-Base.cube
TITLE "BaseLUTs - Sony S-Log2 Conversion LUT by Gamut"
# Designed for converting Sony S-Gamut / S-Log2 to Rec709 Color Space. Version 1.1 - 10/05/2022 -  Copyright 2022 Gamut, LLC
# 
LUT_3D_SIZE 33
0.0000000000 0.0000000000 0.0000000000
0.0023167187 0.0007890000 0.0007890000
0.0061118125 0.0000000000 0.0000000000
0.0213406875 0.0000000000 0.0000000000
0.0400097500 0.0000000000 0.0000000000
0.0584855000 0.0000000000 0.0000000000
0.0820786875 0.0000000000 0.0000000000
0.1141933750 0.0006164062 0.0000000000
0.1521905000 0.0033515000 0.0000000000
0.1945204688 0.0120751250 0.0000000000
0.2358241875 0.0213902500 0.0000000000
0.2760392500 0.0275756875 0.0005177813
0.3150722500 0.0317402500 0.0033516250
0.3528665313 0.0339090000 0.0069248125
0.3905150625 0.0343522500 0.0095610625
0.4284410625 0.0346970000 0.0122476250
0.4681475000 0.0343030000 0.0138000000
0.5089647187 0.0339090000 0.0141940000
0.5490836250 0.0350421875 0.0134060000
0.5884888750 0.0351654687 0.0126170000
0.6252798750 0.0352883750 0.0129128750
0.6581836875 0.0415191250 0.0139480937
0.6900155000 0.0511146250 0.0191229375
0.7217363438 0.0604243437 0.0273535937
0.7513565000 0.0682437500 0.0356827500
0.7784744375 0.0754230625 0.0440576250
0.8042084375 0.0827228750 0.0509673125
0.8288518437 0.0916757500 0.0572962500
0.8523696250 0.1022346250 0.0625137500
0.8750363437 0.1141639375 0.0669601875
0.8966147500 0.1262867500 0.0712218125
0.9174808438 0.1382287500 0.0762737187
0.9377530000 0.1502030000 0.0824160000
0.0000000000 0.0046570937 0.0000000000
0.0007643437 0.0031293750 0.0000000000
0.0075902500 0.0023167188 0.0000000000
0.0227452188 0.0008135937 0.0000000000
0.0400097500 0.0000000000 0.0000000000
0.0584855000 0.0000000000 0.0000000000
0.0824491875 0.0006410625 0.0000000000
0.1125351563 0.0035487500 0.0000000000
0.1516543438 0.0091915625 0.0000000000
0.1928556875 0.0174965625 0.0000000000
0.2335636563 0.0255058750 0.0000000000
0.2734083438 0.0314447500 0.0012814688
0.3122712187 0.0356087188 0.0046081250
0.3496533438 0.0369890625 0.0084771875
0.3868745000 0.0370137188 0.0111140000
0.4244953750 0.0378026875 0.0134301563
0.4638695625 0.0378026875 0.0149583438
0.5042310313 0.0373835625 0.0149830000
0.5444759688 0.0389359062 0.0141940000
0.5837040000 0.0393550625 0.0134060000
0.6207515938 0.0399419375 0.0144652500
0.6549754688 0.0454091562 0.0165596875
0.6880624375 0.0553237813 0.0232382500
0.7199493125 0.0652817187 0.0317890625
0.7494727187 0.0741663125 0.0403138125
0.7767289375 0.0823654375 0.0475806875
0.8022596875 0.0917441250 0.0541837812
0.8264776250 0.1026221875 0.0601798750
0.8493379375 0.1152311250 0.0647647813
0.8713586563 0.1284829063 0.0685605000
0.8926641875 0.1418683438 0.0732629687
0.9133223750 0.1548366250 0.0786773437
0.9331699688 0.1671961563 0.0851129062
0.0000000000 0.0100046250 0.0000000000
0.0007643438 0.0092412187 0.0000000000
0.0053228750 0.0069491250 0.0000000000
0.0183345625 0.0038937188 0.0000000000
0.0375556875 0.0030061875 0.0000000000
0.0559403750 0.0028830000 0.0000000000
0.0787781875 0.0056682500 0.0000000000
0.1099354688 0.0115080313 0.0000000000
0.1482228125 0.0177922500 0.0000000000
0.1897087500 0.0248401875 0.0000000000
0.2301416250 0.0311489375 0.0005424375
0.2701669062 0.0361018750 0.0025626562
0.3085851250 0.0394777500 0.0069001875
0.3458065312 0.0408468750 0.0103007813
0.3828926250 0.0408468750 0.0134055000
0.4201570937 0.0420155313 0.0153030625
0.4590466250 0.0416133750 0.0168559375
0.4994105625 0.0419682187 0.0165106875
0.5396644375 0.0434463125 0.0161162500
0.5791459062 0.0438168125 0.0156724375
0.6167217500 0.0446806250 0.0167573125
0.6521040938 0.0508198125 0.0203795000
0.6861303125 0.0608931875 0.0278466875
0.7182354375 0.0717757500 0.0364470937
0.7476612500 0.0814523750 0.0442051250
0.7747570625 0.0912620625 0.0516092188
0.7999443750 0.1019035000 0.0573132500
0.8234844062 0.1143011875 0.0625122500
0.8459563750 0.1279845625 0.0664061875
0.8677254062 0.1422450000 0.0702152187
0.8888537500 0.1561682500 0.0752597500
0.9093663125 0.1693860625 0.0810223438
0.9294006250 0.1815566875 0.0873254375
0.0000000000 0.0237066875 0.0000000000
0.0007150312 0.0236327188 0.0000000000
0.0037458750 0.0213160625 0.0000000000
0.0151796250 0.0189747812 0.0000000000
0.0328000000 0.0166343125 0.0000000000
0.0527559063 0.0172498438 0.0000000000
0.0779003125 0.0214642500 0.0013552813
0.1099535313 0.0275999063 0.0028337813
0.1476263125 0.0332185937 0.0036473125
0.1873885937 0.0366689687 0.0042136875
0.2280610000 0.0406857500 0.0049777500
0.2678346875 0.0444588438 0.0084772812
0.3058376562 0.0468507813 0.0129374688
0.3426769063 0.0476737812 0.0163383750
0.3790036250 0.0478919062 0.0182851250
0.4160304375 0.0489502187 0.0206264687
0.4546189063 0.0492746875 0.0209962187
0.4947770000 0.0492746875 0.0210701875
0.5354469375 0.0506330000 0.0209962187
0.5752774687 0.0509035625 0.0202811875
0.6133856563 0.0520394375 0.0215875937
0.6497316563 0.0586689062 0.0260228438
0.6842344062 0.0691905000 0.0332680937
0.7161087813 0.0806925625 0.0417524375
0.7451891562 0.0913280312 0.0489439063
0.7718925937 0.1022407187 0.0553008437
0.7966114062 0.1142886250 0.0601972500
0.8198134062 0.1279247187 0.0642508750
0.8420905625 0.1422295000 0.0680695938
0.8637306250 0.1566632500 0.0721986875
0.8847880938 0.1705008125 0.0772439375
0.9055026250 0.1832870625 0.0833255938
0.9256984062 0.1951286562 0.0899098437
0.0043367500 0.0504365000 0.0028583750
0.0051010937 0.0498581250 0.0021688750
0.0103007500 0.0484901875 0.0021195625
0.0238786562 0.0470758437 0.0013798750
0.0421515000 0.0456880000 0.0020702500
0.0626288125 0.0461783125 0.0028337500
0.0872365625 0.0482506875 0.0056188750
0.1190224375 0.0516523750 0.0127400938
0.1549841250 0.0538572500 0.0182355000
0.1921571563 0.0558452813 0.0198872187
0.2301959375 0.0572518125 0.0211933125
0.2686837187 0.0591531250 0.0236076562
0.3061931250 0.0600492500 0.0268118750
0.3423114375 0.0601303750 0.0287583438
0.3781648750 0.0604605625 0.0296206250
0.4147619062 0.0612355000 0.0307543750
0.4528581250 0.0613153750 0.0308530000
0.4927710000 0.0615867813 0.0304831563
0.5334940625 0.0627335625 0.0300640000
0.5735090625 0.0632921250 0.0293745000
0.6119300000 0.0649617500 0.0299658750
0.6483927500 0.0711604063 0.0344016875
0.6821994375 0.0817477500 0.0409078750
0.7133761250 0.0932768750 0.0479211250
0.7419566250 0.1043831250 0.0535527500
0.7680306563 0.1161605625 0.0584262813
0.7924193750 0.1290421250 0.0625107500
0.8154486563 0.1432712188 0.0663201875
0.8377007500 0.1578192500 0.0696672500
0.8594244375 0.1720285625 0.0742007500
0.8806056250 0.1853045625 0.0791881250
0.9015752188 0.1974488750 0.0855761875
0.9221708750 0.2089676250 0.0927995000
0.0163632187 0.0857197813 0.0146620938
0.0178909375 0.0865379687 0.0138740938
0.0239279688 0.0844543438 0.0123463438
0.0369150625 0.0818759687 0.0109171875
0.0541340000 0.0809659688 0.0116313750
0.0737134063 0.0805778438 0.0137508125
0.0992595625 0.0798102188 0.0173488125
0.1311019063 0.0794893750 0.0254560312
0.1664882500 0.0797032187 0.0354368125
0.2016661563 0.0798318750 0.0411488437
0.2375538125 0.0807128750 0.0434298750
0.2738011250 0.0813414375 0.0443752813
0.3093044375 0.0815244063 0.0453562188
0.3444300000 0.0814237812 0.0454795000
0.3794447812 0.0816825312 0.0456026250
0.4153819375 0.0823614687 0.0451260000
0.4530876250 0.0825894688 0.0443969063
0.4924447187 0.0827462188 0.0433184688
0.5327600937 0.0838680937 0.0422950937
0.5727656875 0.0843129062 0.0415406875
0.6110854375 0.0866871563 0.0418211875
0.6467372812 0.0928238437 0.0450114063
0.6795754687 0.1020580000 0.0495288437
0.7099161875 0.1125833125 0.0543179375
0.7377441250 0.1228259688 0.0581184688
0.7635165313 0.1342446563 0.0617460625
0.7878483125 0.1470092500 0.0646582187
0.8108964688 0.1608270312 0.0680168438
0.8332329063 0.1748021250 0.0717415312
0.8551104688 0.1881199688 0.0762860625
0.8767723125 0.2006141875 0.0819303125
0.8980274375 0.2121556562 0.0886565625
0.9189772188 0.2230340625 0.0960589063
0.0260726875 0.1266042500 0.0337116875
0.0276250313 0.1275376875 0.0321839687
0.0323315000 0.1260379375 0.0292261875
0.0430667500 0.1210520938 0.0263432812
0.0581521250 0.1173761875 0.0269596875
0.0765425937 0.1163888750 0.0306069688
0.1019021875 0.1148220625 0.0343519375
0.1357310000 0.1125598437 0.0383687812
0.1733743750 0.1106465000 0.0452659375
0.2101049063 0.1093421562 0.0520740312
0.2456751250 0.1089445000 0.0566725000
0.2800787812 0.1095407188 0.0581194688
0.3138741250 0.1102527500 0.0588230625
0.3475745000 0.1108853438 0.0584662188
0.3814685000 0.1115146250 0.0578736875
0.4162476562 0.1124948125 0.0572772188
0.4530499375 0.1132231875 0.0561747500
0.4917695313 0.1138924062 0.0549311250
0.5317324375 0.1149695000 0.0539468125
0.5712571875 0.1159211875 0.0532993750
0.6091060625 0.1186196875 0.0535390000
0.6438789375 0.1241121563 0.0548051250
0.6759788125 0.1317029375 0.0573000000
0.7058009687 0.1397673125 0.0597466875
0.7335195625 0.1484426250 0.0621851875
0.7591323437 0.1583546250 0.0646751563
0.7834153750 0.1698110000 0.0672993750
0.8067117812 0.1820830937 0.0705595938
0.8292894375 0.1943228750 0.0746274375
0.8514682813 0.2061228438 0.0794846875
0.8734489375 0.2170848125 0.0851361250
0.8949727500 0.2277376875 0.0919905938
0.9161165625 0.2379773125 0.0995436250
0.0290046250 0.1691976562 0.0446527500
0.0305569688 0.1695385625 0.0430529063
0.0338842500 0.1676184062 0.0394530938
0.0417473437 0.1615308125 0.0363483125
0.0546531562 0.1547876563 0.0368908437
0.0708801875 0.1529175625 0.0406577812
0.0947110937 0.1527910625 0.0443636250
0.1295083438 0.1508301562 0.0460983750
0.1712956875 0.1477945000 0.0471074062
0.2120742500 0.1449529687 0.0495830625
0.2501335000 0.1434141875 0.0541901875
0.2859250000 0.1428127188 0.0590925938
0.3198201875 0.1431257500 0.0619162812
0.3528958750 0.1440717188 0.0631480000
0.3857675937 0.1454541563 0.0637020937
0.4196792812 0.1473505000 0.0631443437
0.4554301562 0.1492144375 0.0628731875
0.4931063437 0.1506612813 0.0621633125
0.5320349688 0.1522927188 0.0615795000
0.5706760937 0.1541728750 0.0609909063
0.6076565938 0.1572024687 0.0612099063
0.6419273437 0.1619310312 0.0617785312
0.6736174688 0.1674884688 0.0629221250
0.7031720937 0.1734183125 0.0643355938
0.7306674687 0.1803190312 0.0661100313
0.7564032188 0.1885266563 0.0681498750
0.7808143125 0.1978831250 0.0708878125
0.8041532500 0.2076238750 0.0740225938
0.8267867812 0.2173603750 0.0783815000
0.8491550625 0.2267762500 0.0835497812
0.8711989688 0.2360843438 0.0893339062
0.8926968750 0.2452422812 0.0963196250
0.9139000938 0.2544613125 0.1043358125
0.0285860000 0.2125592500 0.0461810000
0.0287585938 0.2110300625 0.0453268437
0.0302616875 0.2095566250 0.0424208125
0.0353130937 0.2041445313 0.0387878437
0.0475751250 0.1958912500 0.0392317500
0.0630122812 0.1910047500 0.0421567812
0.0840900625 0.1910498125 0.0464881250
0.1177989375 0.1913716875 0.0481413125
0.1620122500 0.1889215000 0.0465347500
0.2080098125 0.1859591562 0.0440393125
0.2499346875 0.1833237500 0.0436100000
0.2886947500 0.1814103438 0.0476533438
0.3246903750 0.1802087500 0.0529745000
0.3588703750 0.1801222188 0.0574363125
0.3929531250 0.1811320625 0.0613020625
0.4271970937 0.1829763750 0.0632720937
0.4626582500 0.1851900000 0.0646610000
0.4996427187 0.1873175625 0.0652069687
0.5374777500 0.1897101250 0.0656080000
0.5747955313 0.1924674375 0.0657817500
0.6107510000 0.1957008750 0.0659895000
0.6442655312 0.1997727812 0.0667500000
0.6753823750 0.2042317500 0.0676386250
0.7044885937 0.2089982500 0.0689414063
0.7315747500 0.2146227500 0.0706545000
0.7569984375 0.2212853125 0.0728200313
0.7812139375 0.2285280000 0.0757783125
0.8044467813 0.2359743750 0.0795058125
0.8270258750 0.2432817500 0.0837862500
0.8491544375 0.2507150312 0.0891103125
0.8707022500 0.2581048125 0.0948681250
0.8919314687 0.2657480937 0.1019879063
0.9128117500 0.2734120000 0.1097050000
0.0281670938 0.2547634375 0.0438824688
0.0276000000 0.2520831562 0.0436785625
0.0269843750 0.2512342188 0.0413032188
0.0301138438 0.2479338437 0.0382214688
0.0409730938 0.2389008750 0.0379751250
0.0563988125 0.2311722500 0.0409682188
0.0748624687 0.2295248437 0.0448732813
0.1049201250 0.2304425312 0.0464249688
0.1490302187 0.2301688125 0.0442397188
0.1990678750 0.2278347500 0.0405075938
0.2460658750 0.2250737812 0.0361018125
0.2879487500 0.2227336250 0.0328489375
0.3265206250 0.2209899063 0.0336869687
0.3629862812 0.2195152188 0.0392958125
0.3987454062 0.2188002500 0.0470383438
0.4348148438 0.2192246875 0.0546118750
0.4716110937 0.2204286250 0.0602981250
0.5092542500 0.2222500937 0.0642508750
0.5471462500 0.2246209375 0.0664438125
0.5841675312 0.2275729063 0.0681377187
0.6194590312 0.2309026875 0.0693672500
0.6521374375 0.2346128125 0.0707929375
0.6824470625 0.2386178750 0.0723554063
0.7107196250 0.2430551875 0.0740052812
0.7372512187 0.2480365937 0.0763257500
0.7621003438 0.2534933750 0.0794151563
0.7859031250 0.2592729062 0.0827125312
0.8087460313 0.2651490313 0.0866752812
0.8307792500 0.2709350312 0.0914425937
0.8521905625 0.2767198125 0.0966731562
0.8730726562 0.2827773125 0.1026846875
0.8935445312 0.2891304375 0.1093298438
0.9137687187 0.2955796250 0.1171667188
0.0305077500 0.2945948750 0.0401571250
0.0302611875 0.2920208750 0.0399419688
0.0294731875 0.2914726875 0.0383940625
0.0316910313 0.2901802187 0.0353377500
0.0389852500 0.2825825000 0.0345495625
0.0508867188 0.2728614688 0.0362252187
0.0667782500 0.2685511250 0.0394201875
0.0932457187 0.2686267813 0.0417728438
0.1358216875 0.2693665625 0.0392143750
0.1877586875 0.2686314687 0.0347957187
0.2385273750 0.2662151250 0.0309020000
0.2843761563 0.2638236875 0.0241747812
0.3258741250 0.2619201875 0.0181370000
0.3643889687 0.2603137812 0.0179152500
0.4017071250 0.2587491875 0.0242487500
0.4392908437 0.2572486875 0.0347715000
0.4777376875 0.2565973750 0.0457937500
0.5170425000 0.2569733125 0.0550525000
0.5564705625 0.2584908125 0.0620263750
0.5943951563 0.2608195625 0.0666806250
0.6300342500 0.2637341875 0.0698676875
0.6627531250 0.2670100000 0.0722803438
0.6926321875 0.2706935000 0.0749755625
0.7205393125 0.2748862813 0.0778830000
0.7465023750 0.2794093750 0.0816732500
0.7709614687 0.2842347500 0.0857045938
0.7942902500 0.2892340625 0.0899863750
0.8166036563 0.2941525938 0.0947682187
0.8380386875 0.2992010625 0.1001088125
0.8588380938 0.3041605625 0.1063030937
0.8789463750 0.3092960000 0.1125131250
0.8986618750 0.3146095625 0.1195285000
0.9180492500 0.3200883750 0.1270580625
0.0320607813 0.3337633750 0.0355103125
0.0320607813 0.3316874063 0.0355103125
0.0325779062 0.3312207812 0.0345003438
0.0335639062 0.3312289063 0.0317151563
0.0377286250 0.3258645312 0.0294731875
0.0454024688 0.3150612187 0.0296211250
0.0592821250 0.3081130625 0.0318137187
0.0830175938 0.3066964375 0.0343028125
0.1231814375 0.3071691875 0.0330214375
0.1752659062 0.3072398750 0.0280438438
0.2282945937 0.3059957188 0.0246925625
0.2775071562 0.3039704375 0.0205522812
0.3221465937 0.3017771563 0.0135784687
0.3634574063 0.3001422500 0.0085509687
0.4024895000 0.2983640625 0.0093394687
0.4412605938 0.2965462812 0.0151551562
0.4806980312 0.2946845625 0.0249389063
0.5213549063 0.2935507500 0.0364466563
0.5623409687 0.2932693125 0.0481960625
0.6020208125 0.2942956562 0.0580286875
0.6389156875 0.2962260312 0.0646651562
0.6723904062 0.2988187187 0.0695130000
0.7029143750 0.3020880938 0.0737881250
0.7311184063 0.3058314062 0.0783085625
0.7572240937 0.3099747500 0.0836787500
0.7816623437 0.3143563125 0.0891794687
0.8048123437 0.3187995000 0.0951255937
0.8268454687 0.3234268125 0.1015188438
0.8478900312 0.3279048438 0.1085307812
0.8681727500 0.3324082187 0.1155520625
0.8878427813 0.3369897188 0.1230866875
0.9068810000 0.3417216563 0.1306504062
0.9254460313 0.3465576250 0.1386035938
0.0341056250 0.3730335000 0.0308532500
0.0341056250 0.3713132812 0.0313457500
0.0341056250 0.3705986250 0.0305573750
0.0348946250 0.3711866250 0.0275512187
0.0365700000 0.3683062500 0.0244456250
0.0432900000 0.3578855000 0.0224747500
0.0555952500 0.3482951250 0.0245442500
0.0762145312 0.3451000000 0.0276497812
0.1117562500 0.3447402500 0.0274030000
0.1613735937 0.3447037500 0.0228443125
0.2152896875 0.3442010625 0.0182358750
0.2671026563 0.3430810938 0.0156233438
0.3148856250 0.3411461250 0.0122227500
0.3591088750 0.3390957813 0.0077376562
0.4009260000 0.3372806250 0.0053720625
0.4416790625 0.3355225937 0.0065305313
0.4823147500 0.3336582500 0.0100545000
0.5236850312 0.3317540937 0.0171266563
0.5654395000 0.3302066875 0.0280436250
0.6062268750 0.3295585313 0.0413313125
0.6445670000 0.3299980000 0.0532661250
0.6794926875 0.3316332188 0.0622836250
0.7112325625 0.3341850625 0.0689883125
0.7405539062 0.3373678438 0.0750779062
0.7674540000 0.3409901250 0.0817045000
0.7924713125 0.3449704375 0.0891245938
0.8158780000 0.3490098125 0.0971371875
0.8379344688 0.3532425938 0.1056169063
0.8589141250 0.3574350000 0.1146870000
0.8790348750 0.3616368437 0.1235507813
0.8983746250 0.3658993125 0.1323075000
0.9170475938 0.3702252500 0.1412005312
0.9351907500 0.3745246250 0.1499451250
0.0384678125 0.4131833437 0.0291770000
0.0384678125 0.4115998750 0.0291770000
0.0384678125 0.4106210000 0.0287091250
0.0384678125 0.4109698438 0.0264174062
0.0399391875 0.4101000938 0.0223757500
0.0457327187 0.4016475000 0.0189009375
0.0550995000 0.3900814062 0.0194187188
0.0720310000 0.3842803750 0.0225482812
0.1029410312 0.3828688750 0.0235096562
0.1486808125 0.3823587813 0.0199115625
0.2016493125 0.3821388750 0.0139970312
0.2544592500 0.3816954688 0.0111629375
0.3045195000 0.3803889688 0.0096105312
0.3517625937 0.3784090625 0.0077376562
0.3966424063 0.3763692813 0.0050761875
0.4399337500 0.3745479375 0.0043123750
0.4826932500 0.3729114688 0.0050515312
0.5251035937 0.3710751563 0.0068510313
0.5671736875 0.3692278125 0.0115083750
0.6083724375 0.3676241250 0.0215381250
0.6474493125 0.3665818438 0.0344262500
0.6835813750 0.3666310000 0.0480052188
0.7167693750 0.3680162187 0.0597509688
0.7476223125 0.3704247187 0.0686414375
0.7759079375 0.3734549688 0.0768110000
0.8019247188 0.3769166250 0.0858023437
0.8262204687 0.3806184688 0.0958246563
0.8488277813 0.3844781250 0.1067326563
0.8700997812 0.3883684375 0.1180324375
0.8904665937 0.3922266875 0.1289826875
0.9099460625 0.3962443750 0.1394756562
0.9286187188 0.4001867813 0.1497723125
0.9466435625 0.4042336563 0.1597266563
0.0422708750 0.4556745000 0.0300640625
0.0422708750 0.4541022812 0.0300640625
0.0422708750 0.4528317500 0.0296208125
0.0422708750 0.4525112187 0.0278469063
0.0435756250 0.4528078125 0.0232628125
0.0473440625 0.4475039063 0.0181617813
0.0544307500 0.4353428750 0.0167572500
0.0692424062 0.4262446875 0.0189257812
0.0962233125 0.4229448750 0.0212920000
0.1378744375 0.4217835313 0.0192462500
0.1888039375 0.4211719375 0.0138001875
0.2414421563 0.4210400937 0.0092160937
0.2931100625 0.4204962500 0.0081815000
0.3429132188 0.4191324063 0.0074175313
0.3903951250 0.4171816250 0.0055200000
0.4360991875 0.4151235000 0.0047556563
0.4809514375 0.4132638750 0.0043862500
0.5251418125 0.4114833750 0.0047310000
0.5683460000 0.4098876250 0.0050761875
0.6096940312 0.4082663437 0.0082062500
0.6488428750 0.4065958125 0.0159190625
0.6854997188 0.4053168438 0.0289308750
0.7194225625 0.4051761250 0.0448290000
0.7513785000 0.4062907813 0.0592402812
0.7812250625 0.4086033125 0.0701055000
0.8087682188 0.4114638125 0.0801565938
0.8344055625 0.4146010000 0.0917431250
0.8581546250 0.4179864062 0.1045193437
0.8803624375 0.4214099375 0.1177031250
0.9015334375 0.4248626250 0.1308964063
0.9215544375 0.4284702500 0.1431541250
0.9406608750 0.4320884688 0.1549484688
0.9591164375 0.4358813125 0.1662095000
0.0514943125 0.5002314688 0.0360525000
0.0511548437 0.4987734375 0.0360525000
0.0504827188 0.4973551562 0.0356338750
0.0501379375 0.4964731562 0.0345494687
0.0501379375 0.4968790312 0.0304587500
0.0522511875 0.4947745937 0.0239283125
0.0577416875 0.4844186562 0.0195914688
0.0700994375 0.4725593750 0.0204289687
0.0935460938 0.4664100938 0.0223511563
0.1312192188 0.4638042812 0.0218339063
0.1796331562 0.4625127187 0.0173979375
0.2316762813 0.4620284375 0.0116317500
0.2839675625 0.4618875937 0.0086001250
0.3348544375 0.4613438438 0.0070477500
0.3835164063 0.4598852812 0.0071467813
0.4306580313 0.4578178750 0.0071467813
0.4772220938 0.4556665938 0.0067769375
0.5233075625 0.4537244375 0.0059884062
0.5681298750 0.4520177500 0.0051501562
0.6106012500 0.4504934688 0.0047310000
0.6502139062 0.4490182500 0.0068505937
0.6866203750 0.4474790625 0.0154263750
0.7201606563 0.4462752500 0.0305324375
0.7520876875 0.4459521250 0.0483144062
0.7828597187 0.4468823750 0.0627906562
0.8119174375 0.4489979063 0.0738454688
0.8391317812 0.4515467813 0.0856365937
0.8645314375 0.4542538437 0.0993222500
0.8883511250 0.4569875625 0.1137705937
0.9109098750 0.4598540313 0.1282661562
0.9321423750 0.4628039375 0.1422715938
0.9521827188 0.4660577812 0.1556469375
0.9714355000 0.4693702187 0.1685643750
0.0708735000 0.5461190000 0.0509130000
0.0703616250 0.5445800938 0.0505935000
0.0693106875 0.5432023750 0.0499160000
0.0685360000 0.5418213750 0.0489379687
0.0679380000 0.5416205000 0.0463342500
0.0691292813 0.5414674687 0.0406048125
0.0724741875 0.5350061875 0.0339581250
0.0811443438 0.5224697500 0.0307545000
0.1011072500 0.5125805000 0.0303600000
0.1349082188 0.5077771875 0.0293991250
0.1795499375 0.5054276875 0.0255793750
0.2287269063 0.5044141250 0.0192215312
0.2788007500 0.5042900000 0.0131097500
0.3284287812 0.5040771562 0.0109660312
0.3769721250 0.5033370000 0.0114837500
0.4247695000 0.5016777188 0.0134055000
0.4724380000 0.4994410000 0.0141945000
0.5198971250 0.4972227813 0.0122717812
0.5662246875 0.4952767500 0.0091671250
0.6103073437 0.4936258125 0.0068508438
0.6510376250 0.4921985000 0.0067030000
0.6878186875 0.4908173437 0.0108184062
0.7212585625 0.4893528125 0.0227211250
0.7528109063 0.4880458750 0.0402320000
0.7833405000 0.4876082500 0.0566267500
0.8127670000 0.4886115938 0.0683189375
0.8410965625 0.4904285000 0.0792880625
0.8681386250 0.4924500937 0.0922051875
0.8938340000 0.4945352500 0.1069895000
0.9182046875 0.4966493125 0.1226379063
0.9408511250 0.4988840625 0.1379113125
0.9620984063 0.5013985937 0.1529637813
0.9821165000 0.5040105000 0.1672550000
0.0957605937 0.5907176563 0.0648637187
0.0949507812 0.5892704687 0.0645534688
0.0941350937 0.5879751875 0.0639852188
0.0933130938 0.5865492188 0.0634688750
0.0928510938 0.5855818750 0.0625929062
0.0935522500 0.5858619687 0.0589186875
0.0958444375 0.5831150312 0.0528016875
0.1017410000 0.5726008125 0.0466733125
0.1177839063 0.5602105000 0.0437314063
0.1475482187 0.5526070938 0.0417203437
0.1869140000 0.5489263750 0.0379691563
0.2310785312 0.5472560312 0.0314937813
0.2772407188 0.5467316875 0.0247169687
0.3241246875 0.5465276562 0.0206260000
0.3714715625 0.5460684687 0.0207495937
0.4191737812 0.5449475000 0.0238790313
0.4672399063 0.5430726875 0.0265650938
0.5153668750 0.5407628438 0.0258258750
0.5626907188 0.5385526563 0.0219568125
0.6080822187 0.5366536250 0.0172992188
0.6502651562 0.5351259375 0.0148598437
0.6882226563 0.5336516562 0.0160178125
0.7226011875 0.5322597500 0.0237064375
0.7543537188 0.5307550000 0.0370440312
0.7843746250 0.5296522187 0.0521670000
0.8135041563 0.5294980938 0.0636853125
0.8421719063 0.5301750938 0.0736331562
0.8701752188 0.5312788125 0.0851737188
0.8971512500 0.5327289687 0.0989741250
0.9228584063 0.5342790312 0.1145061250
0.9470533437 0.5358235000 0.1307639063
0.9695956875 0.5375367500 0.1469493125
0.9904266563 0.5393517188 0.1622873125
0.1183597500 0.6318859375 0.0757466875
0.1176953125 0.6306826562 0.0752617812
0.1170274375 0.6295193750 0.0752456875
0.1163556563 0.6282580000 0.0747906875
0.1156803750 0.6268738750 0.0743011250
0.1161238438 0.6265370625 0.0723481563
0.1184338125 0.6260927500 0.0671431875
0.1234680000 0.6197823125 0.0607007812
0.1362230625 0.6076986875 0.0561640625
0.1614587188 0.5974447812 0.0539307188
0.1959446875 0.5920926250 0.0510673750
0.2354248125 0.5895361562 0.0466584688
0.2778330625 0.5883848125 0.0400716250
0.3219784375 0.5877940313 0.0345004375
0.3674678125 0.5872586875 0.0331694375
0.4141381563 0.5863457812 0.0359295313
