creator/6-Editing/New LUTS/2-LOG-Looks/iPhone/Base-Normalization.cube
TITLE "Generated by Resolve"
LUT_3D_SIZE 5
0.0272679 0.0278325 0.0320897
0.174212 0.0523537 0.0179751
0.588678 0.00129702 0
0.678187 0.00149538 0
0.678187 0.00149538 0
0 0.0965744 0.015671
0.0729839 0.0895247 0.0421759
0.664744 0.063508 0
0.748974 0.0662852 0
0.739086 0.0147555 0
0.130419 0.475624 0
0.130358 0.475425 0
0.63415 0.603449 0
0.964355 0.617304 0
0.937758 0.531258 0
0.171023 0.597787 0
0.167483 0.584894 0
0.462608 0.764508 0
0.978424 0.870329 0
0.978347 0.84712 0
0.169238 0.620005 0
0.169238 0.620005 0
0.41294 0.798047 0
0.483268 0.77847 0
0.978561 0.889967 0
0.014435 0 0.213779
0.172335 0.0242924 0.173754
0.611154 0 0.140154
0.704143 0 0.123903
0.700679 0 0.0893873
0.00158694 0.101976 0.143114
0.0784772 0.0975814 0.11075
0.643641 0.00703441 0.00381476
0.757855 0.00552377 0
0.74995 0.000183108 0
0.0854658 0.514305 0
0.106508 0.488136 0
0.660731 0.608392 0
0.952758 0.580316 0
0.946517 0.550332 0
0.125872 0.621256 0
0.166857 0.58291 0
0.57319 0.763806 0
0.978408 0.865873 0
0.978332 0.841199 0
0.169238 0.620005 0
0.169238 0.620005 0
0.33225 0.798962 0
0.904005 0.877043 0
0.978561 0.889891 0
0.0320287 0 0.478691
0.17406 0 0.4925
0.667674 0 0.533959
0.765866 0 0.550637
0.762097 0 0.535744
0.0349432 0 0.522377
0.0352636 0.00782788 0.525307
0.694316 0 0.559411
0.810925 0 0.580926
0.800412 0 0.546456
0 0.513359 0.681559
0 0.488731 0.634073
0.652415 0.642893 0.603616
0.92958 0.609522 0.559686
0.928054 0.563226 0.514626
0 0.607324 0.65481
0 0.604425 0.550134
0.419303 0.958328 0.35082
0.945754 0.868925 0.356451
0.979034 0.832212 0.060914
0 0.63476 0.51046
0 0.650752 0.363684
0.00114443 0.845182 0.158618
0.898924 0.865232 0.171969
0.979629 0.874388 0.113252
0.0372778 0 0.557458
0.166857 0 0.586831
0.718807 0 0.648692
0.820172 0 0.678294
0.820172 0 0.678294
0.0398718 0.0198215 0.631586
0.0347143 0.118624 0.668254
0.726345 0.15967 0.715679
0.847852 0.170138 0.733761
0.836286 0.025391 0.70631
0.0116274 0.517983 0.818067
0.0135348 0.492302 0.814084
0.625986 0.642847 0.86009
0.928878 0.613321 0.84773
0.932204 0.568963 0.830488
0.00122072 0.609598 0.846006
0.00129702 0.599863 0.83328
0 0.824002 0.853361
0.940322 0.929458 0.87837
0.994751 0.919326 0.855543
0 0.626734 0.837278
0 0.626368 0.822141
0 0.756329 0.833906
0.891432 0.970871 0.809827
0.99556 0.96556 0.836179
0.0372778 0 0.557458
0.143893 0 0.585061
0.70988 0 0.646998
0.820172 0 0.678294
0.820172 0 0.678294
0.0411688 0 0.626047
0.0359808 0.0952621 0.658778
0.712459 0.162829 0.715206
0.84802 0.179461 0.736507
0.843091 0.142138 0.727199
0.0121462 0.513695 0.819669
0.0140536 0.491218 0.820996
0.589364 0.646052 0.871855
0.929259 0.630213 0.868132
0.938903 0.596094 0.859709
0.00210575 0.61088 0.854536
0.0027924 0.60528 0.852232
0 0.810117 0.892149
0.926772 0.926436 0.934417
0.992691 0.918776 0.933227
0 0.633646 0.864393
0 0.633646 0.864393
0 0.748852 0.89752
0.805463 0.961181 0.922911
0.998154 0.978866 0.943694
