creator/6-Editing/New LUTS/2-LOG-Looks/iPhone/Base-Normalization.cube
TITLE "Generated by Resolve"
LUT_3D_SIZE 9
0.0272679 0.0278325 0.0320897
0.0431067 0.0333104 0.0353094
0.174212 0.0523537 0.0179751
0.430365 0.00244144 0
0.588678 0.00129702 0
0.661631 0.00144961 0
0.678187 0.00149538 0
0.678187 0.00149538 0
0.678187 0.00149538 0
0.0185245 0.0420233 0.0340124
0.0297246 0.0410315 0.0370336
0.151369 0.0544747 0.0282597
0.391485 0.0440986 0
0.559289 0.00123598 0
0.64477 0.00141909 0
0.678187 0.00149538 0
0.678187 0.00149538 0
0.678187 0.00149538 0
0 0.0965744 0.015671
0 0.0839246 0.0195163
0.0729839 0.0895247 0.0421759
0.409979 0.118242 0
0.664744 0.063508 0
0.730098 0.0387732 0
0.748974 0.0662852 0
0.744793 0.0426184 0
0.739086 0.0147555 0
0.0287633 0.27248 0
0.0128939 0.226886 0
0.0234684 0.25359 0
0.256107 0.281392 0
0.712901 0.322286 0
0.831067 0.321813 0
0.84889 0.312993 0
0.831647 0.274037 0
0.823835 0.255055 0
0.130419 0.475624 0
0.116548 0.436881 0
0.130358 0.475425 0
0.147189 0.523308 0
0.63415 0.603449 0
0.916869 0.618341 0
0.964355 0.617304 0
0.958068 0.586374 0
0.937758 0.531258 0
0.160204 0.56199 0
0.156146 0.549691 0
0.162692 0.569726 0
0.204791 0.714183 0
0.191806 0.668894 0
0.886122 0.798978 0
0.978363 0.788479 0
0.978408 0.775219 0
0.978485 0.757519 0
0.171023 0.597787 0
0.168902 0.589654 0
0.167483 0.584894 0
0.204334 0.712566 0
0.462608 0.764508 0
0.238834 0.77557 0
0.978424 0.870329 0
0.978347 0.852003 0
0.978347 0.84712 0
0.169238 0.620005 0
0.169238 0.620005 0
0.168765 0.62182 0
0.202716 0.706966 0
0.505013 0.772915 0
0.463783 0.782528 0
0.498222 0.776364 0
0.978531 0.887144 0
0.978485 0.880949 0
0.169238 0.620005 0
0.169238 0.620005 0
0.169238 0.620005 0
0.195941 0.683314 0
0.41294 0.798047 0
0.7037 0.817014 0
0.483268 0.77847 0
0.648661 0.801007 0
0.978561 0.889967 0
0.0268711 0.0299382 0.0546883
0.0401465 0.0344091 0.0535286
0.175784 0.0529793 0.0417182
0.434256 0.00106813 0
0.596475 0.00131228 0
0.669398 0.00146487 0
0.685679 0.00151064 0
0.684306 0.00151064 0
0.682399 0.00149538 0
0.0209354 0.0422675 0.0516823
0.0322423 0.0404669 0.0488136
0.120623 0.0540322 0.0405127
0.374609 0.0379187 0
0.555428 0.00122072 0
0.644236 0.00141909 0
0.678187 0.00149538 0
0.678187 0.00149538 0
0.678187 0.00149538 0
0 0.0972305 0.0230106
0 0.0816968 0.0201877
0.0741741 0.0865187 0.0450141
0.42121 0.109514 0
0.634501 0.0749676 0
0.718379 0.0426032 0
0.749508 0.0696422 0
0.742901 0.0318151 0
0.737041 0.0119478 0
0.025803 0.264439 0
0.0111696 0.221149 0
0.0194858 0.239597 0
0.259449 0.270695 0
0.706233 0.309972 0
0.822309 0.29778 0
0.846723 0.30811 0
0.842054 0.297581 0
0.834669 0.280949 0
0.128389 0.469932 0
0.114549 0.431296 0
0.126101 0.463523 0
0.200275 0.574914 0
0.638346 0.593393 0
0.912016 0.60798 0
0.958679 0.600488 0
0.947631 0.558419 0
0.93341 0.519341 0
0.15964 0.560265 0
0.155459 0.547631 0
0.159548 0.559976 0
0.202319 0.705562 0
0.286 0.742702 0
0.88809 0.794873 0
0.978378 0.784192 0
0.978439 0.767346 0
0.978546 0.745251 0
0.170672 0.596201 0
0.16849 0.588281 0
0.167132 0.583764 0
0.201495 0.702693 0
0.586175 0.767132 0
0.476555 0.76553 0
0.978408 0.868055 0
0.978347 0.850004 0
0.978317 0.843976 0
0.169238 0.620005 0
0.169238 0.620005 0
0.168872 0.621027 0
0.200961 0.700862 0
0.491279 0.773373 0
0.71664 0.818265 0
0.587915 0.786252 0
0.978531 0.886427 0
0.978469 0.88011 0
0.169238 0.620005 0
0.169238 0.620005 0
0.169238 0.620005 0
0.19382 0.676921 0
0.370626 0.800473 0
0.734524 0.826734 0
0.705653 0.817639 0
0.731777 0.825864 0
0.978546 0.889937 0
0.014435 0 0.213779
0.0316014 0 0.198734
0.172335 0.0242924 0.173754
0.438773 0 0.152056
0.611154 0 0.140154
0.686732 0 0.13315
0.704143 0 0.123903
0.702373 0 0.106035
0.700679 0 0.0893873
0.00907912 0.0264744 0.162753
0.0130465 0.0322728 0.149569
0.115297 0.0501259 0.1252
0.369543 0.000122072 0.0930343
0.568734 0 0.0644846
0.662898 1.5259e-05 0.0436866
0.696956 7.62951e-05 0.0271305
0.696452 0.000122072 0.00984207
0.696284 0.00015259 0
0.00158694 0.101976 0.143114
0.0010071 0.0851759 0.116762
0.0784772 0.0975814 0.11075
0.389899 0.104677 0.0728618
0.643641 0.00703441 0.00381476
0.731762 0.000198367 0
0.757855 0.00552377 0
0.754238 0.00363165 0
0.74995 0.000183108 0
0 0.303151 0.010132
0 0.247333 0
0.00341802 0.267002 0
0.280156 0.285237 0.0203861
0.730144 0.307469 0
0.82707 0.309911 0
0.860487 0.328115 0
0.854963 0.311025 0
0.841596 0.281895 0
0.0854658 0.514305 0
0.0850843 0.465965 0
0.106508 0.488136 0
0.313924 0.578042 0
0.660731 0.608392 0
0.911147 0.601556 0
0.952758 0.580316 0
0.950835 0.561822 0
0.946517 0.550332 0
0.121569 0.589822 0
0.145129 0.562631 0
0.159274 0.56051 0
0.201068 0.701152 0
0.613718 0.727123 0
0.889891 0.790402 0
0.978378 0.780346 0
0.978469 0.759319 0
0.978622 0.731044 0
0.125872 0.621256 0
0.16875 0.589212 0
0.166857 0.58291 0
0.199237 0.694774 0
0.57319 0.763806 0
0.650828 0.785702 0
0.978408 0.865873 0
0.978332 0.848142 0
0.978332 0.841199 0
0.169238 0.620005 0
0.169238 0.620005 0
0.169162 0.619623 0
0.19942 0.695476 0
0.479988 0.774319 0
0.819852 0.850446 0
0.716228 0.819394 0
0.978531 0.88574 0
0.978485 0.879332 0
0.169238 0.620005 0
0.169238 0.620005 0
0.169238 0.620005 0
0.191852 0.67129 0
0.33225 0.798962 0
0.721126 0.822477 0
0.904005 0.877043 0
0.816754 0.853758 0
0.978561 0.889891 0
0.0261997 0 0.390875
0.0259861 0 0.38764
0.185626 0 0.38114
0.465324 0 0.384329
0.641825 0 0.397635
0.71873 0 0.403784
0.737179 0 0.399344
0.735012 0 0.384482
0.732616 0 0.368688
0.0248722 0 0.370809
0.0241245 0 0.359579
0.116533 0 0.345861
0.384161 0 0.327398
0.593973 0 0.328923
0.692119 0 0.33106
0.727275 0 0.32987
0.725017 0 0.312062
0.72256 0 0.293416
0.0217288 0.0379797 0.371252
0.0208286 0.0163729 0.333349
0.0364691 0.0831311 0.361288
0.395987 0.0853285 0.349111
0.665278 0 0.346563
0.75433 0 0.352377
0.779355 0 0.353079
0.774853 0 0.329595
0.768338 0 0.303319
0.000564584 0.303227 0.415137
0.00205997 0.252827 0.354086
0.000335698 0.268605 0.363638
0.297261 0.313664 0.329854
0.698543 0.309453 0.296315
0.815412 0.29247 0.287953
0.847547 0.305379 0.283436
0.842649 0.284871 0.260609
0.831617 0.253376 0.234058
0 0.526787 0.35288
0 0.497139 0.242557
0 0.521248 0.19855
0.0467842 0.645365 0.0722057
0.631617 0.59939 0.169055
0.89865 0.586679 0.0100404
0.93521 0.58053 0.0286412
0.943511 0.573632 0
0.938033 0.549538 0
0 0.61416 0.274311
0 0.615091 0.145647
0.0120546 0.615427 0.0855879
0.0967575 0.74522 0
0.631815 0.739727 0
0.886122 0.798932 0
0.978347 0.793179 0
0.978439 0.766384 0
0.978515 0.747906 0
0 0.649912 0.207156
0.00956741 0.649287 0.101457
0.0374762 0.643427 0.0489204
0.109834 0.735241 0
0.544579 0.773678 0
0.872587 0.854826 0
0.978454 0.875731 0
0.978363 0.856886 0
0.978332 0.846326 0
0 0.673243 0.150042
0.0226139 0.675196 0.0842603
0.0471199 0.671946 0.0414893
0.0985122 0.739605 0
0.451896 0.798337 0
0.806973 0.850187 0
0.85069 0.860502 0
0.978546 0.888151 0
0.978485 0.881621 0
0.0324559 0.674647 0.0665904
0.0452277 0.673487 0.0449683
0.0766766 0.666087 0
0.110811 0.707195 0
0.239124 0.801724 0
0.702861 0.817823 0
0.951583 0.888731 0
0.885679 0.868269 0
0.978546 0.888991 0
0.0320287 0 0.478691
0.0322118 0 0.481529
0.17406 0 0.4925
0.486 0 0.512016
0.667674 0 0.533959
0.746471 0 0.548287
0.765866 0 0.550637
0.763928 0 0.543023
0.762097 0 0.535744
0.0325322 0 0.486473
0.0320287 0 0.478706
0.0804456 0 0.477317
0.399542 0 0.478782
0.620768 0 0.49604
0.721843 0 0.510124
0.75819 0 0.516564
0.756146 0 0.506752
0.75375 0 0.496223
0.0349432 0 0.522377
0.0333867 0 0.499153
0.0352636 0.00782788 0.525307
0.411597 0.0166629 0.541329
0.694316 0 0.559411
0.785031 0 0.573159
0.810925 0 0.580926
0.806653 0 0.565347
0.800412 0 0.546456
0.0165713 0.302159 0.627268
0.0182193 0.244404 0.580026
0.0184939 0.260197 0.604166
0.276295 0.322118 0.611856
0.702174 0.322438 0.603769
0.82385 0.301595 0.600137
0.857755 0.312245 0.602182
0.85478 0.293629 0.58587
0.845289 0.259693 0.563821
0 0.513359 0.681559
0 0.478202 0.634134
0 0.488731 0.634073
0 0.576989 0.629297
0.652415 0.642893 0.603616
0.879545 0.626474 0.577539
0.92958 0.609522 0.559686
0.93547 0.593805 0.536919
0.928054 0.563226 0.514626
0 0.583276 0.681056
0 0.575494 0.627466
0 0.569604 0.594171
0 0.689982 0.555306
0.636652 0.886046 0.479469
0.839445 0.816052 0.496986
0.968917 0.791333 0.421042
0.981659 0.781979 0.415839
0.979889 0.764126 0.374502
0 0.607324 0.65481
0 0.60473 0.596292
0 0.604425 0.550134
0 0.698299 0.486793
0.419303 0.958328 0.35082
0.827497 0.854047 0.38674
0.945754 0.868925 0.356451
0.9794 0.842405 0.0966812
0.979034 0.832212 0.060914
0 0.62858 0.598703
0 0.632807 0.53669
0 0.634775 0.477852
0 0.711254 0.409628
0.000564584 0.88397 0.201007
0.756497 0.850782 0.319142
0.934203 0.875196 0.243397
0.980499 0.878279 0.204044
0.978439 0.87245 0
0 0.63476 0.51046
0 0.638041 0.479072
0 0.650752 0.363684
0 0.699687 0.298528
0.00114443 0.845182 0.158618
0.683436 0.847318 0.271153
0.898924 0.865232 0.171969
0.928527 0.884047 0.316213
0.979629 0.874388 0.113252
0.0358434 0 0.535943
0.0360113 0 0.538399
0.166629 0 0.553277
0.503365 0 0.582071
0.69395 0 0.605417
0.770581 0 0.618814
0.790372 0 0.624125
0.788174 0 0.62034
0.786038 0 0.616617
0.0366674 0 0.54815
0.0361334 0 0.540215
0.0518044 0 0.543252
0.402625 0 0.555779
0.641169 0 0.579721
0.745449 0 0.597269
0.781735 0 0.60737
0.77969 0 0.602426
0.77789 0 0.596887
0.0396735 0 0.593133
0.0385138 0 0.575845
0.0398413 0 0.601999
0.417762 0.0157015 0.629572
0.712413 0 0.650523
0.804944 0 0.663996
0.831266 0 0.673335
0.82858 0 0.664912
0.823728 0 0.653956
0.0229191 0.292653 0.711467
0.0259098 0.230182 0.676982
0.0258183 0.250858 0.701762
0.250141 0.325689 0.723888
0.70782 0.325673 0.726207
0.834394 0.301946 0.727657
0.869032 0.310933 0.731762
0.867308 0.292592 0.722316
0.859068 0.255619 0.706844
0.00915541 0.515663 0.78761
0.0110781 0.48188 0.764446
0.0107881 0.489967 0.771282
0.00282292 0.568673 0.802152
0.640848 0.645502 0.798917
0.873335 0.634684 0.78677
0.928756 0.61532 0.775357
0.936477 0.600824 0.761715
0.929808 0.570718 0.747189
0.000213626 0.58529 0.80528
0 0.576715 0.785977
0 0.570718 0.774685
0 0.667094 0.800671
0.393713 0.816709 0.772549
0.850721 0.84358 0.78117
0.958755 0.829618 0.762249
0.979995 0.814008 0.739055
0.977081 0.795193 0.722683
0 0.608103 0.801923
0 0.601373 0.783658
0 0.598596 0.769787
0 0.670726 0.782055
0.00273136 0.845045 0.712947
0.84773 0.936492 0.719997
0.931792 0.915022 0.727367
0.989334 0.900984 0.67219
0.989258 0.896513 0.669566
0 0.624338 0.787808
0 0.623728 0.76849
0 0.620356 0.749187
0 0.675685 0.749081
0 0.807172 0.690288
0.780636 0.984131 0.658732
0.920485 0.927398 0.67422
0.979049 0.934417 0.668116
0.985107 0.913359 0.557763
0 0.625071 0.759838
0 0.62536 0.749874
0 0.624659 0.710994
0 0.655573 0.6972
0 0.774929 0.648875
0.630838 0.999725 0.578912
0.877852 0.91809 0.624659
0.972747 0.930419 0.613642
0.986725 0.929808 0.609049
0.0372778 0 0.557458
0.0378882 0 0.5664
0.166857 0 0.586831
0.513863 0 0.620203
0.718807 0 0.648692
0.79971 0 0.667597
0.820172 0 0.678294
0.820172 0 0.678294
0.820172 0 0.678294
0.0390478 0 0.583734
0.0388342 0 0.580591
0.0563058 0 0.588525
0.413413 0 0.61146
0.674861 0 0.641062
0.783612 0 0.66215
0.819989 0 0.677989
0.815656 0 0.671168
0.811551 0 0.664286
0.0398718 0.0198215 0.631586
0.0414435 0 0.619684
0.0347143 0.118624 0.668254
0.420859 0.201633 0.708049
0.726345 0.15967 0.715679
0.819486 0.125093 0.722347
0.847852 0.170138 0.733761
0.840589 0.106355 0.719997
0.836286 0.025391 0.70631
0.0225223 0.330037 0.752224
0.0259556 0.266316 0.723461
0.0254063 0.292775 0.74873
0.209476 0.366201 0.773098
0.711574 0.372335 0.780682
0.846632 0.351705 0.780941
0.883314 0.355535 0.784588
0.881895 0.333608 0.777203
0.874159 0.295918 0.765057
0.0116274 0.517983 0.818067
0.0136568 0.483452 0.805295
0.0135348 0.492302 0.814084
0.00862135 0.566964 0.850874
0.625986 0.642847 0.86009
0.869078 0.634989 0.852811
0.928878 0.613321 0.84773
0.938231 0.598276 0.840681
0.932204 0.568963 0.830488
0.00428778 0.585855 0.837583
0.00483711 0.579812 0.833844
0.00534066 0.573587 0.829679
0 0.662028 0.866712
0.36965 0.793149 0.871504
0.84065 0.842908 0.891829
0.953246 0.832929 0.884352
0.978225 0.817258 0.871778
0.976013 0.799619 0.862562
0.00122072 0.609598 0.846006
0.0011902 0.604593 0.839017
0.00129702 0.599863 0.83328
0 0.666926 0.858915
0 0.824002 0.853361
0.74461 0.929 0.859617
0.940322 0.929458 0.87837
0.991516 0.925704 0.866499
0.994751 0.919326 0.855543
0 0.625879 0.845777
0 0.625269 0.840803
0 0.622065 0.833356
0 0.671229 0.849165
0 0.786831 0.849332
0.615366 0.943252 0.831754
0.920928 0.957671 0.850919
0.976364 0.96025 0.859663
0.995453 0.954498 0.830442
0 0.626734 0.837278
0 0.626825 0.833814
0 0.626368 0.822141
0 0.648569 0.82472
0 0.756329 0.833906
0.424857 0.915587 0.803388
0.891432 0.970871 0.809827
0.969848 0.962432 0.837171
0.99556 0.96556 0.836179
0.0372778 0 0.557458
0.0378576 0 0.565942
0.154772 0 0.585885
0.504173 0 0.619379
0.714092 0 0.647822
0.798199 0 0.667048
0.820172 0 0.678294
0.820172 0 0.678294
0.820172 0 0.678294
0.0389258 0 0.581903
0.0385901 0 0.576928
0.0390326 0 0.583505
0.400839 0 0.610346
0.668315 0 0.64004
0.781186 0 0.661494
0.820172 0 0.678294
0.820172 0 0.678294
0.820172 0 0.678294
0.0405432 0.00775158 0.628779
0.0413825 0 0.618616
0.0352636 0.108156 0.663584
0.405539 0.197879 0.705882
0.720256 0.167468 0.717327
0.817914 0.140414 0.724575
0.850111 0.188876 0.738964
0.848188 0.173785 0.735058
0.844236 0.149218 0.728954
0.0228733 0.324712 0.750881
0.0256962 0.272892 0.72784
0.0249943 0.301732 0.753613
0.170886 0.385412 0.783352
0.708309 0.40737 0.796567
0.852201 0.391272 0.797238
0.892302 0.398657 0.802274
0.894804 0.392737 0.800427
0.88983 0.369818 0.793591
0.011841 0.51809 0.821134
0.0137636 0.486427 0.810468
0.0136721 0.497581 0.822721
0.00856031 0.575784 0.862181
0.603662 0.6542 0.874281
0.864942 0.656214 0.872557
0.931655 0.636652 0.869886
0.944595 0.626215 0.867567
0.940139 0.602411 0.861402
0.00477607 0.588067 0.844648
0.00567636 0.57937 0.840406
0.00657664 0.572885 0.839551
0 0.660975 0.881239
0.324834 0.786755 0.892042
0.823575 0.838651 0.918196
0.94612 0.832807 0.915068
0.976944 0.81593 0.910948
0.975402 0.797742 0.905974
0.00204471 0.611429 0.85478
0.00247196 0.607919 0.853284
0.00271611 0.605982 0.852552
0 0.668727 0.879759
0 0.815427 0.889128
0.730327 0.910475 0.919081
0.932738 0.929198 0.929824
0.989136 0.927108 0.927977
0.993851 0.921172 0.923156
0 0.633402 0.86389
0 0.627573 0.859724
0.000244144 0.622477 0.856474
0 0.670268 0.876234
0 0.77937 0.892882
0.588037 0.918242 0.902815
0.892989 0.96672 0.899901
0.98204 0.966598 0.926543
0.998276 0.965866 0.921782
0 0.631632 0.861418
0 0.630137 0.859907
0 0.626841 0.855161
0 0.644953 0.862119
0 0.75082 0.886168
0.382849 0.890806 0.883207
0.823758 0.970916 0.887053
0.964782 0.971786 0.919753
0.99646 0.97641 0.920531
0.0372778 0 0.557458
0.0378271 0 0.565545
0.143893 0 0.585061
0.495018 0 0.618448
0.70988 0 0.646998
0.796521 0 0.666423
0.820172 0 0.678294
0.820172 0 0.678294
0.820172 0 0.678294
0.0387884 0 0.579843
0.0383307 0 0.573022
0.0387732 0 0.579797
0.388907 0 0.609262
0.662181 0 0.639139
0.778775 0 0.660746
0.819562 0 0.677821
0.820172 0 0.678294
0.820172 0 0.678294
0.0411688 0 0.626047
0.0412909 0 0.617426
0.0359808 0.0952621 0.658778
0.389715 0.192905 0.703075
0.712459 0.162829 0.715206
0.814328 0.131411 0.722179
0.84802 0.179461 0.736507
0.84715 0.167391 0.733486
0.843091 0.142138 0.727199
0.0233616 0.316579 0.748043
0.0261234 0.265217 0.724437
0.0254215 0.292988 0.749218
0.143511 0.376623 0.779583
0.69836 0.400107 0.793927
0.84802 0.383581 0.794614
0.889967 0.390616 0.799847
0.893523 0.386816 0.798657
0.888518 0.363714 0.791775
0.0121462 0.513695 0.819669
0.014023 0.481468 0.808621
0.0140536 0.491218 0.820996
0.00935378 0.567834 0.859541
0.589364 0.646052 0.871855
0.860121 0.649409 0.870695
0.929259 0.630213 0.868132
0.943496 0.620371 0.866041
0.938903 0.596094 0.859709
0.00489815 0.586847 0.844038
0.00584421 0.577996 0.839933
0.00682078 0.571283 0.839429
0 0.655848 0.87985
0.279957 0.782162 0.890959
0.817258 0.833906 0.917342
0.942992 0.829755 0.915389
0.975738 0.813382 0.912688
0.974929 0.796811 0.909102
0.00210575 0.61088 0.854536
0.00254826 0.607385 0.853071
0.0027924 0.60528 0.852232
0 0.665553 0.879393
0 0.810117 0.892149
0.718914 0.905806 0.92256
0.926772 0.926436 0.934417
0.986862 0.925185 0.93489
0.992691 0.918776 0.933227
0 0.633646 0.864393
0 0.627787 0.861295
0.000396735 0.623652 0.859281
0 0.669413 0.879118
0 0.775723 0.898451
0.570382 0.911788 0.912184
0.877791 0.962768 0.921767
0.979217 0.966384 0.94229
0.997345 0.965393 0.940627
0 0.633646 0.864393
0 0.633646 0.864393
0 0.633646 0.864393
0 0.644099 0.870039
0 0.748852 0.89752
0.348119 0.883192 0.899016
0.805463 0.961181 0.922911
0.960586 0.973846 0.937148
0.998154 0.978866 0.943694
