creator/6-Editing/New LUTS/2-LOG-Looks/iPhone/Base-Normalization.cube
TITLE "Generated by Resolve"
LUT_3D_SIZE 33
0.0272679 0.0278325 0.0320897
0.0272679 0.0278325 0.0320897
0.0299382 0.0293889 0.034287
0.0382086 0.0313115 0.0350195
0.0431067 0.0333104 0.0353094
0.0619516 0.0362097 0.0349737
0.0835584 0.042771 0.034226
0.122484 0.0479438 0.0305028
0.174212 0.0523537 0.0179751
0.232319 0.0543984 0
0.30518 0.0515145 0
0.374014 0.0406806 0
0.430365 0.00244144 0
0.480583 0.00105287 0
0.525048 0.00115969 0
0.560342 0.00123598 0
0.588678 0.00129702 0
0.612634 0.00134279 0
0.632288 0.00138857 0
0.648295 0.00141909 0
0.661631 0.00144961 0
0.672053 0.00148013 0
0.678187 0.00149538 0
0.678187 0.00149538 0
0.678187 0.00149538 0
0.678187 0.00149538 0
0.678187 0.00149538 0
0.678187 0.00149538 0
0.678187 0.00149538 0
0.678187 0.00149538 0
0.678187 0.00149538 0
0.678187 0.00149538 0
0.678187 0.00149538 0
0.0272679 0.0278325 0.0320897
0.0272679 0.0278325 0.0320897
0.0290227 0.0289464 0.0337072
0.036286 0.030808 0.0348516
0.0400092 0.0326238 0.0353399
0.0546426 0.03505 0.0351873
0.0768597 0.0405585 0.0347448
0.106615 0.0465095 0.0321965
0.157931 0.0509804 0.023621
0.211002 0.0537423 0
0.28098 0.0533455 0
0.352728 0.0452583 0
0.412818 0.0173953 0
0.46421 0.00120546 0
0.511543 0.00112917 0
0.549523 0.00120546 0
0.579355 0.00128176 0
0.604425 0.00132753 0
0.625925 0.00137331 0
0.643183 0.00141909 0
0.657038 0.00144961 0
0.668772 0.00146487 0
0.677104 0.00149538 0
0.678187 0.00149538 0
0.678187 0.00149538 0
0.678187 0.00149538 0
0.678187 0.00149538 0
0.678187 0.00149538 0
0.678187 0.00149538 0
0.678187 0.00149538 0
0.678187 0.00149538 0
0.678187 0.00149538 0
0.678187 0.00149538 0
0.0272374 0.0279393 0.0321508
0.0272679 0.0278325 0.0320897
0.0272679 0.0278325 0.0320897
0.0330968 0.0301671 0.0347448
0.0396582 0.0325475 0.0353552
0.0542916 0.0350042 0.0351873
0.0727092 0.0392767 0.0349432
0.0958419 0.0450904 0.0331579
0.142809 0.0495766 0.0280308
0.193927 0.0531319 0.00517281
0.258305 0.0542306 0
0.332341 0.0485237 0
0.396277 0.0315404 0
0.449302 0.00154116 0
0.497795 0.00109865 0
0.539437 0.0011902 0
0.571359 0.00125124 0
0.597452 0.00131228 0
0.619715 0.00135805 0
0.638361 0.00140383 0
0.653239 0.00143435 0
0.665583 0.00146487 0
0.6748 0.00148013 0
0.678187 0.00149538 0
0.678187 0.00149538 0
0.678187 0.00149538 0
0.678187 0.00149538 0
0.678187 0.00149538 0
0.678187 0.00149538 0
0.678187 0.00149538 0
0.678187 0.00149538 0
0.678187 0.00149538 0
0.678187 0.00149538 0
0.0252384 0.0345617 0.0352026
0.0257877 0.0336309 0.03505
0.0260624 0.0331731 0.0349737
0.0280461 0.0330968 0.035935
0.0382849 0.0344244 0.0365454
0.0456245 0.0360571 0.036347
0.0731518 0.0399481 0.0351873
0.102419 0.0459602 0.0325628
0.145739 0.0498512 0.0271763
0.187106 0.0528572 0.00961318
0.241459 0.0546731 0
0.312032 0.0507668 0
0.378912 0.0396277 0
0.433768 0.00189212 0
0.48394 0.00106813 0
0.527642 0.00115969 0
0.562417 0.00123598 0
0.590265 0.00129702 0
0.613764 0.00134279 0
0.633204 0.00138857 0
0.649058 0.00143435 0
0.662165 0.00144961 0
0.672435 0.00148013 0
0.678187 0.00149538 0
0.678187 0.00149538 0
0.678187 0.00149538 0
0.678187 0.00149538 0
0.678187 0.00149538 0
0.678187 0.00149538 0
0.678187 0.00149538 0
0.678187 0.00149538 0
0.678187 0.00149538 0
0.678187 0.00149538 0
0.0185245 0.0420233 0.0340124
0.0189364 0.0413367 0.0339818
0.0198062 0.0404364 0.0342565
0.0186923 0.0416114 0.0339055
0.0297246 0.0410315 0.0370336
0.0407568 0.0413977 0.0386664
0.0644236 0.0438239 0.0381323
0.0922103 0.0505837 0.0359045
0.151369 0.0544747 0.0282597
0.210956 0.0569009 0.000656138
0.274846 0.0574655 0
0.336187 0.0536049 0
0.391485 0.0440986 0
0.440055 0.0135653 0
0.486244 0.00106813 0
0.527581 0.00115969 0
0.559289 0.00123598 0
0.585245 0.00128176 0
0.608698 0.00134279 0
0.628489 0.00138857 0
0.64477 0.00141909 0
0.658549 0.00144961 0
0.669779 0.00148013 0
0.677943 0.00149538 0
0.678187 0.00149538 0
0.678187 0.00149538 0
0.678187 0.00149538 0
0.678187 0.00149538 0
0.678187 0.00149538 0
0.678187 0.00149538 0
0.678187 0.00149538 0
0.678187 0.00149538 0
0.678187 0.00149538 0
0.0157626 0.0466163 0.0344549
0.0171664 0.0454719 0.0347601
0.0174258 0.0449378 0.0346685
0.0176089 0.0444648 0.0345617
0.0163882 0.0461128 0.0345922
0.0368963 0.0466011 0.0362707
0.0532235 0.0494545 0.0409857
0.0848707 0.0552377 0.0388495
0.126452 0.0618601 0.034287
0.202197 0.0653391 0.0113069
0.288228 0.0660105 0
0.377172 0.0592355 0
0.442481 0.0441444 0
0.490837 0.0104982 0
0.532036 0.00129702 0
0.568429 0.00125124 0
0.598489 0.00131228 0
0.62298 0.00137331 0
0.643275 0.00141909 0
0.659739 0.00144961 0
0.67219 0.00148013 0
0.681834 0.00149538 0
0.689235 0.00151064 0
0.694209 0.0015259 0
0.693996 0.0015259 0
0.690867 0.0015259 0
0.687617 0.00151064 0
0.683986 0.00151064 0
0.679988 0.00149538 0
0.678721 0.00149538 0
0.678187 0.00149538 0
0.678187 0.00149538 0
0.678187 0.00149538 0
0.00321965 0.0569772 0.0308232
0.00633249 0.0543679 0.0320439
0.00869764 0.0523995 0.0328985
0.00988785 0.0514229 0.0331579
0.0149233 0.0521859 0.0335241
0.00460822 0.0558175 0.0313725
0.0402228 0.0545968 0.0356909
0.076173 0.0583963 0.0420844
0.109667 0.065568 0.0393225
0.178286 0.0707103 0.026688
0.258244 0.0769818 0
0.362997 0.076051 0
0.453635 0.0663005 0
0.518746 0.0397498 0
0.569116 0.00282292 0
0.604349 0.00135805 0
0.629358 0.00138857 0
0.649638 0.00143435 0
0.667338 0.00146487 0
0.682261 0.00149538 0
0.694255 0.0015259 0
0.703914 0.00154116 0
0.711391 0.00157168 0
0.716884 0.00157168 0
0.717784 0.00157168 0
0.71603 0.00157168 0
0.714199 0.00157168 0
0.712383 0.00157168 0
0.710323 0.00155642 0
0.708339 0.00155642 0
0.706218 0.00155642 0
0.704158 0.00155642 0
0.701854 0.00154116 0
0 0.0755932 0.0225681
0 0.0723583 0.0238804
0 0.0699474 0.0248722
0 0.0677043 0.025803
0 0.0674144 0.0265965
0 0.0712444 0.0246128
0 0.0756847 0.0229496
0.0476387 0.0707408 0.0320897
0.0986648 0.0756847 0.0432136
0.156207 0.0818647 0.0352941
0.234714 0.0871138 0.00578317
0.328115 0.0901503 0
0.432715 0.0874647 0
0.514397 0.0743572 0
0.578317 0.0407568 0
0.622568 0.00955215 0
0.652888 0.00531014 0
0.673991 0.00309758 0
0.689418 0.00196841 0
0.701518 0.00187686 0
0.711711 0.00244144 0
0.72076 0.00408942 0
0.727687 0.00697337 0
0.733303 0.00891127 0
0.734737 0.0087892 0
0.733654 0.00730907 0
0.73257 0.00576791 0
0.731212 0.00387579 0
0.729229 0.00228885 0
0.72752 0.0016022 0
0.726085 0.0016022 0
0.724483 0.00158694 0
0.72282 0.00158694 0
0 0.0965744 0.015671
0 0.090486 0.017731
0 0.0879988 0.0184024
0 0.0857404 0.019028
0 0.0839246 0.0195163
0 0.0876326 0.0191806
0 0.0915084 0.0176242
0 0.0962387 0.0168917
0.0729839 0.0895247 0.0421759
0.135622 0.0992905 0.0419471
0.214923 0.106264 0.0160067
0.304601 0.115114 0
0.409979 0.118242 0
0.501076 0.115755 0
0.572747 0.104189 0
0.629587 0.0838026 0
0.664744 0.063508 0
0.689555 0.0446174 0
0.707591 0.0331884 0
0.720653 0.0335699 0
0.730098 0.0387732 0
0.737514 0.0497597 0
0.743282 0.0588388 0
0.748928 0.0666972 0
0.748974 0.0662852 0
0.748196 0.061799 0
0.747234 0.0563973 0
0.74609 0.0498054 0
0.744793 0.0426184 0
0.743374 0.0345159 0
0.742031 0.0267033 0
0.740459 0.0180056 0
0.739086 0.0147555 0
0 0.129854 0
0 0.116228 0.00552377
0 0.111971 0.00769055
0 0.108278 0.00950637
0 0.104875 0.0112154
0 0.10901 0.0100252
0 0.114183 0.00700389
0 0.12314 0.00183108
0 0.131319 0
0.0972763 0.115984 0.0470741
0.198596 0.125063 0.0304265
0.284443 0.135973 0
0.389838 0.145388 0
0.493675 0.149508 0
0.569055 0.148043 0
0.631571 0.141024 0
0.676661 0.132845 0
0.705486 0.124208 0
0.726528 0.119341 0
0.740764 0.119661 0
0.751141 0.120363 0
0.758831 0.123629 0
0.764462 0.128923 0
0.767208 0.131167 0
0.766278 0.12845 0
0.765438 0.126146 0
0.764691 0.12401 0
0.763943 0.121889 0
0.763073 0.119371 0
0.761837 0.115908 0
0.760464 0.112047 0
0.758862 0.107622 0
0.757076 0.102617 0
0 0.171542 0
0 0.155947 0
0 0.149783 0
0 0.14432 0
0 0.13933 0
0 0.142458 0
0 0.148409 0
0 0.159197 0
0 0.169116 0
0.000762951 0.176715 0
0.126986 0.159594 0.037232
0.269459 0.16994 0
0.370001 0.181735 0
0.480934 0.188907 0
0.569024 0.192813 0
0.636103 0.190906 0
0.688151 0.187213 0
0.723049 0.183078 0
0.747066 0.17731 0
0.76437 0.174456 0
0.77528 0.174441 0
0.783734 0.176989 0
0.789334 0.181506 0
0.791028 0.181292 0
0.788632 0.17641 0
0.786542 0.17232 0
0.785046 0.16939 0
0.783993 0.167361 0
0.783093 0.165591 0
0.78233 0.164141 0
0.781445 0.162387 0
0.780484 0.160494 0
0.779293 0.15816 0
0.0100557 0.217426 0
0.00482185 0.199115 0
0.00315862 0.19176 0
0.00192264 0.186175 0
0.000732433 0.180743 0
0.000366217 0.179065 0
0.00283818 0.189364 0
0.00534066 0.196201 0
0.00730907 0.208942 0
0.0109712 0.2206 0
0.0148775 0.228244 0
0.179614 0.213367 0.0081178
0.354833 0.233051 0
0.467323 0.244968 0
0.56846 0.25359 0
0.642771 0.256672 0
0.70106 0.255985 0
0.742443 0.255222 0
0.768917 0.252461 0
0.788937 0.249332 0
0.802014 0.24683 0
0.810849 0.245701 0
0.816983 0.246906 0
0.820478 0.247044 0
0.816571 0.237476 0
0.812665 0.228061 0
0.809522 0.220798 0
0.807111 0.215686 0
0.805402 0.211948 0
0.803967 0.208881 0
0.80293 0.206668 0
0.802045 0.204791 0
0.80116 0.202914 0
0.0287633 0.27248 0
0.0211185 0.251423 0
0.01738 0.240803 0
0.0148775 0.233463 0
0.0128939 0.226886 0
0.0111696 0.221149 0
0.0154116 0.23476 0
0.0193332 0.242664 0
0.0234684 0.25359 0
0.0285344 0.270558 0
0.0345312 0.284596 0
0.0436255 0.293217 0
0.256107 0.281392 0
0.454505 0.300801 0
0.565942 0.313054 0
0.647578 0.319997 0
0.712901 0.322286 0
0.760525 0.323262 0
0.792691 0.323217 0
0.814618 0.322347 0
0.831067 0.321813 0
0.841047 0.321309 0
0.847868 0.32108 0
0.851713 0.321584 0
0.84889 0.312993 0
0.843946 0.301854 0
0.83917 0.291096 0
0.835309 0.282383 0
0.831647 0.274037 0
0.828931 0.267491 0
0.826658 0.261982 0
0.825177 0.25832 0
0.823835 0.255055 0
0.0566567 0.331518 0
0.0465095 0.312123 0
0.0404517 0.298802 0
0.0366979 0.290486 0
0.0331273 0.282551 0
0.0298314 0.275151 0
0.0344854 0.286748 0
0.0417945 0.299443 0
0.0498512 0.308705 0
0.0575418 0.32459 0
0.0635843 0.339712 0
0.0759136 0.354559 0
0.0941329 0.3738 0
0.340215 0.362676 0
0.55671 0.378225 0
0.651453 0.388678 0
0.720928 0.39379 0
0.776272 0.395789 0
0.813474 0.396719 0
0.838666 0.395911 0
0.857633 0.396704 0
0.871214 0.399069 0
0.87921 0.39855 0
0.883299 0.396307 0
0.884459 0.392554 0
0.878264 0.377905 0
0.872709 0.365698 0
0.86743 0.354086 0
0.862974 0.34432 0
0.858717 0.334936 0
0.855192 0.327184 0
0.852049 0.320089 0
0.849424 0.314199 0
0.0937057 0.38262 0
0.0871595 0.374899 0
0.0699931 0.355932 0
0.0652171 0.347478 0
0.061387 0.340322 0
0.0575723 0.333211 0
0.0602121 0.338033 0
0.0758831 0.3561 0
0.0864118 0.368872 0
0.0963455 0.384619 0
0.100389 0.395407 0
0.104616 0.4065 0
0.111971 0.424842 0
0.127489 0.467414 0
0.433188 0.450172 0
0.649073 0.463951 0
0.728267 0.471824 0
0.787961 0.476509 0
0.83151 0.478599 0
0.860395 0.477974 0
0.880735 0.476951 0
0.896925 0.478904 0
0.906279 0.47892 0
0.912688 0.477363 0
0.915496 0.474861 0
0.913069 0.46421 0
0.906538 0.446738 0
0.900908 0.431983 0
0.895689 0.41944 0
0.890791 0.407736 0
0.886244 0.396872 0
0.882307 0.387366 0
0.878538 0.378515 0
0.114595 0.431418 0
0.112383 0.425284 0
0.104448 0.40383 0
0.101503 0.39585 0
0.0990921 0.389303 0
0.094255 0.383291 0
0.0898909 0.378088 0
0.104311 0.405127 0
0.111833 0.424369 0
0.11989 0.44622 0
0.124987 0.460426 0
0.125414 0.461601 0
0.129839 0.473976 0
0.138033 0.497093 0
0.173449 0.557717 0
0.535744 0.531136 0
0.727749 0.544717 0
0.797284 0.55053 0
0.845716 0.554284 0
0.878462 0.554925 0
0.901289 0.553109 0
0.918288 0.552453 0
0.930648 0.554574 0
0.938018 0.55407 0
0.942367 0.552316 0
0.94406 0.548577 0
0.939086 0.534936 0
0.933593 0.519829 0
0.928115 0.504753 0
0.922103 0.488426 0
0.916991 0.474769 0
0.91252 0.462776 0
0.908232 0.45124 0
0.130419 0.475624 0
0.128862 0.471229 0
0.121706 0.451255 0
0.118837 0.443275 0
0.116548 0.436881 0
0.114549 0.431296 0
0.11249 0.425559 0
0.121508 0.450706 0
0.130358 0.475425 0
0.138338 0.497932 0
0.147662 0.524636 0
0.148135 0.52604 0
0.147189 0.523308 0
0.151293 0.535271 0
0.161227 0.565133 0
0.319905 0.622019 0
0.63415 0.603449 0
0.795407 0.613046 0
0.854841 0.616953 0
0.891966 0.619333 0
0.916869 0.618341 0
0.935668 0.61709 0
0.949569 0.617105 0
0.958709 0.618357 0
0.964355 0.617304 0
0.96701 0.616297 0
0.966781 0.609735 0
0.962737 0.598871 0
0.958068 0.586374 0
0.953079 0.572992 0
0.947982 0.559319 0
0.942946 0.545571 0
0.937758 0.531258 0
0.142153 0.508827 0
0.141176 0.50602 0
0.136431 0.492546 0
0.133959 0.485557 0
0.131899 0.479759 0
0.130205 0.475029 0
0.128389 0.469932 0
0.134524 0.487175 0
0.144976 0.516915 0
0.152926 0.540093 0
0.163714 0.572915 0
0.170016 0.59324 0
0.165438 0.578378 0
0.163043 0.570779 0
0.167941 0.586419 0
0.179263 0.625132 0
0.409537 0.646113 0
0.716838 0.668879 0
0.853071 0.674037 0
0.90045 0.675975 0
0.92874 0.676097 0
0.948684 0.67451 0
0.963821 0.673671 0
0.972625 0.672938 0
0.976394 0.671122 0
0.97879 0.668193 0
0.978927 0.66482 0
0.977691 0.657511 0
0.976013 0.649729 0
0.97409 0.64062 0
0.972122 0.631006 0
0.969955 0.620432 0
0.966445 0.60882 0
0.150042 0.531624 0
0.149432 0.529809 0
0.146166 0.520348 0
0.144579 0.51574 0
0.143114 0.511543 0
0.141894 0.508049 0
0.140581 0.504326 0
0.142733 0.510445 0
0.154513 0.544808 0
0.162829 0.570153 0
0.172549 0.601785 0
0.183154 0.638697 0
0.184176 0.642267 0
0.17586 0.613275 0
0.17438 0.608103 0
0.179797 0.626993 0
0.194308 0.677592 0
0.482261 0.679957 0
0.783307 0.723995 0
0.899748 0.727565 0
0.936324 0.727077 0
0.958404 0.726116 0
0.973129 0.724224 0
0.977615 0.720897 0
0.978714 0.717723 0
0.978759 0.713176 0
0.97879 0.708873 0
0.978805 0.704021 0
0.978805 0.697993 0
0.978821 0.691829 0
0.978851 0.684459 0
0.978882 0.676783 0
0.978912 0.668132 0
0.155718 0.548424 0
0.155306 0.547143 0
0.153201 0.540902 0
0.151598 0.536187 0
0.150698 0.533516 0
0.149706 0.530632 0
0.148867 0.528176 0
0.147921 0.525429 0
0.159915 0.561105 0
0.168643 0.588724 0
0.177264 0.618189 0
0.18941 0.660533 0
0.197986 0.69041 0
0.192935 0.672831 0
0.183413 0.639612 0
0.183185 0.638788 0
0.190341 0.663752 0
0.227207 0.723857 0
0.559396 0.714214 0
0.839185 0.76643 0
0.935775 0.770153 0
0.964752 0.768475 0
0.976318 0.765698 0
0.978424 0.761151 0
0.978485 0.756848 0
0.9785 0.753323 0
0.978531 0.74931 0
0.978546 0.745251 0
0.978576 0.740124 0
0.978607 0.734859 0
0.978637 0.729458 0
0.978683 0.723217 0
0.978729 0.716564 0
0.160204 0.56199 0
0.159915 0.56109 0
0.159121 0.558709 0
0.156909 0.551965 0
0.156146 0.549691 0
0.155428 0.547539 0
0.154788 0.545602 0
0.154086 0.543511 0
0.162692 0.569726 0
0.172198 0.600565 0
0.180209 0.628458 0
0.19173 0.66862 0
0.204791 0.714183 0
0.237308 0.725628 0
0.198474 0.692134 0
0.190127 0.66302 0
0.191806 0.668894 0
0.200717 0.699977 0
0.348074 0.757382 0
0.640742 0.749722 0
0.886122 0.798978 0
0.963531 0.801816 0
0.977966 0.797131 0
0.978347 0.792309 0
0.978363 0.788479 0
0.978363 0.785153 0
0.978378 0.782452 0
0.978393 0.779278 0
0.978408 0.775219 0
0.978408 0.77113 0
0.978439 0.767071 0
0.978469 0.762585 0
0.978485 0.757519 0
0.163607 0.572549 0
0.163394 0.571908 0
0.162921 0.570413 0
0.161135 0.564858 0
0.160494 0.56289 0
0.15993 0.561166 0
0.159411 0.559579 0
0.158892 0.557977 0
0.163836 0.573266 0
0.174411 0.608194 0
0.182223 0.635447 0
0.192721 0.672084 0
0.20647 0.720027 0
0.29633 0.751949 0
0.27126 0.748989 0
0.203128 0.70837 0
0.196628 0.685695 0
0.200061 0.697673 0
0.210681 0.734707 0
0.450584 0.749264 0
0.714321 0.783658 0
0.923903 0.824537 0
0.97673 0.823407 0
0.978302 0.815946 0
0.978317 0.812573 0
0.978332 0.809735 0
0.978317 0.806821 0
0.978317 0.804395 0
0.978332 0.80148 0
0.978332 0.798566 0
0.978347 0.795514 0
0.978347 0.792645 0
0.978347 0.78941 0
0.166217 0.580819 0
0.166049 0.580331 0
0.165698 0.579187 0
0.164324 0.574807 0
0.16376 0.573022 0
0.163394 0.571878 0
0.162982 0.570596 0
0.1626 0.569421 0
0.162814 0.570092 0
0.175708 0.612726 0
0.183536 0.640009 0
0.193347 0.674266 0
0.206394 0.719768 0
0.298192 0.763485 0
0.411231 0.762829 0
0.282948 0.764187 0
0.207065 0.722072 0
0.202945 0.707744 0
0.207889 0.724971 0
0.252949 0.765423 0
0.49984 0.753719 0
0.774624 0.812802 0
0.951766 0.844984 0
0.978317 0.837995 0
0.978302 0.8318 0
0.978302 0.829358 0
0.978317 0.826871 0
0.978302 0.823987 0
0.978302 0.821744 0
0.978317 0.819883 0
0.978317 0.817533 0
0.978302 0.815244 0
0.978317 0.812818 0
0.168688 0.588937 0
0.168505 0.588327 0
0.168215 0.58732 0
0.166903 0.583062 0
0.1664 0.581399 0
0.166018 0.580224 0
0.165637 0.579034 0
0.165286 0.577874 0
0.165011 0.577005 0
0.175937 0.61355 0
0.184451 0.643244 0
0.193256 0.673915 0
0.205692 0.717327 0
0.26424 0.764599 0
0.440253 0.760922 0
0.449531 0.758755 0
0.281529 0.773404 0
0.210758 0.734951 0
0.209094 0.729168 0
0.215549 0.751598 0
0.341024 0.788281 0
0.554101 0.764904 0
0.826139 0.83505 0
0.970748 0.860456 0
0.978347 0.850233 0
0.978332 0.845182 0
0.978332 0.842756 0
0.978332 0.840253 0
0.978317 0.838331 0
0.978317 0.83714 0
0.978317 0.835477 0
0.978317 0.833631 0
0.978302 0.831785 0
0.171023 0.597787 0
0.170871 0.597131 0
0.170642 0.596048 0
0.169528 0.591745 0
0.168902 0.589654 0
0.168429 0.588052 0
0.168078 0.586892 0
0.167742 0.585748 0
0.167483 0.584894 0
0.175265 0.611215 0
0.184985 0.645106 0
0.193011 0.673106 0
0.204334 0.712566 0
0.218265 0.761166 0
0.42565 0.777691 0
0.480537 0.760021 0
0.462608 0.764508 0
0.276387 0.779324 0
0.215213 0.748653 0
0.216358 0.750393 0
0.238834 0.77557 0
0.447181 0.778866 0
0.612161 0.780774 0
0.868528 0.851972 0
0.978424 0.870329 0
0.978378 0.860502 0
0.978363 0.856092 0
0.978363 0.853727 0
0.978347 0.852003 0
0.978347 0.850629 0
0.978332 0.849805 0
0.978347 0.848493 0
0.978347 0.84712 0
0.172381 0.606897 0
0.172427 0.606424 0
0.172427 0.605371 0
0.172 0.601495 0
0.171191 0.598306 0
0.170794 0.596735 0
0.170535 0.595468 0
0.170245 0.594156 0
0.169955 0.593149 0
0.173693 0.605707 0
0.185519 0.646952 0
0.193103 0.673411 0
0.202991 0.707866 0
0.216098 0.753399 0
0.358785 0.791028 0
0.485847 0.764523 0
0.510155 0.764462 0
0.466789 0.76907 0
0.291936 0.782986 0
0.225193 0.763302 0
0.231708 0.770733 0
0.349172 0.788739 0
0.485924 0.771389 0
0.670039 0.799634 0
0.904082 0.865415 0
0.978469 0.875914 0
0.978408 0.868955 0
0.978408 0.864836 0
0.978378 0.863127 0
0.978378 0.861738 0
0.978378 0.860945 0
0.978378 0.860243 0
0.978378 0.859174 0
0.169741 0.617731 0
0.16997 0.617044 0
0.170336 0.616144 0
0.171344 0.613703 0
0.172351 0.607782 0
0.172427 0.606012 0
0.172381 0.604334 0
0.172381 0.603128 0
0.172122 0.601968 0
0.171908 0.601022 0
0.186007 0.648676 0
0.193729 0.675563 0
0.202136 0.704906 0
0.213962 0.746136 0
0.322011 0.78584 0
0.472801 0.770367 0
0.52903 0.769024 0
0.528481 0.769772 0
0.465156 0.774578 0
0.296635 0.789731 0
0.237507 0.779141 0
0.251759 0.791302 0
0.432761 0.785718 0
0.523827 0.772931 0
0.720699 0.818006 0
0.931807 0.876234 0
0.978485 0.880415 0
0.978439 0.874922 0
0.978424 0.871885 0
0.978439 0.870802 0
0.978424 0.8701 0
0.978424 0.869551 0
0.978408 0.869062 0
0.169238 0.620005 0
0.169238 0.620005 0
0.169238 0.620005 0
0.16907 0.620615 0
0.169421 0.618891 0
0.170138 0.616556 0
0.170825 0.614908 0
0.171466 0.613199 0
0.171984 0.611917 0
