creator/3-Post-Production/Color/LUTS/2-LOG-Looks/Pocket3/Cold-Drama.cube
TITLE "Generated by Resolve"
LUT_3D_SIZE 9
0.025391 0.0273899 0.0318456
0.0453956 0.0315251 0.0338293
0.124773 0.0446784 0.0310063
0.338033 0.0462348 0
0.550469 0 0
0.645945 0 0
0.681453 0 0
0.685969 0 0
0.685969 0 0
0.0196994 0.0472267 0.0413825
0.035462 0.0455482 0.0392309
0.115526 0.0539101 0.0338445
0.291752 0.0580606 0
0.52015 0.00167849 0
0.629816 0.000244144 0
0.675059 0 0
0.685969 0 0
0.685969 0 0
0 0.093431 0.0588083
0.000457771 0.085008 0.0546731
0.06215 0.0877394 0.0485237
0.310765 0.0979324 0.000717174
0.590875 0.0463111 0
0.688746 0.00991836 0
0.723751 0.00979629 0
0.734813 0.0083772 0
0.730388 0.00759899 0
0 0.220676 0.082826
0 0.197436 0.0802472
0.00415045 0.200092 0.0699626
0.166049 0.218494 0.0236667
0.638056 0.220951 0.00180056
0.758938 0.187564 0.00047303
0.790265 0.175128 0
0.790829 0.163348 0
0.785443 0.153368 0
0 0.392813 0.0828412
0 0.371725 0.0842908
0.00192264 0.367086 0.0643626
0.00239567 0.389425 0.0474098
0.446921 0.503044 0.000381476
0.878904 0.478721 0.00230411
0.914046 0.44535 0.002533
0.909438 0.409033 0.00184634
0.884215 0.356008 0.00120546
0 0.482444 0.118685
0 0.475196 0.107469
0.000839246 0.471321 0.0868696
0.00584421 0.485496 0.00541695
0.00291447 0.48687 0.0412299
0.779507 0.75996 0.000259403
0.991958 0.742489 0.00236515
0.998718 0.71754 0.00300603
0.999985 0.685527 0.00311284
0 0.530221 0.225238
0 0.528359 0.220676
0 0.517571 0.193759
0.00283818 0.520592 0.118944
0.0100557 0.564462 0.00540169
0.0053254 0.547066 0.118868
0.96965 0.86836 0.000381476
0.996582 0.846052 0.00215152
1 0.837018 0.00260929
0 0.573663 0.326268
0 0.573404 0.325643
0 0.566842 0.310796
0.002121 0.571618 0.257694
0.00822461 0.59443 0.14551
0.00906386 0.605417 0.143771
0.00825513 0.606729 0.167041
0.988266 0.891661 0.000137331
0.999344 0.882536 0.00166323
0 0.581872 0.34757
0 0.581872 0.34757
0 0.581872 0.34757
0.00114443 0.585107 0.321386
0.00422675 0.591806 0.232151
0.0158236 0.664302 0.00416571
0.00843824 0.61471 0.178683
0.0125582 0.639521 0.072694
0.992752 0.899046 0.000106813
0.0231937 0.0305028 0.0644999
0.0441444 0.0329137 0.0623026
0.139742 0.0472572 0.0523537
0.355062 0.0278477 0.00442512
0.56228 0 0.00250248
0.65182 0 0.00167849
0.685679 0 0.00141909
0.689662 0 0.00112917
0.688487 0 0.00077821
0.0180819 0.0488899 0.0561379
0.0354162 0.0457313 0.0563973
0.105409 0.0540169 0.0482643
0.293507 0.055024 0.00231937
0.523507 0.00103761 0.000946059
0.630488 0 0.000564584
0.675181 0 7.62951e-05
0.685969 0 0
0.685969 0 0
0 0.0926986 0.0697032
0.000106813 0.0831159 0.0605325
0.0687877 0.0856794 0.0494545
0.314458 0.0930648 0.000381476
0.542641 0.0757153 0
0.673411 0.0132448 0
0.721523 0.00953689 0
0.733791 0.00813306 0
0.729015 0.00738537 0
0 0.215488 0.0822766
0 0.193347 0.0795911
0.00505074 0.191669 0.0679026
0.181781 0.212604 0.0213169
0.631739 0.211063 0.00173953
0.753475 0.174289 0.000244144
0.785977 0.17319 0
0.798764 0.178729 0
0.791287 0.164187 0
0 0.38819 0.0830091
0 0.367575 0.0848096
0.00180056 0.361944 0.0670329
0.00941482 0.381613 0.00315862
0.463004 0.493339 0.000442512
0.873182 0.465995 0.00230411
0.907378 0.427604 0.0024567
0.900389 0.389303 0.00164797
0.883345 0.354284 0.0011902
0 0.48069 0.11574
0 0.473579 0.10547
0.000595102 0.468513 0.0893416
0.00543221 0.480797 0.00553903
0.00761425 0.504128 0.00486763
0.788617 0.75494 0.00030518
0.991852 0.73489 0.00236515
0.998718 0.709972 0.00302129
0.999985 0.669673 0.00309758
0 0.528557 0.221149
0 0.52668 0.216571
0 0.516182 0.190188
0.00273136 0.519005 0.118532
0.012665 0.588952 0.0040589
0.0089723 0.562066 0.016968
0.971725 0.866224 0.000442512
0.996475 0.843687 0.00216678
1 0.83473 0.00263981
0 0.573007 0.324697
0 0.572702 0.323995
0 0.56553 0.308034
0.00201419 0.569909 0.257435
0.00779736 0.591043 0.14931
0.0846723 0.679286 0.00297551
0.01149 0.62356 0.0823835
0.988479 0.890501 0.000183108
0.999298 0.881804 0.00167849
0 0.581872 0.34757
0 0.581872 0.34757
0 0.581872 0.34757
0.000946059 0.584421 0.325567
0.00384527 0.589456 0.236164
0.0170291 0.665171 0.00411994
0.0341344 0.680858 0.00367742
0.0226139 0.671321 0.00402838
0.992905 0.898589 0.000122072
0 0.00103761 0.199557
0.0173953 0.000534066 0.205463
0.145113 0.0315251 0.178347
0.386847 0 0.124804
0.58793 0 0.0720989
0.670878 0 0.0299077
0.702312 0 0.00991836
0.705501 0 0.00895705
0.704143 0 0.00807202
0 0.0474403 0.141512
0.00303655 0.0409857 0.148852
0.109178 0.0524453 0.141405
0.324529 0.0287022 0.0928054
0.549004 0.000488289 0.0111086
0.650843 0 0.00825513
0.6916 0 0.00701915
0.700313 0 0.00607309
0.69897 0 0.00527962
0 0.0979782 0.108858
0 0.088014 0.0963302
0.0704356 0.0917983 0.113848
0.285756 0.0998093 0.074876
0.552377 0.0323644 0.00831617
0.689754 0.00865187 0.00700389
0.733211 0.00830091 0.00595102
0.743038 0.00779736 0.00508125
0.736889 0.00700389 0.0043946
0 0.220462 0.139635
0 0.197116 0.123705
0.00677501 0.201083 0.13817
0.19292 0.224872 0.0784619
0.609873 0.200626 0.00740063
0.740459 0.188571 0.00590524
0.791165 0.185946 0.00445563
0.805051 0.183383 0.00332647
0.794156 0.162936 0.00238041
0 0.406683 0.205264
0 0.381628 0.183383
0.0018616 0.375296 0.165408
0.0112459 0.396384 0.062623
0.48777 0.504601 0.00602731
0.870878 0.457481 0.00387579
0.89987 0.40676 0.0033875
0.904601 0.396811 0.00337224
0.898344 0.383154 0.00262455
0 0.507576 0.25713
0 0.494102 0.220035
0.000366217 0.480674 0.178393
0.00555428 0.483787 0.0420996
0.0296788 0.590906 0.0024567
0.800824 0.752483 0.000686656
0.991806 0.728008 0.00239567
0.998795 0.697719 0.00303655
0.998444 0.652308 0.00308232
0 0.543618 0.297185
0 0.539147 0.281239
0 0.515129 0.187594
0.00263981 0.5178 0.118563
0.0122683 0.58323 0.00419623
0.015198 0.626307 0.00314336
0.974517 0.864607 0.000488289
0.996429 0.841642 0.00218204
1 0.831998 0.00267033
0 0.572488 0.323445
0 0.572137 0.322652
0 0.564569 0.305898
0.0019379 0.568521 0.257282
0.00746166 0.588312 0.152514
0.353079 0.726009 0.00177005
0.0292058 0.67042 0.00350958
0.988769 0.889509 0.000228885
0.999252 0.881254 0.00169375
0 0.581872 0.34757
0 0.581872 0.34757
0 0.581872 0.34757
0.00077821 0.58381 0.329168
0.00369268 0.588785 0.239048
0.0146487 0.660014 0.00735485
0.63064 0.814786 0.000610361
0.319493 0.72546 0.00247196
0.993133 0.898192 0.00015259
0 0.00137331 0.393027
0.00341802 0.000503548 0.399435
0.109575 0 0.40911
0.430777 0 0.403006
0.635187 0 0.368399
0.705135 0 0.332052
0.729229 0 0.30103
0.730266 0 0.274037
0.727199 0 0.247807
0 0.00683604 0.345037
0.00140383 0.0053254 0.347799
0.0634012 0.00335698 0.367193
0.354513 0.00146487 0.348821
0.588327 0.000137331 0.29659
0.680797 0 0.252018
0.714611 0 0.215564
0.721035 0 0.186908
0.718425 0 0.161486
0 0.0845502 0.278202
0 0.0710765 0.261219
0.00846876 0.05066 0.309895
0.3178 0.082002 0.332525
0.602655 0.00910964 0.266468
0.714214 0.00839246 0.213352
0.748714 0.00802625 0.175067
0.755886 0.00749218 0.14818
0.748989 0.00666819 0.122133
0 0.231189 0.240253
0 0.205814 0.214023
0.00550851 0.206287 0.241489
0.207492 0.242527 0.283421
0.578882 0.218204 0.205127
0.73051 0.146899 0.122301
0.780514 0.117815 0.0696269
0.795666 0.119142 0.0408789
0.790738 0.0944533 0.0234684
0 0.415869 0.277821
0 0.389899 0.250965
0.00280766 0.390097 0.282078
0.0130465 0.441398 0.322393
0.465934 0.506416 0.167803
0.835691 0.419638 0.0344396
0.884962 0.410636 0.012665
0.909529 0.416434 0.0110018
0.905791 0.397391 0.00999466
0 0.534768 0.398932
0 0.52398 0.372671
9.15541e-05 0.513115 0.34815
0.0078584 0.548379 0.35465
0.0346227 0.622553 0.133928
0.8065 0.769024 0.011841
0.991379 0.734066 0.0109712
0.997986 0.685817 0.0108797
0.997421 0.659373 0.011017
0 0.580514 0.494453
0 0.578332 0.486915
0 0.563745 0.431739
0.0037232 0.57554 0.400046
0.0133059 0.620676 0.255085
0.592294 0.787137 0.00947585
0.979446 0.875486 0.0087892
0.996201 0.848356 0.00801099
1 0.833387 0.00639353
0 0.613367 0.543145
0 0.612619 0.540673
0 0.597864 0.487587
0.00183108 0.602945 0.450111
0.00857557 0.626947 0.346609
0.287587 0.71664 0.0197604
0.482673 0.769863 0.0175937
0.988907 0.893111 0.00572213
0.999207 0.882551 0.00315862
0 0.616434 0.526818
0 0.616403 0.52668
0 0.609995 0.489738
0.000595102 0.607767 0.457084
0.0041352 0.613596 0.353841
0.0145418 0.665934 0.149142
0.757671 0.850248 0.00141909
0.544152 0.79028 0.0387427
0.993347 0.89778 0.000564584
0 0.00170901 0.500526
0.00227359 0.000839246 0.503273
0.0249332 0 0.519478
0.430671 0 0.566354
0.663935 0 0.571099
0.737881 0 0.560739
0.761303 0 0.545739
0.763027 0 0.529641
0.76025 0 0.512871
0 0.00689708 0.493523
0.00128176 0.00540169 0.49189
0.0100099 0.00323491 0.506416
0.332418 0.000854505 0.537179
0.617029 0 0.533272
0.716945 0 0.515282
0.749493 0 0.493538
0.755657 0 0.473777
0.752575 0 0.453758
0 0.0134585 0.472984
0 0.0124208 0.460365
0.00555428 0.0108644 0.48687
0.265049 0.0096437 0.552209
0.645167 0.00888075 0.56202
0.75581 0.00839246 0.529107
0.783444 0.00801099 0.496605
0.787457 0.00738537 0.466987
0.779995 0.00650034 0.436896
0 0.246479 0.462486
0 0.220218 0.439872
0.00236515 0.185931 0.452903
0.0159609 0.213245 0.524483
0.623575 0.232471 0.568032
0.772152 0.168338 0.500526
0.804883 0.140017 0.447395
0.813413 0.133883 0.411658
0.804395 0.0912032 0.380499
0 0.438758 0.443595
0 0.414206 0.416709
0.00148013 0.395056 0.415396
0.0114137 0.429725 0.470115
0.512642 0.539071 0.537682
0.819318 0.484657 0.453986
0.874861 0.424903 0.381491
0.891508 0.406378 0.341222
0.886336 0.380163 0.311101
0 0.547402 0.47393
0 0.536416 0.448768
0 0.524407 0.422797
0.00877394 0.574945 0.512947
0.0432593 0.701335 0.561807
0.752117 0.779965 0.424903
0.959731 0.711238 0.361379
0.971954 0.680232 0.310369
0.974105 0.658076 0.244526
0 0.591806 0.567727
0 0.590402 0.562722
0 0.580636 0.527352
0.00547799 0.615091 0.591455
0.0154879 0.702907 0.597101
0.561975 0.807996 0.393072
0.930694 0.855726 0.25156
0.995636 0.834302 0.0791333
0.999207 0.816358 0.0740368
0 0.625528 0.645777
0 0.62504 0.644358
0 0.616754 0.616053
0.00187686 0.629023 0.629908
0.0106966 0.684108 0.614069
0.117708 0.766674 0.454398
0.845914 0.857801 0.142473
0.988754 0.879667 0.0192569
0.998871 0.875868 0.0134585
0 0.638834 0.663203
0 0.638834 0.663203
0 0.634272 0.640894
0.000366217 0.634943 0.630335
0.00621042 0.675013 0.609949
0.0158999 0.735302 0.491798
0.678706 0.835676 0.251377
0.80087 0.868803 0.299351
0.99321 0.887984 0.0118257
0 0.00199893 0.551507
0.00207523 0.00115969 0.554726
0.0120851 3.0518e-05 0.569497
0.410651 0 0.627192
0.683726 0 0.652049
0.758587 0 0.653178
0.78262 0 0.652842
0.785168 0 0.6477
0.783032 0 0.641276
0 0.00691234 0.559258
0.00115969 0.00541695 0.555596
0.00805676 0.00317388 0.562158
0.292088 0.000503548 0.599451
0.628931 0 0.631647
0.739116 0 0.635355
0.772503 0 0.632319
0.779461 0 0.624887
0.778408 0 0.616815
0 0.0135958 0.571496
0 0.0125887 0.562722
0.00386053 0.0110781 0.572076
0.194827 0.00953689 0.621271
0.643763 0.00860609 0.679454
0.777676 0.00820935 0.678386
0.80798 0.00790417 0.670115
0.814252 0.00730907 0.657191
0.808392 0.00636301 0.640436
0 0.235264 0.610391
0 0.194903 0.590326
0.00224308 0.141222 0.58735
0.012253 0.150027 0.62034
0.57702 0.221469 0.716121
0.78996 0.144594 0.709499
0.828412 0.136049 0.692332
0.837003 0.141848 0.674403
0.829999 0.0779736 0.653605
0 0.463081 0.628199
0 0.437797 0.608286
0.00141909 0.410498 0.606195
0.00758373 0.391516 0.633616
0.302007 0.495689 0.726101
0.839719 0.519387 0.764446
0.897734 0.484916 0.724361
0.906569 0.455451 0.682124
0.900923 0.426032 0.654643
0 0.570016 0.623285
0 0.560265 0.604212
0 0.548547 0.58436
0.00529488 0.557778 0.612787
0.0186618 0.679759 0.683558
0.792584 0.805005 0.750927
0.937697 0.769223 0.695232
0.9617 0.722286 0.632425
0.963409 0.689906 0.595132
0 0.603479 0.64799
0 0.601968 0.643671
0 0.592065 0.610452
0.00404364 0.611093 0.639521
0.0160067 0.720836 0.715587
0.590036 0.866758 0.760571
0.900038 0.901884 0.675502
0.993301 0.879026 0.627619
0.996857 0.861784 0.594507
0 0.628305 0.685863
0 0.627955 0.684794
0 0.620645 0.659983
0.00163272 0.631052 0.681636
0.0121462 0.709102 0.751476
0.183841 0.834119 0.757244
0.816068 0.909072 0.637934
0.969894 0.923217 0.584512
0.998322 0.906477 0.504875
0 0.644648 0.707103
0 0.644663 0.70721
0 0.642344 0.698024
0.000137331 0.64126 0.693675
0.0080415 0.70573 0.760891
0.0182345 0.797909 0.758968
0.641733 0.888075 0.651041
0.942153 0.92079 0.521447
0.992905 0.922774 0.501625
0 0.00218204 0.58677
0.00201419 0.00138857 0.587167
0.0107118 0.000183108 0.598108
0.386542 0 0.664195
0.702571 0 0.703944
0.78323 0 0.707179
0.804074 0 0.705699
0.806745 0 0.702388
0.805325 0 0.698299
0 0.00680552 0.595209
0.00102235 0.0053254 0.594018
0.00656138 0.00302129 0.599985
0.262196 0.000411994 0.640635
0.641703 0 0.688319
0.762142 0 0.692485
0.793927 0 0.691066
0.801846 0 0.688914
0.799802 0 0.684108
0 0.0136568 0.609918
0 0.0126802 0.603967
0.00283818 0.0112001 0.611048
0.0857404 0.140612 0.660883
0.621744 0.0831159 0.728283
0.787045 0.00801099 0.735073
0.821393 0.00769055 0.733989
0.828885 0.00712596 0.728649
0.825864 0.00611887 0.718746
0 0.234516 0.670817
0 0.190875 0.65359
0.0021973 0.142107 0.645335
0.0106661 0.146548 0.664317
0.506203 0.266331 0.755764
0.799313 0.219242 0.774929
0.84419 0.197238 0.770916
0.85275 0.188418 0.764935
0.844739 0.129656 0.751827
0 0.4692 0.72932
0 0.442756 0.716777
0.00135805 0.415351 0.714748
0.0056611 0.380102 0.7205
0.0654307 0.44445 0.767391
0.816434 0.512795 0.840986
0.904677 0.502052 0.837949
0.919844 0.493111 0.829023
0.916167 0.464866 0.815869
0 0.580972 0.736721
0 0.573846 0.72723
0 0.563699 0.717479
0.00320439 0.556603 0.730907
0.0149538 0.622309 0.780926
0.689952 0.778988 0.862684
0.941527 0.7906 0.876829
0.967514 0.764843 0.853803
0.968093 0.734218 0.831693
0 0.613031 0.741054
0 0.612345 0.739147
0 0.605509 0.717891
0.00233463 0.612833 0.729046
0.0126345 0.678706 0.765255
0.511925 0.855512 0.82562
0.91693 0.917266 0.864775
0.978027 0.906767 0.835142
0.989975 0.88925 0.802853
0 0.635019 0.749767
0 0.634653 0.749065
0 0.62739 0.72871
0.00154116 0.633951 0.735744
0.0103456 0.690501 0.775708
0.0881819 0.841901 0.825422
0.82678 0.93756 0.868727
0.951904 0.950912 0.835065
0.997513 0.944457 0.809766
0 0.649363 0.754421
0 0.649378 0.754498
0 0.64744 0.742504
0 0.64538 0.734829
0.00727855 0.699519 0.786404
0.0193332 0.814374 0.838483
0.688991 0.925155 0.865309
0.920058 0.954711 0.812741
0.984207 0.959243 0.786603
0 0.00218204 0.58677
0.0019379 0.00141909 0.587625
0.0102083 0.000244144 0.598337
0.367681 0 0.662715
0.700038 0 0.710475
0.78854 0 0.7196
0.811307 0 0.721965
0.816297 0 0.723293
0.816297 0 0.723293
0 0.00646983 0.600641
0.000869764 0.00502022 0.601053
0.00585946 0.00260929 0.599771
0.236622 6.10361e-05 0.638651
0.63357 0 0.702205
0.774182 0 0.718303
0.807782 0 0.72163
0.816297 0 0.723293
0.816297 0 0.723293
0 0.0136873 0.619593
0 0.012665 0.616327
0.00276188 0.0112154 0.62623
0.0239567 0.147555 0.669184
0.602106 0.144106 0.739528
0.78732 0.0115053 0.753552
0.827008 0.0543832 0.761059
0.836484 0.0902113 0.763119
0.832227 0.035996 0.755657
0 0.235813 0.686778
0 0.200107 0.67274
0.00213626 0.181643 0.672374
0.00959792 0.199298 0.694392
0.445762 0.314 0.772778
0.804623 0.291737 0.802411
0.862974 0.292409 0.80705
0.875364 0.298299 0.807477
0.868986 0.271641 0.799023
0 0.469734 0.764126
0 0.446983 0.75671
0.0012665 0.417914 0.75079
0.00445563 0.381933 0.748074
0.0179446 0.435599 0.788128
0.778073 0.527123 0.85861
0.908583 0.530892 0.86717
0.928435 0.528923 0.865538
0.924987 0.501732 0.857664
0 0.583581 0.783932
0 0.578454 0.781537
0 0.567605 0.77557
0.00300603 0.55874 0.785992
0.0127565 0.587503 0.816648
0.554589 0.728664 0.875441
0.928435 0.7794 0.910903
0.969482 0.775937 0.909346
0.973373 0.757458 0.903075
0 0.61709 0.79173
0 0.616464 0.790951
0 0.61091 0.781918
0.00228885 0.616678 0.790356
0.00984207 0.652934 0.812802
0.0312963 0.804547 0.856001
0.878706 0.908614 0.91516
0.978744 0.914244 0.920012
0.990768 0.905318 0.910826
0 0.638865 0.793774
0 0.63856 0.7935
0 0.632792 0.784604
0.00144961 0.6374 0.787427
0.00749218 0.667826 0.807523
0.0200351 0.799939 0.848203
0.810376 0.935866 0.902602
0.964843 0.957488 0.917128
0.992432 0.955154 0.906767
0 0.653544 0.797375
0 0.653544 0.797421
0 0.650599 0.788449
0 0.648447 0.783536
0.00494392 0.681178 0.808423
0.0174411 0.789014 0.850263
0.699031 0.929305 0.900969
0.925399 0.965286 0.916701
0.977951 0.970672 0.903624
0 0.00218204 0.58677
0.00187686 0.00144961 0.587671
0.00976577 0.000274662 0.597635
0.351873 0 0.660304
0.694057 0 0.709697
0.786938 0 0.719432
0.81091 0 0.72192
0.816297 0 0.723293
0.816297 0 0.723293
0 0.00604257 0.599466
0.000717174 0.00460822 0.598917
0.00543221 0.00205997 0.596002
0.219715 0 0.635019
0.621592 0 0.700557
0.77174 0 0.71812
0.807095 0 0.721553
0.816297 0 0.723293
0.816297 0 0.723293
0 0.0134279 0.618509
0 0.0123598 0.615488
0.00268559 0.010956 0.625299
0.0149081 0.136675 0.66508
0.586328 0.142412 0.736736
0.783001 0.0103609 0.752194
0.825071 0.0375067 0.759441
0.83537 0.0824598 0.762158
0.832258 0.0297093 0.756832
0 0.225757 0.68278
0 0.190585 0.669032
0.00207523 0.172335 0.668727
0.00920119 0.190631 0.690242
0.421973 0.307393 0.768093
0.798138 0.286549 0.80058
0.8607 0.287968 0.806317
0.876387 0.302632 0.810162
0.871855 0.28278 0.804349
0 0.463645 0.762539
0 0.441184 0.756664
0.00115969 0.411536 0.750393
0.0040589 0.377234 0.748775
0.0173953 0.431312 0.790295
0.757748 0.523766 0.859113
0.905959 0.528756 0.869429
0.929854 0.537057 0.872023
0.928573 0.518257 0.867506
0 0.582544 0.788693
0 0.576577 0.787411
0 0.56672 0.785428
0.00296025 0.556344 0.79498
0.0120089 0.577676 0.821958
0.474662 0.704555 0.872953
0.913634 0.768948 0.914977
0.967926 0.774426 0.918074
0.974258 0.762203 0.915496
0 0.617533 0.802563
0 0.617121 0.802441
0 0.613077 0.800931
0.00224308 0.616205 0.807263
0.00846876 0.641611 0.827695
0.0209812 0.773449 0.869978
0.828687 0.892088 0.922942
0.973373 0.910124 0.93579
0.991272 0.907591 0.934066
0 0.639078 0.811536
0 0.638743 0.811368
0 0.631617 0.807553
0.00137331 0.63801 0.813794
0.00552377 0.655192 0.826627
0.0174411 0.763439 0.865446
0.709545 0.917098 0.912139
0.952071 0.954803 0.935607
0.992432 0.957107 0.93724
0 0.654871 0.819699
0 0.654871 0.81973
0 0.652934 0.816007
0 0.651286 0.81355
0.00321965 0.669017 0.825818
0.014847 0.756374 0.861692
0.576867 0.905882 0.899886
0.923323 0.964843 0.930892
0.984634 0.972503 0.936324
