creator/3-Post-Production/Color/LUTS/2-LOG-Looks/Pocket3/Cold-Drama.cube
TITLE "Generated by Resolve"
LUT_3D_SIZE 5
0.025391 0.0273899 0.0318456
0.124773 0.0446784 0.0310063
0.550469 0 0
0.681453 0 0
0.685969 0 0
0 0.093431 0.0588083
0.06215 0.0877394 0.0485237
0.590875 0.0463111 0
0.723751 0.00979629 0
0.730388 0.00759899 0
0 0.392813 0.0828412
0.00192264 0.367086 0.0643626
0.446921 0.503044 0.000381476
0.914046 0.44535 0.002533
0.884215 0.356008 0.00120546
0 0.530221 0.225238
0 0.517571 0.193759
0.0100557 0.564462 0.00540169
0.96965 0.86836 0.000381476
1 0.837018 0.00260929
0 0.581872 0.34757
0 0.581872 0.34757
0.00422675 0.591806 0.232151
0.00843824 0.61471 0.178683
0.992752 0.899046 0.000106813
0 0.00103761 0.199557
0.145113 0.0315251 0.178347
0.58793 0 0.0720989
0.702312 0 0.00991836
0.704143 0 0.00807202
0 0.0979782 0.108858
0.0704356 0.0917983 0.113848
0.552377 0.0323644 0.00831617
0.733211 0.00830091 0.00595102
0.736889 0.00700389 0.0043946
0 0.406683 0.205264
0.0018616 0.375296 0.165408
0.48777 0.504601 0.00602731
0.89987 0.40676 0.0033875
0.898344 0.383154 0.00262455
0 0.543618 0.297185
0 0.515129 0.187594
0.0122683 0.58323 0.00419623
0.974517 0.864607 0.000488289
1 0.831998 0.00267033
0 0.581872 0.34757
0 0.581872 0.34757
0.00369268 0.588785 0.239048
0.63064 0.814786 0.000610361
0.993133 0.898192 0.00015259
0 0.00170901 0.500526
0.0249332 0 0.519478
0.663935 0 0.571099
0.761303 0 0.545739
0.76025 0 0.512871
0 0.0134585 0.472984
0.00555428 0.0108644 0.48687
0.645167 0.00888075 0.56202
0.783444 0.00801099 0.496605
0.779995 0.00650034 0.436896
0 0.438758 0.443595
0.00148013 0.395056 0.415396
0.512642 0.539071 0.537682
0.874861 0.424903 0.381491
0.886336 0.380163 0.311101
0 0.591806 0.567727
0 0.580636 0.527352
0.0154879 0.702907 0.597101
0.930694 0.855726 0.25156
0.999207 0.816358 0.0740368
0 0.638834 0.663203
0 0.634272 0.640894
0.00621042 0.675013 0.609949
0.678706 0.835676 0.251377
0.99321 0.887984 0.0118257
0 0.00218204 0.58677
0.0107118 0.000183108 0.598108
0.702571 0 0.703944
0.804074 0 0.705699
0.805325 0 0.698299
0 0.0136568 0.609918
0.00283818 0.0112001 0.611048
0.621744 0.0831159 0.728283
0.821393 0.00769055 0.733989
0.825864 0.00611887 0.718746
0 0.4692 0.72932
0.00135805 0.415351 0.714748
0.0654307 0.44445 0.767391
0.904677 0.502052 0.837949
0.916167 0.464866 0.815869
0 0.613031 0.741054
0 0.605509 0.717891
0.0126345 0.678706 0.765255
0.91693 0.917266 0.864775
0.989975 0.88925 0.802853
0 0.649363 0.754421
0 0.64744 0.742504
0.00727855 0.699519 0.786404
0.688991 0.925155 0.865309
0.984207 0.959243 0.786603
0 0.00218204 0.58677
0.00976577 0.000274662 0.597635
0.694057 0 0.709697
0.81091 0 0.72192
0.816297 0 0.723293
0 0.0134279 0.618509
0.00268559 0.010956 0.625299
0.586328 0.142412 0.736736
0.825071 0.0375067 0.759441
0.832258 0.0297093 0.756832
0 0.463645 0.762539
0.00115969 0.411536 0.750393
0.0173953 0.431312 0.790295
0.905959 0.528756 0.869429
0.928573 0.518257 0.867506
0 0.617533 0.802563
0 0.613077 0.800931
0.00846876 0.641611 0.827695
0.828687 0.892088 0.922942
0.991272 0.907591 0.934066
0 0.654871 0.819699
0 0.652934 0.816007
0.00321965 0.669017 0.825818
0.576867 0.905882 0.899886
0.984634 0.972503 0.936324
