creator/3-Post-Production/Color/LUTS/2-LOG-Looks/Pocket3/Cold-Drama.cube
TITLE "Generated by Resolve"
LUT_3D_SIZE 33
0.025391 0.0273899 0.0318456
0.025391 0.0273899 0.0318456
0.0323491 0.0289006 0.0336156
0.041474 0.0302129 0.033875
0.0453956 0.0315251 0.0338293
0.0557412 0.0331273 0.0337224
0.0758679 0.0360876 0.0337224
0.0947127 0.04094 0.0331273
0.124773 0.0446784 0.0310063
0.167987 0.047715 0.0247349
0.211994 0.0500038 0.00434882
0.270069 0.0509041 0
0.338033 0.0462348 0
0.402365 0.0345769 0
0.457313 0.000732433 0
0.508644 0 0
0.550469 0 0
0.582147 0 0
0.607645 0 0
0.628534 0 0
0.645945 0 0
0.658763 0 0
0.668223 0 0
0.675639 0 0
0.681453 0 0
0.685695 0 0
0.685969 0 0
0.685969 0 0
0.685969 0 0
0.685969 0 0
0.685969 0 0
0.685969 0 0
0.685969 0 0
0.025391 0.0273899 0.0318456
0.025391 0.0273899 0.0318456
0.0306249 0.0285954 0.0334173
0.0390173 0.0298924 0.0338903
0.0445258 0.0311742 0.0338445
0.0519265 0.032639 0.033753
0.070573 0.0348211 0.0337072
0.0898299 0.0396124 0.0334325
0.115419 0.0438087 0.0317235
0.156939 0.0468299 0.0275731
0.200107 0.0495918 0.0112917
0.253315 0.0512245 0.000183108
0.319966 0.0481117 0
0.385946 0.0382239 0
0.442908 0.00123598 0
0.495659 0 0
0.539986 0 0
0.573846 0 0
0.600565 0 0
0.622477 0 0
0.640269 0 0
0.654093 0 0
0.664729 0 0
0.672953 0 0
0.679347 0 0
0.684108 0 0
0.685969 0 0
0.685969 0 0
0.685969 0 0
0.685969 0 0
0.685969 0 0
0.685969 0 0
0.685969 0 0
0.0251011 0.031632 0.0339818
0.0251011 0.0306249 0.0332036
0.0254978 0.0298924 0.0329442
0.0359503 0.0298619 0.0340734
0.0444495 0.0311437 0.0338445
0.0514687 0.0325628 0.033753
0.0662242 0.0342412 0.0337072
0.085008 0.0383001 0.0337377
0.106981 0.0428626 0.0323033
0.145571 0.0460365 0.0291142
0.188586 0.0491951 0.0180209
0.238865 0.0508125 0.00077821
0.302968 0.0496986 0
0.37055 0.0413519 0
0.429725 0.0120851 0
0.483864 1.5259e-05 0
0.530694 0 0
0.566827 0 0
0.594827 0 0
0.617685 0 0
0.63653 0 0
0.651225 0 0
0.662593 0 0
0.671397 0 0
0.678019 0 0
0.683162 0 0
0.685969 0 0
0.685969 0 0
0.685969 0 0
0.685969 0 0
0.685969 0 0
0.685969 0 0
0.685969 0 0
0.0231479 0.0399329 0.0383307
0.0238804 0.0382696 0.0376745
0.0240635 0.0376287 0.0373999
0.0294347 0.0376593 0.0368505
0.0431678 0.0375525 0.0373083
0.0493019 0.0379187 0.0362097
0.0698253 0.0391394 0.0348974
0.0900435 0.043122 0.0342718
0.108919 0.0465705 0.0329137
0.140826 0.0489662 0.0301366
0.180789 0.0505684 0.0219577
0.225666 0.0512703 0.00137331
0.285679 0.0503243 0
0.354162 0.0445563 0
0.415717 0.0235904 0
0.470588 0.000366217 0
0.520409 0 0
0.55938 0 0
0.588739 0 0
0.612741 0 0
0.632456 0 0
0.648203 0 0
0.660334 0 0
0.669551 0 0
0.67657 0 0
0.682139 0 0
0.685969 0 0
0.685969 0 0
0.685969 0 0
0.685969 0 0
0.685969 0 0
0.685969 0 0
0.685969 0 0
0.0196994 0.0472267 0.0413825
0.019852 0.0461128 0.0407416
0.0200809 0.0453651 0.0403754
0.0198215 0.0462348 0.0408179
0.035462 0.0455482 0.0392309
0.0474861 0.0456245 0.0398871
0.0654154 0.0469978 0.0391546
0.08925 0.0499886 0.0365911
0.115526 0.0539101 0.0338445
0.158663 0.0556802 0.0293278
0.198138 0.0569467 0.0177462
0.238331 0.0578012 0.00117494
0.291752 0.0580606 0
0.355764 0.0542458 0
0.418112 0.0429847 0
0.471244 0.0128023 0
0.52015 0.00167849 0
0.559594 0.00129702 0
0.58854 0.0009308 0
0.611658 0.000610361 0
0.629816 0.000244144 0
0.645014 0 0
0.657725 0 0
0.66746 0 0
0.675059 0 0
0.68101 0 0
0.685359 0 0
0.685969 0 0
0.685969 0 0
0.685969 0 0
0.685969 0 0
0.685969 0 0
0.685969 0 0
0.0177462 0.0523537 0.044007
0.0190433 0.0509499 0.0434577
0.0192721 0.0503548 0.0431525
0.0208286 0.0500954 0.0426642
0.0186465 0.0513771 0.0436255
0.042298 0.0514229 0.0411688
0.0594644 0.053727 0.0420081
0.0873732 0.0574044 0.0407721
0.108721 0.0616007 0.0381476
0.153201 0.0636606 0.0317388
0.206836 0.065095 0.0158083
0.26305 0.0660258 0.000518807
0.324361 0.0643626 0
0.382849 0.0607919 0
0.43595 0.0524147 0
0.484535 0.0284581 0
0.532769 0.00463874 0
0.574289 0.00419623 0
0.605509 0.00399786 0
0.629618 0.0037995 0
0.648951 0.00358587 0
0.663828 0.00332647 0
0.674784 0.0030518 0
0.682399 0.00274662 0
0.687907 0.00242618 0
0.691737 0.00205997 0
0.693874 0.00164797 0
0.69279 0.00120546 0
0.690013 0.000717174 0
0.686946 0.000183108 0
0.685969 0 0
0.685969 0 0
0.685969 0 0
0.00921645 0.0617838 0.0473793
0.0118868 0.0586404 0.0464332
0.0129091 0.0575418 0.0460059
0.0138247 0.0565652 0.0456397
0.0204929 0.0575418 0.0448463
0.0120089 0.0602731 0.046479
0.0458076 0.05832 0.0433509
0.0812543 0.0607919 0.0431525
0.106569 0.0659037 0.0420233
0.143404 0.0696422 0.0367285
0.196292 0.072221 0.0242313
0.257053 0.0758373 0.0009308
0.332494 0.0760204 0
0.409293 0.0706035 0
0.468849 0.0603342 0
0.515618 0.0348669 0
0.556054 0.00984207 0
0.59089 0.00607309 0
0.619074 0.00601205 0
0.642267 0.00595102 0
0.661418 0.00585946 0
0.677028 0.00573739 0
0.688746 0.00560006 0
0.697108 0.00543221 0
0.703288 0.0052491 0
0.707897 0.00505074 0
0.71104 0.00482185 0
0.71194 0.00456245 0
0.710201 0.00424201 0
0.708354 0.00392157 0
0.706416 0.00358587 0
0.704341 0.00321965 0
0.702205 0.00283818 0
0 0.0772869 0.0526284
0 0.0743114 0.0514534
0.000686656 0.0718853 0.0505684
0.00216678 0.0701152 0.0499733
0.00505074 0.0698711 0.0484779
0.00242618 0.0729839 0.0492256
0.00170901 0.0765698 0.0505989
0.0502937 0.0706493 0.0458839
0.102266 0.0727245 0.0446632
0.138354 0.0775769 0.041413
0.193256 0.0800946 0.0323186
0.245655 0.0826429 0.00680552
0.314611 0.0844587 3.0518e-05
0.401343 0.0818189 0
0.476493 0.0730755 0
0.535821 0.0517586 0
0.581552 0.0161746 0
0.614466 0.00743114 0
0.638117 0.00740063 0
0.657435 0.00741588 0
0.673899 0.00741588 0
0.687968 0.00740063 0
0.699229 0.00735485 0
0.707912 0.00729381 0
0.714504 0.00721752 0
0.719615 0.00709544 0
0.723186 0.00695811 0
0.725216 0.00680552 0
0.723873 0.0065919 0
0.722545 0.00636301 0
0.721172 0.00613413 0
0.719707 0.00588998 0
0.718257 0.00563058 0
0 0.093431 0.0588083
0 0.0923629 0.0584115
0 0.0879225 0.0567636
0 0.0860151 0.0560464
0.000457771 0.085008 0.0546731
0.00318914 0.0858625 0.052781
0.00115969 0.0907149 0.0555581
0.00216678 0.0935988 0.0557717
0.06215 0.0877394 0.0485237
0.128573 0.0925154 0.0448157
0.188876 0.0956283 0.0370642
0.248112 0.096788 0.0139467
0.310765 0.0979324 0.000717174
0.387427 0.0959335 0.000122072
0.468666 0.0919051 0
0.535515 0.0780041 0
0.590875 0.0463111 0
0.629389 0.0177615 0
0.65565 0.0128481 0
0.674342 0.0110933 0
0.688746 0.00991836 0
0.700435 0.00920119 0
0.71014 0.00880446 0
0.71754 0.00943008 0
0.723751 0.00979629 0
0.728923 0.0099031 0
0.732769 0.00979629 0
0.735561 0.00936904 0
0.734813 0.0083772 0
0.733791 0.00813306 0
0.732708 0.00796521 0
0.731594 0.00779736 0
0.730388 0.00759899 0
0 0.114763 0.0650339
0 0.113756 0.0647746
0 0.106126 0.0628824
0 0.103166 0.0621653
0 0.10045 0.0614786
0.00169375 0.10193 0.0585794
0.00349432 0.103929 0.0579385
0.00123598 0.112444 0.0612192
0.00303655 0.115541 0.0606546
0.0849012 0.106661 0.0512551
0.174655 0.114076 0.0419471
0.245029 0.118181 0.0230411
0.315206 0.121126 0.00192264
0.392889 0.120867 0.00103761
0.467628 0.118593 0.000381476
0.533059 0.111925 3.0518e-05
0.592874 0.0960555 0
0.637934 0.0681468 0
0.667323 0.0486305 0
0.688487 0.0364233 0
0.70428 0.0264897 0
0.715785 0.0204929 0
0.72369 0.0184939 0
0.730098 0.0203708 0
0.735134 0.0212406 0
0.739483 0.022034 0
0.742947 0.0219577 0
0.745418 0.0209049 0
0.744915 0.0191348 0
0.743938 0.0180819 0
0.742885 0.0169375 0
0.741726 0.0156863 0
0.740551 0.0144198 0
0 0.14609 0.0708171
0 0.145174 0.0706493
0 0.134997 0.0688945
0 0.130587 0.0681468
0 0.126787 0.0675059
0.000976577 0.12755 0.0648814
0.00326543 0.128237 0.0624552
0.00309758 0.13492 0.0634165
0.00158694 0.14551 0.0662242
0.00375372 0.147997 0.0645304
0.105516 0.132952 0.0521859
0.23299 0.137819 0.0303807
0.311788 0.144396 0.00289921
0.397162 0.147494 0.00164797
0.479515 0.146334 0.00132753
0.544793 0.142687 0.000823987
0.599756 0.134859 0.000198367
0.647059 0.124346 0
0.67982 0.113283 0
0.702129 0.100481 0
0.718746 0.0874189 0
0.730922 0.0779431 0
0.739406 0.0766308 0
0.745525 0.0780194 0
0.750103 0.0789197 0
0.753338 0.0794995 0
0.756359 0.0809339 0
0.758114 0.0816663 0
0.757473 0.0785382 0
0.756634 0.0743725 0
0.755673 0.0696574 0
0.75465 0.064683 0
0.753429 0.0587015 0
0 0.181888 0.0776837
0 0.181338 0.0775921
0 0.170489 0.0756542
0 0.165072 0.0745251
0 0.160952 0.0736553
0.000564584 0.159915 0.0716716
0.00199893 0.161517 0.0676127
0.00407416 0.162493 0.0657359
0.00244144 0.173587 0.0685588
0.00180056 0.183276 0.0709544
0.00437934 0.183734 0.0677501
0.126467 0.172396 0.0472572
0.299031 0.17644 0.00274662
0.3935 0.181552 0.00175479
0.487511 0.181308 0.00177005
0.561273 0.176547 0.00158694
0.618326 0.168078 0.00122072
0.664042 0.160113 0.000732433
0.696727 0.153643 0.000213626
0.71957 0.147326 0
0.736706 0.141207 0
0.749569 0.137804 0
0.758434 0.136126 0
0.764691 0.135164 0
0.769055 0.13431 0
0.772183 0.133516 0
0.774151 0.132052 0
0.773968 0.129274 0
0.772595 0.125353 0
0.771695 0.122774 0
0.770794 0.120211 0
0.769909 0.117647 0
0.768841 0.114656 0
0 0.220676 0.082826
0 0.22031 0.0827802
0 0.209583 0.0817121
0 0.201968 0.0809796
0 0.197436 0.0802472
4.57771e-05 0.193561 0.0794842
0.00135805 0.196735 0.0745403
0.00315862 0.196704 0.0707561
0.00415045 0.200092 0.0699626
0.002121 0.215579 0.0735485
0.00224308 0.224384 0.073579
0.00511177 0.222995 0.068574
0.166049 0.218494 0.0236667
0.378424 0.230823 0.0015259
0.486702 0.234043 0.00180056
0.573541 0.230442 0.00187686
0.638056 0.220951 0.00180056
0.687083 0.208484 0.00157168
0.72079 0.199725 0.00125124
0.743023 0.193179 0.000869764
0.758938 0.187564 0.00047303
0.771374 0.183261 0.000167849
0.780056 0.179919 1.5259e-05
0.786068 0.177386 0
0.790265 0.175128 0
0.793057 0.172778 0
0.794217 0.170733 0
0.79295 0.167285 0
0.790829 0.163348 0
0.789227 0.160372 0
0.787793 0.157733 0
0.786419 0.155184 0
0.785443 0.153368 0
0 0.265568 0.0853285
0 0.265171 0.0853437
0 0.260471 0.0851759
0 0.244495 0.084596
0 0.23859 0.0843977
0 0.233387 0.0841993
0.00103761 0.235904 0.0789654
0.00218204 0.236606 0.0739452
0.00399786 0.236545 0.0700389
0.00370794 0.246082 0.0704204
0.00202945 0.263691 0.074052
0.00238041 0.271733 0.0722362
0.00605783 0.269871 0.0637522
0.226215 0.274189 0.000595102
0.471077 0.289448 0.00151064
0.580392 0.292042 0.00181582
0.653773 0.286549 0.00195315
0.710338 0.2757 0.00196841
0.748028 0.264652 0.00187686
0.771328 0.255695 0.00169375
0.786801 0.248615 0.00144961
0.798688 0.243336 0.00114443
0.806775 0.238651 0.000717174
0.811597 0.233509 0.00030518
0.814847 0.228824 9.15541e-05
0.81706 0.224582 0
0.817746 0.220462 0
0.81619 0.214588 0
0.812818 0.207691 0
0.809949 0.201831 0
0.807507 0.196826 0
0.805585 0.192874 0
0.803998 0.189624 0
0 0.313085 0.085832
0 0.313069 0.085832
0 0.309697 0.0859236
0 0.292119 0.0858473
0 0.285664 0.0856947
0 0.280186 0.0855726
0.000671397 0.280049 0.0819104
0.00166323 0.2822 0.0743572
0.00296025 0.281956 0.0698863
0.00469978 0.285069 0.0650034
0.00311284 0.299306 0.0675975
0.00204471 0.314275 0.0685283
0.0027924 0.320836 0.0652628
0.00714122 0.320272 0.0464637
0.292805 0.343557 0.000518807
0.566049 0.354574 0.00146487
0.663233 0.354269 0.00181582
0.730205 0.345541 0.00202945
0.774975 0.334768 0.00210575
0.801846 0.324056 0.002121
0.818524 0.315358 0.00205997
0.830457 0.309392 0.0019379
0.838163 0.304173 0.00173953
0.842969 0.29958 0.00141909
0.845594 0.294347 0.00103761
0.84654 0.28867 0.000640879
0.845792 0.282536 0.000289921
0.844297 0.276265 0.000137331
0.839521 0.266239 9.15541e-05
0.83534 0.257008 6.10361e-05
0.83154 0.2486 4.57771e-05
0.828321 0.241443 1.5259e-05
0.825528 0.235325 0
0 0.355413 0.085069
0 0.355413 0.085069
0 0.353353 0.085069
0 0.338521 0.0853437
0 0.332036 0.0854658
0 0.326787 0.0855268
0.000167849 0.323018 0.0848707
0.00141909 0.327474 0.0745251
0.00221256 0.327352 0.0663767
0.00401312 0.327611 0.0598306
0.00489815 0.334646 0.054902
0.00268559 0.34786 0.0603799
0.00228885 0.359091 0.0612497
0.0030518 0.363455 0.0545205
0.00834669 0.368505 0.00761425
0.364767 0.422644 0.000442512
0.654002 0.429496 0.00143435
0.740856 0.424796 0.00183108
0.798184 0.414069 0.00205997
0.830335 0.401511 0.00221256
0.850187 0.390509 0.00231937
0.863355 0.382254 0.00234989
0.871931 0.376165 0.00230411
0.876905 0.370199 0.0021973
0.879866 0.364263 0.00199893
0.88101 0.358663 0.00172427
0.879973 0.351553 0.00141909
0.877546 0.343633 0.00111391
0.872251 0.332265 0.000869764
0.866423 0.320775 0.000701915
0.861051 0.310018 0.000534066
0.856214 0.300343 0.000381476
0.851896 0.291737 0.000244144
0 0.392813 0.0828412
0 0.393027 0.0828717
0 0.391409 0.0829023
0 0.378027 0.083711
0 0.371725 0.0842908
0 0.367254 0.0848402
0 0.36289 0.0849928
0.00111391 0.366354 0.0766613
0.00192264 0.367086 0.0643626
0.00282292 0.366247 0.0546883
0.005066 0.369543 0.0350347
0.00462348 0.377432 0.0347143
0.00239567 0.389425 0.0474098
0.00234989 0.397955 0.0452125
0.00367742 0.402655 0.0247349
0.00967422 0.417441 0.00242618
0.446921 0.503044 0.000381476
0.733074 0.50956 0.00138857
0.811307 0.501396 0.00181582
0.855344 0.491035 0.00209049
0.878904 0.478721 0.00230411
0.89456 0.467765 0.0024567
0.904646 0.459648 0.00254826
0.910338 0.452186 0.00257877
0.914046 0.44535 0.002533
0.915816 0.438148 0.00244144
0.915511 0.42974 0.00227359
0.913329 0.4206 0.00205997
0.909438 0.409033 0.00184634
0.902434 0.393713 0.00169375
0.895933 0.379629 0.0015259
0.889815 0.367193 0.00135805
0.884215 0.356008 0.00120546
0 0.425696 0.0821698
0 0.425772 0.0821546
0 0.424842 0.0820783
0 0.415442 0.0818341
0 0.407599 0.0820325
0 0.403326 0.0822156
0 0.399451 0.0824292
0.000747692 0.400549 0.0750439
0.00172427 0.402579 0.0616007
0.00231937 0.401907 0.0446479
0.0040589 0.403693 0.020676
0.00578317 0.411566 0.0074464
0.00410468 0.41735 0.011902
0.00244144 0.426337 0.0363928
0.00265507 0.432517 0.032639
0.00437934 0.438346 0.00894179
0.0111238 0.466758 0.00222782
0.5346 0.574823 0.000320439
0.804227 0.583413 0.00134279
0.871702 0.576089 0.00180056
0.903807 0.566064 0.00210575
0.922545 0.556222 0.00234989
0.935515 0.548714 0.00254826
0.943008 0.541894 0.00268559
0.94696 0.533898 0.00276188
0.949264 0.526116 0.00277714
0.949645 0.518105 0.00274662
0.948241 0.508431 0.00265507
0.945785 0.496971 0.002533
0.940291 0.481773 0.00242618
0.933135 0.464057 0.00231937
0.926177 0.446967 0.00218204
0.919707 0.431647 0.00205997
0 0.450767 0.0881514
0 0.450904 0.0882582
0 0.450309 0.0879377
0 0.447593 0.0867781
0 0.438148 0.0833753
0 0.434348 0.0829023
0 0.431067 0.0825971
0.000274662 0.429496 0.0787671
0.00148013 0.433066 0.0603037
0.00216678 0.43328 0.0460517
0.0031281 0.433814 0.024918
0.00538643 0.44062 0.0047303
0.00610361 0.448814 0.00450141
0.00358587 0.448585 0.016907
0.00263981 0.453666 0.0295415
0.00294499 0.457847 0.0217288
0.0052491 0.467033 0.00534066
0.0126802 0.513085 0.00201419
0.625116 0.645548 0.000274662
0.865553 0.649119 0.00129702
0.919081 0.640894 0.00177005
0.94406 0.633051 0.00210575
0.960082 0.627024 0.00238041
0.97026 0.621927 0.00259403
0.976196 0.616251 0.00276188
0.980163 0.610407 0.0028687
0.981796 0.603845 0.00292973
0.981628 0.596429 0.00294499
0.980179 0.587304 0.00292973
0.977111 0.575799 0.0028687
0.970932 0.560006 0.00280766
0.963958 0.541878 0.00274662
0.956909 0.523705 0.00267033
0 0.468528 0.0998856
0 0.468681 0.100023
0 0.468284 0.099733
0 0.466728 0.098497
0 0.459754 0.0930343
0 0.457389 0.0912032
0 0.454841 0.0899825
0 0.452445 0.0888991
0.0011902 0.455558 0.0692912
0.00198367 0.456611 0.0497292
0.00259403 0.456168 0.0293736
0.00430304 0.460883 0.00883497
0.00650034 0.472007 0.00466926
0.00607309 0.474861 0.00497444
0.00326543 0.468589 0.0134737
0.00274662 0.47219 0.0261845
0.00335698 0.475486 0.0108949
0.00627146 0.490181 0.00531014
0.0143893 0.556054 0.00178531
0.708461 0.709514 0.000244144
0.915053 0.71075 0.00125124
0.956756 0.702068 0.00173953
0.977996 0.69691 0.00209049
0.987594 0.691035 0.00238041
0.99086 0.684138 0.00260929
0.994141 0.677821 0.0027924
0.996124 0.672099 0.00291447
0.997635 0.666224 0.00300603
0.997909 0.659617 0.0030518
0.998138 0.652049 0.00308232
0.997497 0.642466 0.0030518
0.996353 0.631312 0.00302129
0.993332 0.617777 0.00299077
0 0.482444 0.118685
0 0.482582 0.118944
0 0.482307 0.118425
0 0.481315 0.116625
0 0.475196 0.107469
0 0.473014 0.104768
0 0.471351 0.102663
0 0.469795 0.100969
0.000839246 0.471321 0.0868696
0.00177005 0.47277 0.0661173
0.00236515 0.47277 0.0444038
0.00329595 0.473533 0.0109712
0.00584421 0.485496 0.00541695
0.00735485 0.496178 0.00477607
0.00576791 0.4907 0.0056611
0.00326543 0.484352 0.0240787
0.00291447 0.48687 0.0412299
0.00411994 0.492592 0.0183413
0.00746166 0.512123 0.00527962
0.0162509 0.598611 0.00158694
0.779507 0.75996 0.000259403
0.954009 0.764019 0.00123598
0.983566 0.755535 0.00172427
0.989746 0.748806 0.00207523
0.991958 0.742489 0.00236515
0.993988 0.735683 0.00259403
0.995804 0.729412 0.00277714
0.997391 0.723522 0.00291447
0.998718 0.71754 0.00300603
0.999588 0.710948 0.00306706
1 0.703548 0.00311284
1 0.695048 0.00311284
0.999985 0.685527 0.00311284
0 0.495384 0.143145
0 0.495506 0.143404
0 0.495338 0.143114
0 0.494575 0.141543
0 0.489296 0.131411
0 0.486717 0.126696
0 0.484962 0.123384
0 0.483467 0.120562
0.000381476 0.483314 0.111681
0.00154116 0.485863 0.0894636
0.00221256 0.486122 0.0714733
0.00277714 0.485924 0.0449836
0.00485237 0.493034 0.0068513
0.00732433 0.508797 0.00523384
0.00788891 0.514946 0.005066
0.00543221 0.503227 0.00637827
0.0034638 0.499138 0.0540627
0.00352483 0.501976 0.0590372
0.00494392 0.50869 0.0225528
0.00875868 0.53434 0.00518807
0.0906539 0.641627 0.00137331
0.842985 0.798306 0.000320439
0.980499 0.802182 0.00123598
0.988891 0.791379 0.00172427
0.991165 0.786297 0.00205997
0.993271 0.782162 0.00233463
0.995178 0.776883 0.00254826
0.996872 0.77171 0.00271611
0.998322 0.766857 0.00285344
0.999359 0.761608 0.00296025
1 0.756191 0.00303655
1 0.75021 0.0030518
1 0.742901 0.00306706
0 0.506828 0.167636
0 0.50695 0.167926
0 0.506828 0.167636
0 0.506249 0.166354
0 0.502663 0.1579
0 0.499306 0.15111
0 0.497688 0.147875
0 0.496269 0.144976
0 0.494942 0.142306
0.0012665 0.497704 0.116548
0.00202945 0.49868 0.0985275
0.00259403 0.498421 0.0810712
0.00396735 0.501701 0.0429694
0.0065156 0.515023 0.00616464
0.00857557 0.530694 0.00517281
0.00810254 0.529961 0.00555428
0.00521859 0.514839 0.0276646
0.00370794 0.512367 0.0772106
0.00401312 0.515526 0.0750439
0.00585946 0.525185 0.0317998
0.010132 0.556634 0.00502022
0.313161 0.688502 0.00117494
0.896712 0.827619 0.000381476
0.987091 0.82562 0.00125124
0.99028 0.816388 0.00172427
0.992462 0.81265 0.00202945
0.994476 0.809308 0.00228885
0.996277 0.80592 0.00248722
0.997833 0.802472 0.00265507
0.999115 0.798886 0.00277714
0.999786 0.794797 0.0028687
1 0.790951 0.00291447
1 0.786892 0.00292973
0 0.517952 0.194659
0 0.518151 0.195224
0 0.518029 0.194888
0 0.517479 0.193469
0 0.515846 0.189395
0 0.510506 0.176242
0 0.508934 0.172625
0 0.507637 0.169604
0 0.506447 0.166751
0.000915541 0.508247 0.147463
0.00183108 0.509606 0.124697
0.00241093 0.509728 0.108537
0.00329595 0.510582 0.0852979
0.00553903 0.519707 0.0296635
0.00819409 0.537621 0.00581369
0.00950637 0.549676 0.0052491
0.00801099 0.540551 0.00610361
0.005066 0.52636 0.0709087
0.00393683 0.52517 0.102129
0.00468452 0.530282 0.0948959
0.00677501 0.541482 0.0466621
0.01149 0.579629 0.00474556
0.434745 0.73257 0.000915541
0.938766 0.850538 0.000396735
0.988403 0.842542 0.00123598
0.991577 0.835401 0.00169375
0.993683 0.832441 0.00198367
0.99559 0.829999 0.00222782
0.997238 0.827192 0.00241093
0.998657 0.824537 0.00256352
0.999542 0.821653 0.00268559
1 0.818769 0.00276188
1 0.815885 0.0027924
0 0.530221 0.225238
0 0.530449 0.225879
0 0.530343 0.225559
0 0.529824 0.224277
0 0.528359 0.220676
0 0.522042 0.204959
0 0.520256 0.200488
0 0.518837 0.196872
0 0.517571 0.193759
0.000488289 0.517876 0.182147
0.0016022 0.520485 0.157046
0.00225834 0.520821 0.137697
0.00283818 0.520592 0.118944
0.00457771 0.526177 0.0864424
0.00720226 0.539635 0.0180667
0.00962844 0.558999 0.00555428
0.0100557 0.564462 0.00540169
0.00761425 0.547936 0.0224765
0.00497444 0.539635 0.110704
0.00433356 0.540536 0.128527
0.0053254 0.547066 0.118868
0.00767529 0.559472 0.0725109
0.0128939 0.60502 0.00440986
0.54168 0.769574 0.000656138
0.96965 0.86836 0.000381476
0.989624 0.856001 0.0011902
0.992813 0.850431 0.00166323
0.994812 0.848188 0.00192264
0.996582 0.846052 0.00215152
0.998093 0.843885 0.00231937
0.999237 0.841596 0.00247196
0.999939 0.839277 0.00257877
1 0.837018 0.00260929
0 0.543389 0.257206
0 0.543618 0.257725
0 0.543526 0.257481
0 0.543084 0.256443
0 0.541863 0.253498
0 0.535225 0.237522
0 0.532998 0.232105
0 0.531289 0.227878
0 0.529778 0.224186
0 0.528313 0.220584
0.00132753 0.532174 0.193576
0.00207523 0.533288 0.173602
0.00265507 0.53312 0.154726
0.00363165 0.534615 0.131014
0.00614939 0.545708 0.0879988
0.00886549 0.561593 0.0195468
0.0107424 0.578943 0.00640879
0.0101625 0.575738 0.0119631
0.007187 0.560128 0.0949874
0.00495918 0.554772 0.145647
0.00474556 0.557137 0.155581
0.00598154 0.565011 0.142306
0.00860609 0.57821 0.0942397
0.0143282 0.631647 0.00393683
0.63975 0.801846 0.000396735
0.982238 0.878431 0.000320439
0.990768 0.866697 0.00112917
0.993927 0.862119 0.00158694
0.99585 0.860288 0.00183108
0.997467 0.858579 0.00204471
0.998825 0.856947 0.00222782
0.99968 0.855253 0.00236515
1 0.85359 0.00242618
0 0.555978 0.286625
0 0.556222 0.28716
0 0.55613 0.286915
0 0.55584 0.28629
0 0.554864 0.284077
0 0.548913 0.270253
0 0.546212 0.263844
0 0.544442 0.259709
0 0.542916 0.256016
0 0.541466 0.252552
0.000991836 0.544488 0.232547
0.00187686 0.546395 0.210544
0.0024567 0.546685 0.192844
0.00314336 0.546578 0.170245
0.00509651 0.553994 0.140917
0.00773632 0.566522 0.0931258
0.0103761 0.5841 0.0213931
0.0115206 0.596094 0.00740063
0.0099794 0.585809 0.0481575
0.00683604 0.574121 0.140398
0.00509651 0.57023 0.173846
0.0052491 0.573754 0.176944
0.00668345 0.58265 0.160433
0.00961318 0.596689 0.102831
0.0246738 0.659327 0.00337224
0.725963 0.830076 0.00015259
0.985946 0.884245 0.000244144
0.991852 0.874922 0.00102235
0.994949 0.871504 0.00148013
0.99675 0.870008 0.00173953
0.998215 0.868803 0.0019379
0.999329 0.867475 0.00209049
1 0.866209 0.0021973
0 0.567178 0.311437
0 0.567407 0.31191
0 0.567391 0.31191
0 0.567117 0.31136
0 0.56643 0.309926
0 0.563592 0.303731
0 0.55874 0.29279
0 0.557061 0.289021
0 0.555611 0.285756
