creator/3-Post-Production/Color/LUTS/2-LOG-Looks/Pocket3/Fresh-Daily.cube
TITLE "Generated by Resolve"
LUT_3D_SIZE 5
0.026978 0.0279393 0.0319524
0.11603 0.0470436 0.0324865
0.537408 0 0
0.69189 0 0
0.69189 0 0
0.0161288 0.0456855 0.0540169
0.0209049 0.0422065 0.0383612
0.436057 0.00144961 0
0.685924 0 0
0.69189 0 0
0 0.227573 0.294835
0 0.248722 0.0583963
0.0995651 0.234638 0.019913
0.813916 0.251743 0
0.791745 0.165545 0
0 0.568582 0.723018
0 0.461402 0
0 0.447929 0
0.65539 0.740856 0
1 0.733486 0
0 0.634913 0.834501
0 0.544228 0.285725
0 0.500282 0
0 0.500282 0
0.994492 0.89929 0
0.00144961 0.0155032 0.136599
0.11545 0.0479591 0.100145
0.561929 0 0
0.698985 0 0
0.69189 0 0
0.00766003 0.0482795 0.0602426
0.0300603 0.0374914 0.0419928
0.403769 0.0291142 0
0.68867 0 0
0.69189 0 0
0 0.149218 0.430793
0 0.20351 0.255207
0.152621 0.218448 0.0153506
0.801968 0.202213 0
0.793805 0.169406 0
0 0.493126 0.783169
0 0.548119 0.681529
0 0.444343 0
0.726574 0.743587 0
0.999939 0.700267 0
0 0.611154 0.825833
0 0.624582 0.826703
0 0.500282 0
0 0.625818 0
1 0.897963 0
0 0 0.430793
0.0729839 0 0.417243
0.599893 0 0.426001
0.741115 0 0.403937
0.735515 0 0.358373
0 0 0.350072
0 0 0.312581
0.455802 0 0.317174
0.726406 0 0.273014
0.718639 0 0.189014
0 0.275486 0.393835
0 0.229236 0.297185
0.230091 0.221515 0.187884
0.785031 0.128237 0.00482185
0.78558 0.111284 0
0 0.559716 0.769009
0 0.518578 0.764782
0 0.560754 0.655894
0.755138 0.720699 0
0.991638 0.633402 0
0 0.609659 0.825086
0 0.609598 0.825055
0 0.615488 0.817105
0 0.599893 0
1 0.893965 0
0 0 0.554391
0.0310979 0 0.569177
0.652476 0 0.658808
0.796216 0 0.684962
0.792966 0 0.676829
0 0 0.545007
0 0 0.52282
0.493492 0 0.615076
0.783307 0 0.655055
0.774762 0 0.633387
0 0.250645 0.683665
0 0.16759 0.641321
0.205966 0.222446 0.673777
0.805539 0.0150912 0.672618
0.806149 0.000198367 0.590738
0 0.584817 0.782712
0 0.569894 0.73666
0 0.579141 0.681651
0.804822 0.737743 0.582834
0.960479 0.625238 0.400687
0 0.637018 0.836851
0 0.624735 0.831388
0 0.66006 0.851606
0 0.808026 0.867704
1 0.893553 0
0 0 0.554391
0.0433967 0 0.585595
0.683772 0 0.691875
0.81323 0 0.719753
0.81323 0 0.719753
0 0 0.559014
0 0 0.566629
0.527153 0 0.669047
0.81323 0 0.719753
0.81323 0 0.719753
0 0.269566 0.700938
0 0.211536 0.67602
0.203357 0.295644 0.727626
0.833875 0.228214 0.777035
0.844541 0.195621 0.77026
0 0.588342 0.816541
0 0.56936 0.811963
0 0.587045 0.831022
0.780545 0.731441 0.896406
0.946227 0.625711 0.879408
0 0.646937 0.843626
0 0.636576 0.836606
0 0.628229 0.83035
0 0.797955 0.871916
0.985779 0.954864 0.863569
