creator/3-Post-Production/Color/LUTS/2-LOG-Looks/Pocket3/Fresh-Daily.cube
TITLE "Generated by Resolve"
LUT_3D_SIZE 9
0.026978 0.0279393 0.0319524
0.0392157 0.0322423 0.0354162
0.11603 0.0470436 0.0324865
0.313726 0.0505379 0
0.537408 0 0
0.656367 0 0
0.69189 0 0
0.69189 0 0
0.69189 0 0
0.026978 0.0279393 0.0319524
0.026978 0.0279393 0.0319524
0.074342 0.0394598 0.035523
0.20238 0.052842 0.00396735
0.456413 0.000610361 0
0.634226 0 0
0.69189 0 0
0.69189 0 0
0.69189 0 0
0.0161288 0.0456855 0.0540169
0.0160525 0.0480354 0.041001
0.0209049 0.0422065 0.0383612
0.128206 0.0543526 0.0335393
0.436057 0.00144961 0
0.629725 0 0
0.685924 0 0
0.69189 0 0
0.69189 0 0
0 0.0923018 0.119478
0 0.112383 0.0579538
0 0.095613 0.0553902
0.0282902 0.0893263 0.0524147
0.328191 0.118029 0
0.664561 0.0611276 0
0.739895 0.0087129 0
0.732754 0 0
0.726024 0 0
0 0.227573 0.294835
0 0.243595 0.0597086
0 0.248722 0.0583963
0 0.273716 0.051957
0.0995651 0.234638 0.019913
0.649393 0.281453 0
0.813916 0.251743 0
0.817731 0.217395 0
0.791745 0.165545 0
0 0.436652 0.538964
0 0.417288 0.143053
0 0.414984 0
0 0.376486 0
0 0.420951 0
0.351156 0.507073 0
0.893278 0.540352 0
0.945907 0.514351 0
0.924315 0.454292 0
0 0.568582 0.723018
0 0.524193 0.365927
0 0.461402 0
0 0.456611 0
0 0.447929 0
0 0.464332 0
0.65539 0.740856 0
1 0.762753 0
1 0.733486 0
0 0.605524 0.803967
0 0.590784 0.612268
0 0.496376 0
0 0.500282 0
0 0.482704 0
0 0.490898 0
0 0.500282 0
0.875944 0.854536 0
1 0.856977 0
0 0.634913 0.834501
0 0.630335 0.764721
0 0.544228 0.285725
0 0.500282 0
0 0.500282 0
0 0.500282 0
0 0.500282 0
0 0.500282 0
0.994492 0.89929 0
0.0255283 0.030396 0.0487984
0.0368505 0.0332189 0.0466773
0.120317 0.0473793 0.0320897
0.32047 0.0498054 0
0.543328 0 0
0.658869 0 0
0.69189 0 0
0.69189 0 0
0.69189 0 0
0.026978 0.0279393 0.0319524
0.026978 0.0279393 0.0319524
0.0705272 0.038407 0.0354925
0.211963 0.0531472 0.0015259
0.476753 4.57771e-05 0
0.642176 0 0
0.69189 0 0
0.69189 0 0
0.69189 0 0
0.012253 0.0398108 0.0731212
0.0200351 0.0431067 0.0510109
0.0263066 0.0416724 0.0386053
0.151995 0.0522927 0.0287633
0.388922 0.0381323 0
0.607736 0 0
0.685679 0 0
0.69189 0 0
0.69189 0 0
0 0.0635996 0.201144
0 0.0853437 0.107424
0 0.0930648 0.0548714
0.0428626 0.0871443 0.0513161
0.350225 0.113359 0
0.675059 0.0166934 0
0.735012 0.00567636 0
0.736278 0.000259403 0
0.728542 0 0
0 0.15993 0.429023
0 0.209033 0.266011
0 0.228504 0.0614786
0 0.204837 0.0635996
0.130861 0.227985 0.0141756
0.658137 0.267369 0
0.808103 0.228687 0
0.805066 0.191501 0
0.786847 0.156374 0
0 0.366262 0.662318
0 0.418769 0.511925
0 0.394095 0.0799268
0 0.382696 0
0 0.395987 0
0.385489 0.50164 0
0.891295 0.520256 0
0.938033 0.491661 0
0.908705 0.416693 0
0 0.536538 0.785489
0 0.560693 0.705913
0 0.503578 0.279683
0 0.454902 0
0 0.441932 0
0 0.458961 0
0.689464 0.742321 0
1 0.750378 0
1 0.717678 0
0 0.598276 0.817426
0 0.604395 0.799069
0 0.577295 0.546838
0 0.489693 0
0 0.484489 0
0 0.522469 0
0 0.496406 0
0.898512 0.857252 0
1 0.852705 0
0 0.623957 0.832731
0 0.630747 0.83183
0 0.628244 0.736416
0 0.521508 0.178332
0 0.500282 0
0 0.500282 0
0 0.500282 0
0 0.500282 0
0.998718 0.899092 0
0.00144961 0.0155032 0.136599
0.0293889 0.0287785 0.119677
0.11545 0.0479591 0.100145
0.326299 0.014374 0.0581216
0.561929 0 0
0.672816 0 0
0.698985 0 0
0.69189 0 0
0.69189 0 0
0.0162814 0.0294957 0.0874952
0.0191196 0.0296025 0.0803845
0.0719463 0.0400397 0.0657816
0.230793 0.0513466 0.037644
0.49723 0 0
0.645975 0 0
0.69189 0 0
0.69189 0 0
0.69189 0 0
0.00766003 0.0482795 0.0602426
0.0176089 0.0447852 0.0531624
0.0300603 0.0374914 0.0419928
0.141756 0.0489967 0.0300908
0.403769 0.0291142 0
0.619135 0 0
0.68867 0 0
0.69189 0 0
0.69189 0 0
0 0.0903334 0.146639
0 0.0792401 0.151217
0 0.081178 0.0990921
0.0530861 0.083299 0.0498665
0.397589 0.102235 0
0.64918 0.0154269 0
0.729244 0.00450141 0
0.733318 0 0
0.723995 0 0
0 0.149218 0.430793
0 0.158862 0.400977
0 0.20351 0.255207
0 0.198383 0.063798
0.152621 0.218448 0.0153506
0.671168 0.25214 0
0.801968 0.202213 0
0.802594 0.186465 0
0.793805 0.169406 0
0 0.312032 0.672602
0 0.345953 0.640223
0 0.400824 0.48632
0 0.363653 0
0 0.383612 0
0.422461 0.497795 0
0.889632 0.499489 0
0.928252 0.464271 0
0.89337 0.381811 0
0 0.493126 0.783169
0 0.517403 0.773602
0 0.548119 0.681529
0 0.480095 0.196567
0 0.444343 0
0 0.447181 0
0.726574 0.743587 0
1 0.737362 0
0.999939 0.700267 0
0 0.584298 0.815869
0 0.592721 0.815366
0 0.598093 0.783932
0 0.557809 0.461463
0 0.481163 0
0 0.542489 0
0 0.48452 0
0.920775 0.859251 0
1 0.848173 0
0 0.611154 0.825833
0 0.617884 0.829572
0 0.624582 0.826703
0 0.621057 0.689097
0 0.500282 0
0 0.500282 0
0 0.625818 0
0 0.500282 0
1 0.897963 0
0 0 0.298817
0 0 0.279011
0.105928 0 0.261906
0.325628 3.0518e-05 0.234592
0.576806 0 0.203342
0.689128 0 0.170062
0.714961 0 0.148913
0.712596 0 0.122393
0.709972 0 0.0940261
0 0 0.227192
0 0 0.211963
0.0610666 0.00228885 0.196506
0.228641 0.0319829 0.173632
0.516014 0 0.14226
0.670878 0 0.111055
0.709911 0 0.0934615
0.708263 0 0.0582895
0.707012 0 0.0194858
0 0.0337835 0.168429
0 0.0335851 0.15172
0.0196078 0.0298619 0.136385
0.15021 0.0479133 0.117357
0.433448 0 0.0811017
0.641566 0 0.0203708
0.705211 0 0
0.704402 0 0
0.700175 0 0
0 0.10724 0.158511
0 0.0965286 0.13048
0 0.0872053 0.107378
0.0745403 0.0850843 0.0805066
0.389807 0.0846418 0.000823987
0.662608 0.00123598 0
0.728695 0 0
0.724681 0 0
0.71162 0 0
0 0.238987 0.329046
0 0.211887 0.31371
0 0.185992 0.324788
0 0.193118 0.231006
0.166812 0.206928 0.0200046
0.688457 0.213535 0
0.788098 0.187686 0
0.800961 0.183093 0
0.786084 0.15494 0
0 0.389029 0.648325
0 0.353399 0.643442
0 0.345144 0.610864
0 0.382559 0.45948
0 0.359548 0.000595102
0.434424 0.475288 0
0.882033 0.463462 0
0.908125 0.415396 0
0.885481 0.365042 0
0 0.50454 0.783536
0 0.50219 0.779248
0 0.512825 0.765515
0 0.539391 0.66363
0 0.458869 0.103899
0 0.568139 0
0.741268 0.733822 0
1 0.720714 0
0.999817 0.679423 0
0 0.58114 0.815274
0 0.585016 0.816007
0 0.591546 0.814389
0 0.596277 0.777173
0 0.543648 0.395041
0 0.491432 0
0 0.543099 0
0.939529 0.859632 0
1 0.843366 0
0 0.607523 0.824094
0 0.609567 0.825055
0 0.616541 0.828824
0 0.622156 0.824094
0 0.615427 0.657725
0 0.500282 0
0.0462043 0.65658 0
0 0.545586 0
1 0.896162 0
0 0 0.430793
0 0 0.420356
0.0729839 0 0.417243
0.330373 0 0.42504
0.599893 0 0.426001
0.716686 0 0.415061
0.741115 0 0.403937
0.738384 0 0.383001
0.735515 0 0.358373
0 0 0.380941
0 0 0.369223
0.0113069 0 0.363745
0.237797 0 0.376394
0.540963 0 0.381048
0.699367 0 0.368292
0.735225 0 0.355322
0.733501 0 0.337362
0.729885 0 0.304738
0 0 0.350072
0 0 0.332174
0 0 0.312581
0.142214 0 0.318135
0.455802 0 0.317174
0.669062 0 0.296208
0.726406 0 0.273014
0.722515 0 0.232822
0.718639 0 0.189014
0 0.0678264 0.342931
0 0.0574197 0.315206
0 0.0424506 0.295872
0.0455024 0.0784619 0.296345
0.399634 0.0501259 0.276097
0.682582 0 0.221942
0.74406 0 0.172503
0.737148 0 0.12961
0.717647 0 0.0870222
0 0.275486 0.393835
0 0.245853 0.338888
0 0.229236 0.297185
0 0.209094 0.245228
0.230091 0.221515 0.187884
0.67599 0.172519 0.0750744
0.785031 0.128237 0.00482185
0.798978 0.141512 0
0.78558 0.111284 0
0 0.456001 0.563684
0 0.424308 0.524636
0 0.403326 0.521675
0 0.374868 0.53402
0 0.415137 0.445014
0.449332 0.476478 0
0.882033 0.421195 0
0.904524 0.407568 0
0.885878 0.365866 0
0 0.559716 0.769009
0 0.538048 0.765179
0 0.518578 0.764782
0 0.511177 0.749157
0 0.560754 0.655894
0 0.540383 0
0.755138 0.720699 0
0.99852 0.692653 0
0.991638 0.633402 0
0 0.593515 0.816922
0 0.589624 0.816632
0 0.586709 0.815686
0 0.587518 0.810559
0 0.591943 0.764187
0 0.516457 0.279408
0.45951 0.728573 0
0.945861 0.854093 0
1 0.833036 0
0 0.609659 0.825086
0 0.609201 0.824872
0 0.609598 0.825055
0 0.613657 0.827222
0 0.615488 0.817105
0 0.602808 0.59559
0 0.599893 0
0.0672313 0.661051 0
1 0.893965 0
0 0 0.497688
0 0 0.49482
0.0200809 0 0.506905
0.327565 0 0.546777
0.618692 0 0.579553
0.742443 0 0.590814
0.767498 0 0.593942
0.766171 0 0.586618
0.76437 0 0.575433
0 0 0.476524
0 0 0.472023
0 0 0.48188
0.235065 0 0.515358
0.560403 0 0.555917
0.727016 0 0.569024
0.764309 0 0.575097
0.762539 0 0.563775
0.759731 0 0.543465
0 0 0.483818
0 0 0.468238
0 0 0.451362
0.124971 0 0.476524
0.47216 0 0.519783
0.699382 0 0.531975
0.756497 0 0.524071
0.751995 0 0.495018
0.74818 0 0.46334
0 0 0.517708
0 0 0.500771
0 0 0.487694
0.0124819 0.00689708 0.492897
0.393561 0 0.528359
0.706706 0 0.518151
0.769131 0 0.479469
0.75877 0 0.43032
0.737209 0 0.373953
0 0.270405 0.597162
0 0.231571 0.557
0 0.213962 0.536049
0 0.191394 0.513909
0.216419 0.229343 0.522728
0.685237 0.164294 0.486717
0.78912 0.0791638 0.404318
0.792264 0.0679026 0.343191
0.782086 0.0180819 0.282429
0 0.488853 0.649744
0 0.454749 0.592126
0 0.440253 0.553933
0 0.414435 0.499062
0 0.434577 0.456428
0.53341 0.475898 0.38204
0.861555 0.396567 0.261418
0.887541 0.375402 0.19324
0.866392 0.320912 0.113481
0 0.577798 0.737163
0 0.565194 0.704402
0 0.556649 0.691585
0 0.540398 0.679973
0 0.585138 0.716884
0.010193 0.665064 0.639704
0.748226 0.725231 0
0.999908 0.677195 0
0.998367 0.648295 0
0 0.603784 0.811154
0 0.600412 0.809735
0 0.597284 0.811124
0 0.590021 0.81001
0 0.64863 0.837034
0 0.695064 0.796521
0.198337 0.680858 9.15541e-05
0.961532 0.8589 0
1 0.821714 0
0 0.624231 0.832837
0 0.617792 0.829526
0 0.61268 0.826673
0 0.609827 0.825162
0 0.653788 0.850187
0 0.674296 0.842618
0 0.653361 0.514641
0.785016 0.842542 0
1 0.891386 0
0 0 0.554391
0 0 0.554681
0.0310979 0 0.569177
0.344579 0 0.617197
0.652476 0 0.658808
0.774777 0 0.677073
0.796216 0 0.684962
0.795316 0 0.682445
0.792966 0 0.676829
0 0 0.535943
0 0 0.532418
0 0 0.546761
0.248631 0 0.588449
0.590875 0 0.642054
0.759304 0 0.665217
0.792569 0 0.675944
0.789776 0 0.669703
0.786191 0 0.661448
0 0 0.545007
0 0 0.531472
0 0 0.52282
0.1243 0 0.553567
0.493492 0 0.615076
0.726574 0 0.644862
0.783307 0 0.655055
0.779187 0 0.646189
0.774762 0 0.633387
0 0 0.591867
0 0 0.5823
0 0 0.573938
0 0.00111391 0.590707
0.393088 0 0.645563
0.723323 0 0.672068
0.793469 0 0.661448
0.777859 0 0.624628
0.767712 0 0.595178
0 0.250645 0.683665
0 0.198749 0.656855
0 0.16759 0.641321
0 0.142596 0.636637
0.205966 0.222446 0.673777
0.671244 0.14313 0.699092
0.805539 0.0150912 0.672618
0.812741 0 0.637171
0.806149 0.000198367 0.590738
0 0.491798 0.763348
0 0.457877 0.740383
0 0.441535 0.728176
0 0.411261 0.705196
0 0.437232 0.721187
0.523186 0.478737 0.734874
0.856931 0.402777 0.687556
0.886152 0.384054 0.616693
0.868208 0.328176 0.541924
0 0.584817 0.782712
0 0.575738 0.758618
0 0.569894 0.73666
0 0.560739 0.708247
0 0.579141 0.681651
1.5259e-05 0.670588 0.648676
0.804822 0.737743 0.582834
0.964019 0.671122 0.473564
0.960479 0.625238 0.400687
0 0.607874 0.808591
0 0.605295 0.797635
0 0.602396 0.788891
0 0.598245 0.776165
0 0.621515 0.784131
0 0.742718 0.828138
0.520928 0.845502 0.793011
0.905303 0.839673 0.172549
1 0.813519 0
0 0.637018 0.836851
0 0.627482 0.831998
0 0.624735 0.831388
0 0.619226 0.829084
0 0.66006 0.851606
0 0.753353 0.881865
0 0.808026 0.867704
0.560662 0.805219 0.311986
1 0.893553 0
0 0 0.554391
0 0 0.559655
0.0355993 0 0.584665
0.357565 0 0.642969
0.6757 0 0.690898
0.795468 0 0.710658
0.81323 0 0.719753
0.81323 0 0.719753
0.81323 0 0.719753
0 0 0.554391
0 0 0.554391
0 0 0.576181
0.266804 0 0.625986
0.617761 0 0.683101
0.785504 0 0.707927
0.81323 0 0.719753
0.81323 0 0.719753
0.81323 0 0.719753
0 0 0.567742
0 0 0.556313
0 0 0.565087
0.148013 0 0.602594
0.52137 0 0.668147
0.760296 0 0.702541
0.81323 0 0.719753
0.81323 0 0.719753
0.81323 0 0.719753
0 0 0.613382
0 0 0.609201
0 0 0.605402
0 0.11194 0.639704
0.406317 0.168673 0.702403
0.734081 0.00843824 0.729458
0.814923 0.000122072 0.733837
0.809812 0 0.713191
0.800381 0 0.695262
0 0.284245 0.706279
0 0.245762 0.692271
0 0.225193 0.682841
0 0.223468 0.692317
0.181598 0.304448 0.73048
0.685512 0.287877 0.776944
0.827741 0.189197 0.765103
0.831327 0.0849928 0.748592
0.824811 0 0.727733
0 0.489357 0.784909
0 0.462394 0.776364
0 0.445151 0.769497
0 0.412436 0.756832
0 0.442802 0.786664
0.517311 0.486122 0.817014
0.850706 0.413123 0.818967
0.889296 0.377569 0.801373
0.871611 0.311467 0.76582
0 0.591165 0.815213
0 0.579049 0.81001
0 0.572808 0.805905
0 0.561456 0.79942
0 0.581048 0.811658
0 0.679057 0.840452
0.788556 0.732219 0.865675
0.949371 0.671962 0.833097
0.947753 0.627787 0.7794
0 0.615747 0.82501
0 0.608316 0.815366
0 0.604837 0.80827
0 0.604639 0.802716
0 0.599207 0.786084
0 0.694347 0.805737
0.388998 0.833646 0.789822
0.937011 0.892073 0.747768
0.999039 0.860517 0.662135
0 0.644724 0.841047
0 0.635355 0.833829
0 0.63061 0.829435
0 0.628214 0.826978
0 0.61976 0.817914
0 0.704814 0.8542
0.174746 0.851591 0.879026
0.801678 0.933837 0.88751
0.974945 0.912902 0.502953
0 0 0.554391
0 0 0.560555
0.0433967 0 0.585595
0.367285 0 0.644495
0.683772 0 0.691875
0.797421 0 0.711238
0.81323 0 0.719753
0.81323 0 0.719753
0.81323 0 0.719753
0 0 0.554391
0 0 0.554391
0 0 0.576684
0.275776 0 0.627863
0.626291 0 0.684321
0.787961 0 0.708583
0.81323 0 0.719753
0.81323 0 0.719753
0.81323 0 0.719753
0 0 0.559014
0 0 0.554391
0 0 0.566629
0.158328 0 0.60441
0.527153 0 0.669047
0.761242 0 0.702739
0.81323 0 0.719753
0.81323 0 0.719753
0.81323 0 0.719753
0 0 0.611505
0 0 0.607507
0 0 0.603876
0 0.113039 0.639094
0.409354 0.161761 0.700389
0.731075 4.57771e-05 0.726589
0.812131 0 0.728695
0.81323 0 0.719753
0.81323 0 0.719753
0 0.269566 0.700938
0 0.231937 0.686213
0 0.211536 0.67602
0 0.212467 0.688838
0.203357 0.295644 0.727626
0.679515 0.282734 0.774838
0.833875 0.228214 0.777035
0.852399 0.233234 0.779309
0.844541 0.195621 0.77026
0 0.477699 0.780529
0 0.449805 0.772427
0 0.432166 0.766201
0 0.401785 0.754391
0 0.447089 0.791897
0.520531 0.501793 0.826169
0.852781 0.459724 0.84036
0.904707 0.444251 0.838941
0.894347 0.399985 0.826886
0 0.588342 0.816541
0 0.575982 0.814282
0 0.56936 0.811963
0 0.558511 0.808194
0 0.587045 0.831022
0 0.680385 0.859541
0.780545 0.731441 0.896406
0.945724 0.682002 0.894942
0.946227 0.625711 0.879408
0 0.619867 0.83061
0 0.613718 0.827253
0 0.609079 0.824826
0 0.607141 0.82388
0 0.601572 0.819028
0 0.702708 0.8663
0.422049 0.843595 0.894102
0.924788 0.892119 0.920745
0.987655 0.862562 0.90692
0 0.646937 0.843626
0 0.646937 0.843626
0 0.636576 0.836606
0 0.632044 0.833402
0 0.628229 0.83035
0 0.684108 0.851545
0 0.797955 0.871916
0.728664 0.92462 0.885771
0.985779 0.954864 0.863569
