creator/3-Post-Production/Color/LUTS/2-LOG-Looks/Pocket3/Fresh-Daily.cube
TITLE "Generated by Resolve"
LUT_3D_SIZE 33
0.026978 0.0279393 0.0319524
0.026978 0.0279393 0.0319524
0.026978 0.0279393 0.0319524
0.030457 0.0296788 0.0343938
0.0392157 0.0322423 0.0354162
0.0493477 0.0343175 0.0354162
0.0684062 0.0378119 0.035462
0.0857557 0.043122 0.0348058
0.11603 0.0470436 0.0324865
0.15729 0.0503548 0.0261234
0.198459 0.0526894 0.00639353
0.250278 0.0541238 0
0.313726 0.0505379 0
0.376577 0.0407416 0
0.432303 0.004654 0
0.487053 0 0
0.537408 0 0
0.578393 0 0
0.610391 0 0
0.636957 0 0
0.656367 0 0
0.671412 0 0
0.682582 0 0
0.691325 0 0
0.69189 0 0
0.69189 0 0
0.69189 0 0
0.69189 0 0
0.69189 0 0
0.69189 0 0
0.69189 0 0
0.69189 0 0
0.69189 0 0
0.026978 0.0279393 0.0319524
0.026978 0.0279393 0.0319524
0.026978 0.0279393 0.0319524
0.026978 0.0279393 0.0319524
0.0365301 0.030869 0.03505
0.0430152 0.0332494 0.0354467
0.058854 0.0354772 0.0354009
0.0771801 0.0403601 0.0353704
0.0995651 0.045243 0.0337987
0.139101 0.0487984 0.0303349
0.179065 0.0519875 0.0183261
0.224811 0.0535439 0.000976577
0.283436 0.0528725 0
0.34818 0.0467536 0
0.408499 0.0250553 0
0.46511 0.000366217 0
0.520699 0 0
0.565744 0 0
0.601587 0 0
0.629847 0 0
0.651804 0 0
0.667872 0 0
0.680049 0 0
0.689036 0 0
0.69189 0 0
0.69189 0 0
0.69189 0 0
0.69189 0 0
0.69189 0 0
0.69189 0 0
0.69189 0 0
0.69189 0 0
0.69189 0 0
0.026978 0.0279393 0.0319524
0.026978 0.0279393 0.0319524
0.026978 0.0279393 0.0319524
0.026978 0.0279393 0.0319524
0.0320439 0.0300603 0.0347601
0.040238 0.0326543 0.035462
0.0497597 0.0343633 0.0354162
0.0678111 0.037644 0.035462
0.0851148 0.0429084 0.0348516
0.114519 0.0469368 0.032639
0.1561 0.050248 0.0264439
0.197436 0.0526589 0.00700389
0.250278 0.0541238 0
0.316899 0.0501869 0
0.383948 0.0391852 0
0.444923 0.0009308 0
0.507439 0 0
0.557717 0 0
0.595728 0 0
0.626093 0 0
0.649516 0 0
0.666331 0 0
0.679164 0 0
0.688304 0 0
0.69189 0 0
0.69189 0 0
0.69189 0 0
0.69189 0 0
0.69189 0 0
0.69189 0 0
0.69189 0 0
0.69189 0 0
0.69189 0 0
0.026978 0.0279393 0.0319524
0.026978 0.0279393 0.0319524
0.026978 0.0279393 0.0319524
0.026978 0.0279393 0.0319524
0.026978 0.0279393 0.0319524
0.0357519 0.0307317 0.0350042
0.0452888 0.033753 0.0354314
0.0651408 0.0369116 0.0354314
0.0800793 0.0412909 0.0351873
0.0994736 0.0452277 0.033814
0.134691 0.0484627 0.0307469
0.175128 0.0518502 0.020737
0.22237 0.0534676 0.00108339
0.285359 0.0527962 0
0.355367 0.0452277 0
0.419593 0.0155642 0
0.48072 0 0
0.536751 0 0
0.581018 0 0
0.614954 0 0
0.641611 0 0
0.66125 0 0
0.675761 0 0
0.685832 0 0
0.69189 0 0
0.69189 0 0
0.69189 0 0
0.69189 0 0
0.69189 0 0
0.69189 0 0
0.69189 0 0
0.69189 0 0
0.69189 0 0
0.026978 0.0279393 0.0319524
0.026978 0.0279393 0.0319524
0.026978 0.0279393 0.0319524
0.026978 0.0279393 0.0319524
0.026978 0.0279393 0.0319524
0.026978 0.0279393 0.0319524
0.0383917 0.0314794 0.0352178
0.0498207 0.0343786 0.0354162
0.074342 0.0394598 0.035523
0.0973983 0.0449683 0.0339666
0.130907 0.0481727 0.0310979
0.16492 0.0510262 0.0240635
0.20238 0.052842 0.00396735
0.256413 0.0538949 0
0.325032 0.0493172 0
0.394461 0.0369726 0
0.456413 0.000610361 0
0.517937 0 0
0.566796 0 0
0.6047 0 0
0.634226 0 0
0.655833 0 0
0.671824 0 0
0.683299 0 0
0.69189 0 0
0.69189 0 0
0.69189 0 0
0.69189 0 0
0.69189 0 0
0.69189 0 0
0.69189 0 0
0.69189 0 0
0.69189 0 0
0.026978 0.0279393 0.0319524
0.0267338 0.0294041 0.0327001
0.026627 0.0314183 0.0339361
0.0269322 0.0282444 0.032105
0.0266117 0.0311589 0.0337682
0.026978 0.0279393 0.0319524
0.0289464 0.0292668 0.0339361
0.0393683 0.0323949 0.0354467
0.0553597 0.03505 0.0354009
0.0803235 0.0413672 0.035172
0.115404 0.0469978 0.0325475
0.163836 0.0509346 0.0243534
0.206592 0.0529793 0.00175479
0.256977 0.0538643 0
0.315511 0.0503395 0
0.377859 0.0404822 0
0.437537 0.00112917 0
0.498482 0 0
0.553185 0 0
0.593851 0 0
0.626154 0 0
0.65069 0 0
0.667979 0 0
0.680751 0 0
0.69015 0 0
0.69189 0 0
0.69189 0 0
0.69189 0 0
0.69189 0 0
0.69189 0 0
0.69189 0 0
0.69189 0 0
0.69189 0 0
0.0261997 0.0321508 0.0382086
0.0255894 0.0345159 0.0352026
0.0224918 0.0388952 0.0367132
0.0243992 0.0364691 0.0358892
0.0256504 0.0343633 0.0351415
0.0225986 0.0387732 0.0366674
0.0266423 0.0299535 0.03299
0.0340124 0.0304265 0.0349126
0.0430915 0.0332647 0.0354467
0.0632334 0.0363775 0.0354162
0.0863661 0.0433204 0.0347601
0.135576 0.0485237 0.0306706
0.190723 0.0524147 0.0111391
0.255253 0.0539406 0
0.32781 0.049012 0
0.390585 0.0377813 0
0.442786 0.000991836 0
0.49601 0 0
0.54609 0 0
0.586267 0 0
0.619593 0 0
0.645258 0 0
0.664134 0 0
0.678248 0 0
0.687922 0 0
0.69189 0 0
0.69189 0 0
0.69189 0 0
0.69189 0 0
0.69189 0 0
0.69189 0 0
0.69189 0 0
0.69189 0 0
0.0226444 0.0392157 0.0475471
0.0211948 0.0408789 0.0375067
0.0206912 0.0432288 0.0390021
0.0205692 0.0437934 0.0393683
0.0209812 0.0418708 0.0381323
0.0207828 0.042771 0.0387121
0.0205386 0.0439155 0.0394446
0.024918 0.0357824 0.0356603
0.0386358 0.0351263 0.0369573
0.049546 0.0367285 0.0365454
0.0729534 0.0396582 0.0357519
0.0996567 0.045243 0.0337987
0.154681 0.0501259 0.0268254
0.21912 0.0533608 0.00122072
0.304006 0.0515755 0
0.38819 0.0383001 0
0.454932 0.000656138 0
0.512993 0 0
0.557412 0 0
0.591348 0 0
0.620508 0 0
0.643824 0 0
0.662135 0 0
0.676341 0 0
0.686152 0 0
0.69189 0 0
0.69189 0 0
0.69189 0 0
0.69189 0 0
0.69189 0 0
0.69189 0 0
0.69189 0 0
0.69189 0 0
0.0161288 0.0456855 0.0540169
0.019501 0.0452888 0.0420539
0.016083 0.0480049 0.041001
0.0137636 0.0501259 0.0417945
0.0160525 0.0480354 0.041001
0.0184482 0.0458534 0.040177
0.014313 0.0496223 0.0415961
0.0139773 0.0499275 0.0417182
0.0209049 0.0422065 0.0383612
0.0413367 0.0442054 0.0396429
0.0645304 0.0460365 0.0391089
0.088838 0.0504463 0.0373846
0.128206 0.0543526 0.0335393
0.187045 0.0556954 0.018616
0.257862 0.0560922 0
0.351492 0.0460517 0
0.436057 0.00144961 0
0.510063 0 0
0.565103 0 0
0.602869 0 0
0.629725 0 0
0.649973 0 0
0.664851 0 0
0.677211 0 0
0.685924 0 0
0.69189 0 0
0.69189 0 0
0.69189 0 0
0.69189 0 0
0.69189 0 0
0.69189 0 0
0.69189 0 0
0.69189 0 0
0.00404364 0.0518196 0.0614786
0.00863661 0.0523079 0.0513161
0.0075227 0.0558633 0.0433356
0.00143435 0.0614481 0.044831
0.00180056 0.0611124 0.0447395
0.00741588 0.0559548 0.0433509
0.00973526 0.0538186 0.0427863
0.00015259 0.0630045 0.0452735
0.00148013 0.0614023 0.0448157
0.0266117 0.0485542 0.0422522
0.0508888 0.0512703 0.0424353
0.0803082 0.0556191 0.0408026
0.109636 0.0617685 0.0385443
0.167529 0.0655222 0.0302892
0.232761 0.0694285 0.00192264
0.323629 0.067277 0
0.424704 0.0525978 0
0.504784 0.000122072 0
0.569467 0 0
0.608072 0 0
0.633921 0 0
0.655619 0 0
0.67039 0 0
0.680674 0 0
0.688304 0 0
0.69189 0 0
0.69189 0 0
0.69189 0 0
0.69189 0 0
0.69189 0 0
0.69189 0 0
0.69189 0 0
0.69189 0 0
1.5259e-05 0.0612192 0.0743725
0.000549325 0.064271 0.0604868
0.000106813 0.0666514 0.0464637
3.0518e-05 0.0730602 0.0485542
0 0.0756847 0.049424
6.10361e-05 0.0707408 0.0477913
0.000122072 0.0660563 0.0462654
7.62951e-05 0.0697032 0.0474556
0 0.0776226 0.0501564
1.5259e-05 0.0738384 0.0488136
0.0325322 0.0590219 0.0450599
0.0684062 0.0599527 0.0439002
0.0965896 0.0659953 0.0424964
0.142382 0.0717937 0.0371099
0.21062 0.0765087 0.0191501
0.289281 0.0815747 0.000106813
0.392218 0.0791791 0
0.48893 0.0654459 0
0.570794 0.00508125 0
0.62771 0 0
0.662196 0 0
0.682918 0 0
0.694621 0 0
0.701411 0 0
0.705867 0 0
0.70341 0 0
0.700893 0 0
0.698207 0 0
0.695216 0 0
0.69189 0 0
0.69189 0 0
0.69189 0 0
0.69189 0 0
0 0.075761 0.0946822
0 0.0786603 0.0714275
0 0.0802319 0.0549172
0 0.0847028 0.052781
0 0.0906691 0.0543984
0 0.0870069 0.0536507
0 0.0823377 0.0519112
0 0.0781262 0.0503395
0 0.0870527 0.053666
0 0.0949874 0.0552682
0 0.0862287 0.0533608
0.0273594 0.0737011 0.0485389
0.0859236 0.0767376 0.0455177
0.121431 0.0829633 0.0419776
0.187121 0.0879225 0.0299992
0.261845 0.093431 0.00111391
0.358282 0.0960861 0
0.462119 0.0913863 0
0.548852 0.0737316 0
0.622034 0.0164645 0
0.668376 0.00274662 0
0.696925 0 0
0.71252 0 0
0.721355 0 0
0.726467 0 0
0.723827 0 0
0.721431 0 0
0.719326 0 0
0.717388 0 0
0.715663 0 0
0.713909 0 0
0.711986 0 0
0.709575 0 0
0 0.0923018 0.119478
0 0.0937972 0.089601
0 0.0975204 0.0702373
0 0.101991 0.056672
0 0.112383 0.0579538
0 0.114305 0.0581216
0 0.103899 0.0570535
0 0.0969558 0.0556649
0 0.095613 0.0553902
0 0.116518 0.05832
0 0.123156 0.0589151
0 0.105852 0.0573739
0.0282902 0.0893263 0.0524147
0.105959 0.0963455 0.0468605
0.163531 0.103197 0.0388952
0.238895 0.110048 0.0103456
0.328191 0.118029 0
0.436637 0.120378 0
0.529656 0.115526 0
0.608362 0.0968643 0
0.664561 0.0611276 0
0.699611 0.0260929 0
0.720974 0.00802625 0
0.733257 0.00801099 0
0.739895 0.0087129 0
0.739681 0.00546273 0
0.737179 0.00163272 0
0.734874 0 0
0.732754 0 0
0.730861 0 0
0.729137 0 0
0.727581 0 0
0.726024 0 0
0 0.112993 0.148165
0 0.116533 0.11516
0 0.123491 0.0826429
0 0.127382 0.0592813
0 0.141009 0.0607156
0 0.148409 0.0615244
0 0.138598 0.0604562
0 0.130388 0.059556
0 0.11931 0.0585641
0 0.128832 0.0594186
0 0.153613 0.062089
0 0.157031 0.0624094
0 0.134096 0.059968
0.0432136 0.111208 0.0551614
0.140337 0.117784 0.0461738
0.217243 0.125383 0.021912
0.3019 0.135882 6.10361e-05
0.407752 0.143923 0
0.514458 0.146288 0
0.59762 0.140063 0
0.66363 0.126955 0
0.704219 0.109468 0
0.730022 0.0857557 0
0.744717 0.0781109 0
0.752926 0.0765087 0
0.755657 0.0637522 0
0.751873 0.0431678 0
0.748486 0.0247807 0
0.745754 0.014786 0
0.743633 0.0115206 0
0.741756 0.00866712 0
0.740017 0.0059968 0
0.738491 0.00364691 0
0 0.14313 0.187076
0 0.1505 0.145785
0 0.156985 0.100999
0 0.161685 0.0691844
0 0.171389 0.0635386
0 0.182879 0.064271
0 0.180285 0.0642405
0 0.167956 0.0632639
0 0.157641 0.0624552
0 0.149905 0.061677
0 0.171389 0.0635386
0 0.192844 0.0639658
0 0.193072 0.0639658
0 0.164111 0.062974
0.0576181 0.1458 0.0544442
0.19115 0.151308 0.0330663
0.279362 0.161303 0.00257877
0.379187 0.172335 0
0.493095 0.178744 0
0.587015 0.178271 0
0.662058 0.168933 0
0.711971 0.15787 0
0.742046 0.1467 0
0.761166 0.1411 0
0.771878 0.138598 0
0.776989 0.139086 0
0.773526 0.127031 0
0.768322 0.113588 0
0.763531 0.101213 0
0.759564 0.084947 0
0.756237 0.066865 0
0.75314 0.0500343 0
0.750439 0.0353704 0
0 0.183444 0.237644
0 0.189517 0.182055
0 0.194781 0.130999
0 0.200793 0.0873732
0 0.204837 0.0635996
0 0.21976 0.0624094
0 0.224826 0.0618601
0 0.209476 0.0634623
0 0.200198 0.0637369
0 0.185946 0.0641794
0 0.18674 0.0641489
0 0.219898 0.0623941
0 0.238239 0.0604257
0 0.234577 0.0608225
0 0.196246 0.063859
0.0756085 0.187381 0.0473793
0.251133 0.199878 0.00158694
0.353079 0.214374 0
0.467002 0.223713 0
0.5738 0.228107 0
0.657008 0.223377 0
0.71928 0.213352 0
0.755871 0.202258 0
0.778592 0.19295 0
0.791775 0.188571 0
0.799435 0.18706 0
0.801205 0.183597 0
0.794491 0.170703 0
0.78822 0.158953 0
0.782406 0.148058 0
0.777188 0.136492 0
0.77261 0.124666 0
0.768246 0.113405 0
0 0.227573 0.294835
0 0.23444 0.232044
0 0.238437 0.16585
0 0.24387 0.102235
0 0.243595 0.0597086
0 0.261616 0.0550698
0 0.272801 0.0521859
0 0.264775 0.0542611
0 0.248722 0.0583963
0 0.23508 0.0607614
0 0.221027 0.0622721
0 0.23508 0.0607614
0 0.273716 0.051957
0 0.285832 0.0471809
0 0.278294 0.0504311
0 0.23566 0.0608988
0.0995651 0.234638 0.019913
0.319966 0.256504 0
0.438911 0.27071 0
0.556741 0.27982 0
0.649393 0.281453 0
0.722972 0.275517 0
0.770153 0.266896 0
0.797482 0.257527 0
0.813916 0.251743 0
0.823331 0.247807 0
0.828412 0.245853 0
0.825315 0.23415 0
0.817731 0.217395 0
0.810498 0.202594 0
0.803586 0.188479 0
0.79733 0.176013 0
0.791745 0.165545 0
0 0.275471 0.354314
0 0.284932 0.288884
0 0.289097 0.206165
0 0.292439 0.128664
0 0.294102 0.064744
0 0.301625 0.0403449
0 0.314366 0.0285191
0 0.313619 0.0295262
0 0.29749 0.0421302
0 0.287404 0.0464942
0 0.271214 0.0525978
0 0.263722 0.0545357
0 0.290318 0.0452277
0 0.320409 0.0203555
0 0.327001 0.01149
0 0.317021 0.0249485
0 0.283543 0.0471351
0.148272 0.294484 3.0518e-05
0.395941 0.319097 0
0.532128 0.332143 0
0.638865 0.338704 0
0.721675 0.336172 0
0.781765 0.329961 0
0.816388 0.321218 0
0.83743 0.314122 0
0.848692 0.31043 0
0.855543 0.309712 0
0.858518 0.308141 0
0.851164 0.292378 0
0.843046 0.274983 0
0.834928 0.256291 0
0.826978 0.23801 0
0.819547 0.221088 0
0 0.331807 0.417029
0 0.339727 0.347204
0 0.343511 0.257298
0 0.342123 0.165713
0 0.340887 0.0855268
0 0.335698 0.00112917
0 0.348257 0.000595102
0 0.353902 0.000350958
0 0.341024 0.000900282
0 0.331456 0.00547799
0 0.319875 0.0210727
0 0.30576 0.0385595
0 0.308736 0.0361028
0 0.338888 0.000991836
0 0.361242 3.0518e-05
0 0.364538 0
0 0.351232 0.000457771
0 0.332738 0.00395209
0.21323 0.364096 0
0.479744 0.390478 0
0.621805 0.401907 0
0.714305 0.404501 0
0.787213 0.399161 0
0.832746 0.390677 0
0.859037 0.381125 0
0.874571 0.375265 0
0.883009 0.372335 0
0.887587 0.372656 0
0.885679 0.365454 0
0.87834 0.350088 0
0.87013 0.332891 0
0.86154 0.314611 0
0.852674 0.295613 0
0 0.38706 0.478996
0 0.396292 0.409598
0 0.394858 0.316472
0 0.387366 0.206546
0 0.379812 0.104021
0 0.3682 0
0 0.381109 0
0 0.389563 0
0 0.385946 0
0 0.371252 0
0 0.362875 0
0 0.348898 0.000564584
0 0.338369 0.00102235
0 0.35082 0.00047303
0 0.382498 0
0 0.396078 0
0 0.396811 0
0 0.383093 0
0 0.379934 0
0.280217 0.437263 0
0.568704 0.468437 0
0.701732 0.477348 0
0.785168 0.476616 0
0.844114 0.469963 0
0.877775 0.458854 0
0.898268 0.449561 0
0.90901 0.443763 0
0.915343 0.441093 0
0.918608 0.439796 0
0.912428 0.425208 0
0.90544 0.409293 0
0.89778 0.391836 0
0.889189 0.372824 0
0 0.436652 0.538964
0 0.442344 0.467979
0 0.440085 0.376135
0 0.430076 0.257282
0 0.417288 0.143053
0 0.405142 0.00349432
0 0.407858 0
0 0.413962 0
0 0.414984 0
0 0.405509 0
0 0.398749 0
0 0.389654 0
0 0.376486 0
0 0.372824 0
0 0.392004 0
0 0.414145 0
0 0.420951 0
0 0.420172 0
0 0.408591 0
0 0.42826 0
0.351156 0.507073 0
0.654185 0.544411 0
0.775296 0.550301 0
0.848737 0.548363 0
0.893278 0.540352 0
0.91928 0.52961 0
0.934401 0.522148 0
0.942214 0.51696 0
0.945907 0.514351 0
0.944198 0.505028 0
0.93817 0.489479 0
0.931533 0.472602 0
0.924315 0.454292 0
0 0.478431 0.593011
0 0.483162 0.526085
0 0.481285 0.433799
0 0.469322 0.315877
0 0.451942 0.189822
0 0.434775 0.064622
0 0.425528 0
0 0.430549 0
0 0.433341 0
0 0.430198 0
0 0.423484 0
0 0.418448 0
0 0.410498 0
0 0.401358 0
0 0.404532 0
0 0.42208 0
0 0.433738 0
0 0.43679 0
0 0.435554 0
0 0.425696 0
0 0.476616 0
0.424399 0.575067 0
0.728206 0.611658 0
0.841627 0.615244 0
0.901015 0.612833 0
0.934768 0.603784 0
0.95581 0.596216 0
0.966766 0.591394 0
0.972457 0.587686 0
0.975265 0.585519 0
0.969619 0.571008 0
0.963729 0.55584 0
0.957275 0.539071 0
0 0.518212 0.642222
0 0.519722 0.579492
0 0.516564 0.491218
0 0.502403 0.37789
0 0.479713 0.240955
0 0.455848 0.105165
0 0.438132 0
0 0.442573 0
0 0.44567 0
0 0.444846 0
0 0.4392 0
0 0.436362 0
0 0.431739 0
0 0.425437 0
0 0.421302 0
0 0.427161 0
0 0.439796 0
0 0.446815 0
0 0.448447 0
0 0.446693 0
0 0.437995 0
0 0.521523 0
0.500648 0.639597 0
0.79321 0.675608 0
0.897795 0.676249 0
0.942916 0.671366 0
0.969818 0.662684 0
0.985504 0.656901 0
0.994858 0.6533 0
0.995468 0.649622 0
0.99382 0.642359 0
0.990845 0.630167 0
0.987823 0.617777 0
0 0.547692 0.687022
0 0.547723 0.628061
0 0.542367 0.547311
0 0.528023 0.438437
0 0.502846 0.300496
0 0.474937 0.160891
0 0.454108 0
0 0.452171 0
0 0.454566 0
0 0.455406 0
0 0.452216 0
0 0.448737 0
0 0.446052 0
0 0.441642 0
0 0.436713 0
0 0.436042 0
0 0.443091 0
0 0.452735 0
0 0.456809 0
0 0.457572 0
0 0.455604 0
0 0.447715 0
0 0.561624 0
0.5785 0.695171 0
0.851575 0.733257 0
0.942702 0.73315 0
0.977768 0.726879 0
0.995346 0.718791 0
1 0.71136 0
1 0.704845 0
0.999939 0.70042 0
0.999878 0.690105 0
0.999817 0.679255 0
0 0.568582 0.723018
0 0.566949 0.671885
0 0.560235 0.59852
0 0.547692 0.49633
0 0.524193 0.365927
0 0.495125 0.221424
0 0.470054 0.0782483
0 0.459281 0
0 0.461402 0
0 0.462837 0
0 0.461814 0
0 0.458412 0
0 0.456611 0
0 0.453773 0
0 0.449882 0
0 0.446387 0
0 0.447929 0
0 0.455222 0
0 0.461555 0
0 0.464088 0
0 0.464332 0
0 0.462196 0
0 0.455528 0
0.011841 0.598062 0
0.65539 0.740856 0
0.902739 0.779522 0
0.978347 0.779828 0
0.998566 0.772335 0
1 0.762753 0
1 0.75555 0
1 0.750622 0
1 0.743664 0
1 0.733486 0
0 0.581384 0.750027
0 0.579248 0.708598
0 0.575357 0.644358
0 0.56434 0.553643
0 0.544549 0.432822
0 0.515221 0.285756
0 0.485298 0.135027
0 0.465278 0
0 0.467811 0
0 0.470436 0
0 0.4701 0
0 0.466178 0
0 0.464088 0
0 0.462287 0
0 0.459663 0
0 0.456504 0
0 0.454932 0
0 0.457969 0
0 0.464134 0
0 0.469825 0
0 0.47248 0
0 0.472282 0
0 0.468742 0
0 0.486839 0
0.0741131 0.632898 0
0.723323 0.778561 0
0.944457 0.814527 0
0.99852 0.812512 0
1 0.80264 0
1 0.796002 0
1 0.791119 0
1 0.788006 0
1 0.780621 0
0 0.591287 0.77113
0 0.591989 0.741466
0 0.586679 0.687022
0 0.578439 0.608087
0 0.560021 0.494606
0 0.534417 0.355032
0 0.503258 0.204883
0 0.475914 0.00325017
0 0.47631 0
0 0.479423 0
0 0.480995 0
0 0.478462 0
0 0.472999 0
0 0.470848 0
0 0.467781 0
0 0.464714 0
0 0.461982 0
0 0.461906 0
0 0.465904 0
0 0.47422 0
0 0.480964 0
0 0.483253 0
0 0.482506 0
0 0.477424 0
0 0.515709 0
0.23978 0.66833 0
0.780224 0.809567 0
0.976669 0.841886 0
1 0.833188 0
1 0.82623 0
1 0.821347 0
1 0.817838 0
1 0.814252 0
0 0.600504 0.791485
0 0.599847 0.765179
0 0.597513 0.72488
0 0.590738 0.655161
0 0.575357 0.554025
0 0.553964 0.427161
0 0.525704 0.282139
0 0.500313 0.147906
0 0.486259 0
