creator/6-Editing/New LUTS/2-LOG-Looks/Pocket3/Base-Normalization.cube
TITLE "Generated by Resolve"
LUT_3D_SIZE 9
0.0272679 0.0278325 0.0320897
0.0392157 0.0322728 0.0352941
0.143984 0.0496834 0.0276951
0.396765 0.0311284 0
0.570321 0.00125124 0
0.647272 0.00141909 0
0.675074 0.00148013 0
0.678187 0.00149538 0
0.678187 0.00149538 0
0.0198215 0.0404212 0.0342718
0.0296635 0.0390021 0.0375372
0.124102 0.0528878 0.0322423
0.356268 0.0517128 0
0.548531 0.00120546 0
0.633906 0.00138857 0
0.670741 0.00148013 0
0.678187 0.00149538 0
0.678187 0.00149538 0
0 0.0842298 0.0194247
0 0.0747997 0.0230411
0.0545357 0.0776226 0.0325628
0.36347 0.100343 0
0.64097 0.0130159 0
0.708156 0.00239567 0
0.730297 0.0087129 0
0.733028 0.00642405 0
0.726513 0.0016022 0
0.0146029 0.232517 0
0.00593576 0.203342 0
0.0117647 0.220066 0
0.207965 0.241306 0
0.679652 0.285069 0
0.805386 0.27538 0
0.822919 0.258167 0
0.812665 0.228061 0
0.80531 0.21178 0
0.119738 0.445747 0
0.110048 0.418982 0
0.118669 0.442832 0
0.136233 0.491981 0
0.58967 0.573343 0
0.902541 0.591791 0
0.94757 0.580484 0
0.94136 0.541207 0
0.919676 0.481865 0
0.156939 0.552056 0
0.154437 0.544579 0
0.157702 0.554391 0
0.195682 0.682368 0
0.186084 0.648951 0
0.871763 0.790402 0
0.978378 0.780789 0
0.978469 0.761563 0
0.978576 0.739971 0
0.168292 0.587625 0
0.167971 0.586542 0
0.166155 0.580636 0
0.194736 0.679103 0
0.471962 0.758877 0
0.216876 0.756146 0
0.978393 0.867338 0
0.978332 0.848493 0
0.978332 0.841535 0
0.171603 0.612985 0
0.171801 0.61268 0
0.172366 0.606744 0
0.193133 0.673518 0
0.459922 0.777615 0
0.489433 0.772442 0
0.475288 0.775402 0
0.9785 0.883772 0
0.978454 0.877317 0
0.169238 0.620005 0
0.169238 0.620005 0
0.169238 0.620005 0
0.187442 0.658106 0
0.245228 0.786816 0
0.691905 0.812543 0
0.499153 0.776318 0
0.621958 0.794079 0
0.978546 0.888991 0
0.0268254 0.0299535 0.0499886
0.0375067 0.0333562 0.050309
0.144183 0.0508736 0.0437476
0.400153 0.00204471 0
0.576974 0.0012665 0
0.654124 0.00143435 0
0.680949 0.00149538 0
0.682551 0.00149538 0
0.680415 0.00149538 0
0.0221714 0.0405737 0.0503243
0.0311131 0.038819 0.0476997
0.101411 0.0513466 0.041886
0.348562 0.046067 0
0.545541 0.00120546 0
0.633936 0.00138857 0
0.670695 0.00148013 0
0.678187 0.00149538 0
0.678187 0.00149538 0
0 0.0848859 0.0277256
0 0.0732586 0.026978
0.0588235 0.0751354 0.0368658
0.376516 0.0919966 0
0.6065 0.0363928 0
0.699062 0.00210575 0
0.729061 0.0080415 0
0.731716 0.00459297 0
0.724651 0.00158694 0
0.0125734 0.225818 0
0.00460822 0.198184 0
0.00895705 0.209598 0
0.212512 0.233936 0
0.673991 0.273945 0
0.798337 0.254841 0
0.820264 0.255543 0
0.823575 0.254444 0
0.81326 0.229496 0
0.117556 0.439673 0
0.107881 0.413123 0
0.114916 0.432502 0
0.162219 0.537316 0
0.592691 0.563561 0
0.898558 0.582498 0
0.942763 0.565713 0
0.933669 0.520058 0
0.918944 0.479957 0
0.15642 0.5505 0
0.15375 0.542535 0
0.155138 0.546654 0
0.192279 0.670542 0
0.241794 0.726604 0
0.872938 0.785336 0
0.978378 0.777371 0
0.978485 0.756664 0
0.978653 0.728176 0
0.168002 0.586618 0
0.167712 0.585657 0
0.165896 0.579828 0
0.192432 0.671046 0
0.541207 0.757061 0
0.45182 0.766278 0
0.978393 0.865446 0
0.978332 0.846906 0
0.978317 0.839414 0
0.171908 0.612268 0
0.171984 0.611978 0
0.172412 0.606088 0
0.19176 0.668772 0
0.443549 0.783871 0
0.727367 0.818769 0
0.564797 0.778424 0
0.9785 0.883055 0
0.978469 0.876768 0
0.169238 0.620005 0
0.169238 0.620005 0
0.169238 0.620005 0
0.185428 0.651743 0
0.223728 0.780118 0
0.693217 0.812757 0
0.72845 0.824491 0
0.709194 0.818753 0
0.978546 0.888747 0
0.0128176 0 0.189502
0.0405127 0 0.174502
0.136629 0.0385748 0.150011
0.399969 0 0.120562
0.589441 0 0.103822
0.669841 0 0.0952926
0.696544 0 0.0832074
0.69836 0 0.0555428
0.69662 9.15541e-05 0.020325
0.00772107 0.0302739 0.146654
0.0152743 0.0343175 0.132097
0.0968643 0.0489967 0.112703
0.343526 0.00952163 0.0808423
0.555596 1.5259e-05 0.0323491
0.650553 0.000122072 0.00814832
0.688533 0.000167849 0
0.693156 0.0015259 0
0.692241 0.0015259 0
0.00135805 0.0859846 0.120378
0.000854505 0.0742809 0.101488
0.0629435 0.0819409 0.0959182
0.344717 0.0898909 0.055848
0.621363 0.000900282 0.000442512
0.716991 0.000213626 0
0.744076 0.000198367 0
0.742611 0.00163272 0
0.735729 0.00161746 0
0 0.253605 0
0 0.218997 0
0 0.231296 0
0.233417 0.249332 0.0403754
0.700679 0.269688 0
0.803662 0.269764 0
0.834287 0.275273 0
0.833463 0.261769 0
0.818586 0.226932 0
0.0882277 0.475486 0
0.080705 0.443549 0
0.09337 0.457221 0
0.204059 0.560128 0
0.6168 0.57879 0
0.899855 0.578485 0
0.939239 0.54902 0
0.940597 0.531853 0
0.933303 0.514138 0
0.139818 0.569238 0
0.14934 0.554742 0
0.156146 0.549691 0
0.191577 0.668086 0
0.580438 0.71516 0
0.877195 0.78265 0
0.978393 0.772625 0
0.978515 0.749035 0
0.978729 0.716075 0
0.165759 0.591608 0
0.166567 0.589776 0
0.165667 0.579126 0
0.190738 0.665156 0
0.527092 0.754391 0
0.628214 0.777295 0
0.978378 0.863783 0
0.978332 0.845487 0
0.978317 0.837263 0
0.172 0.611688 0
0.172045 0.611322 0
0.172442 0.605524 0
0.190646 0.664912 0
0.42681 0.787274 0
0.801266 0.84239 0
0.70338 0.812543 0
0.978485 0.882414 0
0.978454 0.876295 0
0.169238 0.620005 0
0.169238 0.620005 0
0.169238 0.620005 0
0.183551 0.646052 0
0.221897 0.773709 0
0.681102 0.809064 0
0.908034 0.876875 0
0.801816 0.849378 0
0.978546 0.888548 0
0.0252842 0 0.377096
0.0250248 0 0.373098
0.141802 0 0.365164
0.431769 0 0.365805
0.623163 0 0.376455
0.703029 0 0.377493
0.728801 0 0.36878
0.730007 0 0.351019
0.727199 0 0.329305
0.024033 0 0.358175
0.0232853 0 0.346731
0.0994736 0 0.332158
0.354864 0 0.313008
0.577432 0 0.310292
0.677684 0 0.303563
0.714778 0 0.295201
0.720439 0 0.277165
0.717342 0 0.252659
0.0214237 0.0124056 0.338643
0.0204318 0.00192264 0.312551
0.0283207 0.053727 0.333425
0.350576 0.0607462 0.320684
0.640635 0 0.318593
0.737865 0 0.318242
0.763684 0 0.309804
0.763333 0 0.286549
0.75494 0 0.25182
0.00260929 0.257862 0.365896
0.00299077 0.226474 0.324422
0.00222782 0.234699 0.329641
0.250675 0.274479 0.301137
0.670741 0.269261 0.265095
0.794629 0.246006 0.251102
0.825605 0.246113 0.243366
0.825422 0.229496 0.222477
0.811734 0.18912 0.188952
0 0.504707 0.265507
0 0.482826 0.189029
0 0.497353 0.148836
0.0316625 0.603647 0.0452583
0.593118 0.570855 0.116274
0.890761 0.561425 0
0.92694 0.55346 0
0.937957 0.545922 0
0.930922 0.515435 0
0 0.617029 0.157763
0.00741588 0.612955 0.0939345
0.033875 0.604089 0.0416114
0.105425 0.709789 0
0.595728 0.728038 0
0.880201 0.795468 0
0.978378 0.785214 0
0.9785 0.754269 0
0.978592 0.735836 0
0.0134585 0.648463 0.0936904
0.0200198 0.647593 0.0811017
0.066453 0.633051 0
0.123964 0.701564 0
0.508888 0.771923 0
0.863828 0.850752 0
0.978439 0.873335 0
0.978363 0.85359 0
0.978332 0.841062 0
0.0409094 0.667567 0.0504311
0.0428168 0.667063 0.0471351
0.0816205 0.653132 0
0.119814 0.700938 0
0.331884 0.807553 0
0.792004 0.844633 0
0.861906 0.86508 0
0.978531 0.886717 0
0.978454 0.877516 0
0.0708171 0.667933 0.00323491
0.0708934 0.667903 0.00311284
0.0944686 0.659113 0
0.11754 0.675227 0
0.216556 0.768277 0
0.664027 0.80499 0
0.94667 0.886351 0
0.885206 0.870069 0
0.978546 0.888334 0
0.0316472 0 0.47303
0.0317998 0 0.475303
0.133089 0 0.484398
0.453162 0 0.50164
0.650263 0 0.522698
0.731487 0 0.533974
0.758404 0 0.536522
0.760739 0 0.529366
0.758541 0 0.518395
0.0319829 0 0.478126
0.0315251 0 0.471244
0.0340429 0 0.471244
0.367178 0 0.471702
0.602228 0 0.485222
0.709529 0 0.498024
0.747112 0 0.499763
0.752758 0 0.491753
0.750027 0 0.478706
0.0336309 0 0.502861
0.0325017 0 0.485985
0.0339666 0 0.507942
0.366552 0 0.521965
0.670207 0 0.540337
0.770459 0 0.552468
0.797101 0 0.554543
0.796994 0 0.540368
0.788907 0 0.516167
0.0184329 0.250126 0.590524
0.0196078 0.210315 0.557656
0.0200504 0.22031 0.577249
0.221653 0.281346 0.590082
0.676417 0.278294 0.582925
0.806134 0.251087 0.578332
0.838361 0.249424 0.575723
0.839521 0.235142 0.561288
0.827878 0.192828 0.534142
0 0.487465 0.650233
0 0.461585 0.618021
0 0.467536 0.614633
0 0.541665 0.618509
0.618265 0.61651 0.588479
0.869154 0.59762 0.559182
0.918975 0.577005 0.53991
0.92546 0.557229 0.516258
0.917906 0.522393 0.487663
0 0.57702 0.641566
0 0.572702 0.610132
0 0.566705 0.571771
0 0.664836 0.538384
0.571466 0.884688 0.441093
0.827955 0.806073 0.470344
0.965209 0.778363 0.386328
0.978637 0.767437 0.383185
0.978454 0.747097 0.330617
0 0.603983 0.603632
0 0.603754 0.594446
0 0.605112 0.509636
0 0.67895 0.452049
0.243488 0.925292 0.267231
0.813977 0.843641 0.340307
0.943877 0.860624 0.304204
0.978439 0.841001 0
0.978393 0.8309 0
0 0.627146 0.521553
0 0.627192 0.518151
0 0.634501 0.413993
0 0.691997 0.344762
0.00384527 0.855482 0.154986
0.735195 0.833631 0.244877
0.93666 0.867323 0.0926375
0.979004 0.872511 0.0482948
0.978454 0.877028 0
0 0.645624 0.409445
0 0.645624 0.409445
0 0.659159 0.293629
0 0.679927 0.239261
0.0200656 0.814923 0.116274
0.640681 0.825254 0.181933
0.903181 0.864012 0.00241093
0.931899 0.873579 0.197345
0.978469 0.877806 0
0.034699 0 0.518853
0.0349889 0 0.523125
0.108415 0 0.538781
0.46421 0 0.566842
0.671229 0 0.591608
0.754391 0 0.606516
0.780743 0 0.612757
0.783291 0 0.610834
0.781125 0 0.605982
0.0357977 0 0.535271
0.0354162 0 0.52961
0.0358282 0 0.535775
0.366705 0 0.547021
0.619577 0 0.569131
0.731456 0 0.587366
0.770077 0 0.595407
0.776913 0 0.59382
0.775158 0 0.587869
0.0384222 0 0.574441
0.0376135 0 0.562356
0.0391546 0 0.585443
0.370321 0 0.611002
0.688212 0 0.634256
0.792172 0 0.649042
0.819623 0 0.65507
0.821149 0 0.649607
0.814008 0 0.634577
0.0257572 0.235111 0.680903
0.0280308 0.186969 0.65388
0.0281682 0.200702 0.673289
0.196826 0.283299 0.702785
0.681697 0.279026 0.70779
0.81883 0.248554 0.70985
0.852461 0.244388 0.711559
0.854414 0.229465 0.70399
0.844785 0.181201 0.685664
0.0108644 0.49044 0.772824
0.0117952 0.465309 0.754238
0.0119783 0.465492 0.757229
0.00679026 0.536706 0.792157
0.605142 0.616678 0.790311
0.863828 0.605646 0.77879
0.918853 0.582101 0.766918
0.926909 0.562951 0.75288
0.920806 0.530617 0.736675
0 0.578561 0.792218
0 0.57409 0.782376
0 0.566964 0.770184
0 0.643946 0.795285
0.287663 0.798825 0.766674
0.839338 0.834577 0.7776
0.953735 0.819837 0.757458
0.974746 0.800778 0.735378
0.974838 0.781231 0.714229
0 0.601572 0.788022
0 0.600839 0.785763
0 0.597391 0.764523
0 0.652308 0.7738
0 0.820005 0.716121
0.836851 0.937087 0.70837
0.927871 0.911208 0.717693
0.98883 0.897459 0.662669
0.988724 0.891356 0.6551
0 0.617319 0.769284
0 0.617136 0.768246
0 0.613291 0.738231
0 0.652491 0.734722
0 0.776883 0.6907
0.756512 0.983612 0.63859
0.917128 0.921691 0.652018
0.976379 0.928283 0.642969
0.984085 0.905791 0.518349
0 0.625422 0.734966
0 0.625422 0.735103
0 0.62501 0.695399
0 0.628824 0.673991
0 0.745937 0.63592
0.556298 0.996078 0.537514
0.869429 0.909422 0.583719
0.971542 0.921477 0.560967
0.985 0.920974 0.55433
0.0372778 0 0.557458
0.0377356 0 0.564263
0.118608 0 0.580026
0.475578 0 0.610636
0.696208 0 0.636179
0.780575 0 0.651606
0.805905 0 0.65919
0.807843 0 0.658091
0.806012 0 0.6542
0.0383154 0 0.572808
0.037995 0 0.568002
0.0384527 0 0.574792
0.365957 0 0.590875
0.640131 0 0.616053
0.756344 0 0.635172
0.793851 0 0.643534
0.801846 0 0.645457
0.799481 0 0.641154
0.0406348 0 0.607569
0.0400854 0 0.599252
0.0408942 0 0.624353
0.363043 0.102083 0.663371
0.694148 0 0.677821
0.803449 0 0.692226
0.831266 0 0.69865
0.833982 0 0.695445
0.830701 0 0.685954
0.0267948 0.249012 0.714076
0.0296483 0.197055 0.690501
0.0288853 0.223148 0.712489
0.15259 0.307958 0.74638
0.68365 0.312947 0.757107
0.829587 0.287358 0.758877
0.866011 0.284184 0.761868
0.868879 0.269749 0.757198
0.859861 0.224231 0.743069
0.0131685 0.489204 0.804898
0.0144808 0.466087 0.79649
0.0147402 0.466224 0.800656
0.0114748 0.534478 0.83798
0.587579 0.61236 0.848722
0.860105 0.605585 0.842725
0.919539 0.579248 0.836973
0.929274 0.560555 0.829679
0.92398 0.528893 0.81883
0.00459297 0.581247 0.833768
0.00492866 0.577523 0.831479
0.00564584 0.569009 0.825986
0 0.639017 0.858503
0.221347 0.779812 0.86511
0.829648 0.833371 0.888197
0.948379 0.823178 0.881041
0.9729 0.803326 0.869169
0.973663 0.784772 0.858366
0.00128176 0.604471 0.839399
0.00128176 0.603708 0.838376
0.00137331 0.59762 0.830762
0 0.650233 0.853071
0 0.799603 0.857755
0.72105 0.922301 0.860212
0.935576 0.926375 0.877348
0.987015 0.922591 0.866056
0.994217 0.91545 0.853407
0 0.619074 0.839094
0 0.618845 0.838849
0 0.614679 0.829389
0 0.649058 0.840452
0 0.758068 0.852857
0.573953 0.93167 0.831052
0.917388 0.955139 0.847013
0.973175 0.957168 0.855848
0.9953 0.951888 0.826062
0 0.626764 0.829969
0 0.626764 0.829999
0 0.625772 0.819287
0 0.624155 0.812192
0 0.727779 0.832013
0.310521 0.89572 0.794141
0.884581 0.970413 0.79968
0.966522 0.958953 0.824002
0.992752 0.962432 0.822919
0.0372778 0 0.557458
0.0377813 0 0.564828
0.106508 0 0.582238
0.466773 0 0.615839
0.698314 0 0.644846
0.787655 0 0.663417
0.815564 0 0.675059
0.820172 0 0.678294
0.820172 0 0.678294
0.0386511 0 0.577874
0.0384222 0 0.574502
0.0390326 0 0.583597
0.354894 0 0.606485
0.64593 0 0.63679
0.770001 0 0.65861
0.81149 0 0.672663
0.820172 0 0.678294
0.820172 0 0.678294
0.0412909 0 0.617319
0.0409705 0 0.612512
0.0401617 0.0238651 0.640604
0.350958 0.169436 0.690517
0.693797 0.132845 0.705257
0.806363 0.0545357 0.711299
0.836667 0.114565 0.722087
0.841413 0.127565 0.724269
0.837049 0.0846113 0.716258
0.0256809 0.273213 0.728008
0.027863 0.23505 0.712352
0.0268864 0.264622 0.735149
0.0925917 0.345724 0.76939
0.682719 0.370474 0.783352
0.839902 0.350896 0.784329
0.879561 0.350912 0.787915
0.885969 0.351949 0.788281
0.880003 0.326467 0.780163
0.0134585 0.491951 0.812497
0.0147402 0.468544 0.803418
0.0148318 0.476036 0.814099
0.0115663 0.54258 0.849729
0.565667 0.623087 0.864057
0.856199 0.62414 0.862272
0.922103 0.599863 0.858259
0.93434 0.582712 0.85388
0.930327 0.553704 0.845655
0.00546273 0.581323 0.841276
0.00607309 0.576074 0.839353
0.00698863 0.569131 0.838071
0 0.639292 0.873869
0.139773 0.773709 0.884337
0.815213 0.827573 0.912566
0.942123 0.819394 0.908858
0.971099 0.799329 0.904463
0.972686 0.780011 0.898466
0.00241093 0.607553 0.852232
0.00242618 0.607263 0.852049
0.00276188 0.603662 0.849744
0 0.651133 0.872969
0 0.791684 0.889693
0.707805 0.904952 0.913985
0.928908 0.925933 0.925826
0.984314 0.923552 0.923888
0.993393 0.917159 0.918822
0.000534066 0.619745 0.854963
0.000549325 0.619532 0.854826
0.000885023 0.61619 0.852689
0 0.647761 0.868025
0 0.751507 0.890684
0.542824 0.907851 0.897124
0.8878 0.963973 0.896727
0.977996 0.963806 0.923781
0.99733 0.963287 0.919402
0 0.627115 0.855848
0 0.627146 0.855863
0 0.625818 0.852918
0 0.625162 0.851667
0 0.722591 0.881178
0.222004 0.875303 0.873243
0.811307 0.96849 0.883803
0.961685 0.96939 0.915801
0.992462 0.973953 0.916335
0.0372778 0 0.557458
0.0377508 0 0.56434
0.0933852 0 0.581445
0.454475 0 0.614771
0.693385 0 0.644053
0.785626 0 0.662791
0.815198 0 0.674784
0.820172 0 0.678294
0.820172 0 0.678294
0.038468 0 0.575204
0.0381628 0 0.57055
0.0387274 0 0.57908
0.340627 0 0.604837
0.636805 0 0.635462
0.766873 0 0.657938
0.810651 0 0.67219
0.820172 0 0.678294
0.820172 0 0.678294
0.0411841 0 0.615808
0.0408789 0 0.611078
0.0413519 0.00265507 0.635798
0.332982 0.163958 0.686763
0.682246 0.129107 0.702876
0.802869 0.0343786 0.708583
0.834638 0.099794 0.719387
0.840284 0.11635 0.722179
0.836149 0.0696269 0.713939
0.0262303 0.263218 0.723644
0.0284886 0.224277 0.708019
0.0273899 0.254582 0.730053
0.0667277 0.334417 0.765591
0.670909 0.36173 0.780118
0.834653 0.342123 0.781353
0.87686 0.341878 0.785199
0.884352 0.345022 0.786068
0.878386 0.319539 0.777966
0.0137789 0.485939 0.810285
0.0150301 0.463569 0.801999
0.015198 0.468116 0.810269
0.0122377 0.53434 0.847181
0.546777 0.617014 0.863249
0.850126 0.622263 0.863264
0.920546 0.599451 0.859785
0.934966 0.586404 0.857023
0.93225 0.562371 0.85066
0.00561532 0.579889 0.840635
0.00639353 0.574228 0.839673
0.00735485 0.5673 0.839033
0.000366217 0.63389 0.873045
0.0869154 0.767956 0.885618
0.804074 0.823987 0.915358
0.93756 0.817914 0.912718
0.969848 0.799191 0.909865
0.972457 0.781506 0.905699
0.00256352 0.607187 0.852995
0.00259403 0.606912 0.852888
0.00299077 0.603693 0.851591
0 0.649866 0.874769
0 0.785458 0.894713
0.693233 0.899046 0.920668
0.92166 0.922972 0.933898
0.981109 0.921752 0.93434
0.992096 0.914916 0.932067
0.000686656 0.621057 0.857862
0.000717174 0.620905 0.857816
0.00120546 0.617029 0.856138
0 0.647974 0.872786
0 0.747875 0.897765
0.518914 0.900328 0.907881
0.872374 0.959457 0.921187
0.975021 0.963378 0.940124
0.995712 0.963043 0.938537
0 0.63357 0.864256
0 0.633585 0.864271
0 0.630961 0.862409
0 0.629114 0.861173
0 0.721904 0.893294
0.144198 0.86949 0.888258
0.79469 0.958618 0.919356
0.958801 0.971603 0.934493
0.993957 0.976043 0.940124
