creator/6-Editing/New LUTS/2-LOG-Looks/Pocket3/Base-Normalization.cube
TITLE "Generated by Resolve"
LUT_3D_SIZE 5
0.0272679 0.0278325 0.0320897
0.143984 0.0496834 0.0276951
0.570321 0.00125124 0
0.675074 0.00148013 0
0.678187 0.00149538 0
0 0.0842298 0.0194247
0.0545357 0.0776226 0.0325628
0.64097 0.0130159 0
0.730297 0.0087129 0
0.726513 0.0016022 0
0.119738 0.445747 0
0.118669 0.442832 0
0.58967 0.573343 0
0.94757 0.580484 0
0.919676 0.481865 0
0.168292 0.587625 0
0.166155 0.580636 0
0.471962 0.758877 0
0.978393 0.867338 0
0.978332 0.841535 0
0.169238 0.620005 0
0.169238 0.620005 0
0.245228 0.786816 0
0.499153 0.776318 0
0.978546 0.888991 0
0.0128176 0 0.189502
0.136629 0.0385748 0.150011
0.589441 0 0.103822
0.696544 0 0.0832074
0.69662 9.15541e-05 0.020325
0.00135805 0.0859846 0.120378
0.0629435 0.0819409 0.0959182
0.621363 0.000900282 0.000442512
0.744076 0.000198367 0
0.735729 0.00161746 0
0.0882277 0.475486 0
0.09337 0.457221 0
0.6168 0.57879 0
0.939239 0.54902 0
0.933303 0.514138 0
0.165759 0.591608 0
0.165667 0.579126 0
0.527092 0.754391 0
0.978378 0.863783 0
0.978317 0.837263 0
0.169238 0.620005 0
0.169238 0.620005 0
0.221897 0.773709 0
0.908034 0.876875 0
0.978546 0.888548 0
0.0316472 0 0.47303
0.133089 0 0.484398
0.650263 0 0.522698
0.758404 0 0.536522
0.758541 0 0.518395
0.0336309 0 0.502861
0.0339666 0 0.507942
0.670207 0 0.540337
0.797101 0 0.554543
0.788907 0 0.516167
0 0.487465 0.650233
0 0.467536 0.614633
0.618265 0.61651 0.588479
0.918975 0.577005 0.53991
0.917906 0.522393 0.487663
0 0.603983 0.603632
0 0.605112 0.509636
0.243488 0.925292 0.267231
0.943877 0.860624 0.304204
0.978393 0.8309 0
0 0.645624 0.409445
0 0.659159 0.293629
0.0200656 0.814923 0.116274
0.903181 0.864012 0.00241093
0.978469 0.877806 0
0.0372778 0 0.557458
0.118608 0 0.580026
0.696208 0 0.636179
0.805905 0 0.65919
0.806012 0 0.6542
0.0406348 0 0.607569
0.0408942 0 0.624353
0.694148 0 0.677821
0.831266 0 0.69865
0.830701 0 0.685954
0.0131685 0.489204 0.804898
0.0147402 0.466224 0.800656
0.587579 0.61236 0.848722
0.919539 0.579248 0.836973
0.92398 0.528893 0.81883
0.00128176 0.604471 0.839399
0.00137331 0.59762 0.830762
0 0.799603 0.857755
0.935576 0.926375 0.877348
0.994217 0.91545 0.853407
0 0.626764 0.829969
0 0.625772 0.819287
0 0.727779 0.832013
0.884581 0.970413 0.79968
0.992752 0.962432 0.822919
0.0372778 0 0.557458
0.0933852 0 0.581445
0.693385 0 0.644053
0.815198 0 0.674784
0.820172 0 0.678294
0.0411841 0 0.615808
0.0413519 0.00265507 0.635798
0.682246 0.129107 0.702876
0.834638 0.099794 0.719387
0.836149 0.0696269 0.713939
0.0137789 0.485939 0.810285
0.015198 0.468116 0.810269
0.546777 0.617014 0.863249
0.920546 0.599451 0.859785
0.93225 0.562371 0.85066
0.00256352 0.607187 0.852995
0.00299077 0.603693 0.851591
0 0.785458 0.894713
0.92166 0.922972 0.933898
0.992096 0.914916 0.932067
0 0.63357 0.864256
0 0.630961 0.862409
0 0.721904 0.893294
0.79469 0.958618 0.919356
0.993957 0.976043 0.940124
