creator/6-Editing/New LUTS/2-LOG-Looks/Pocket3/Base-Normalization.cube
TITLE "Generated by Resolve"
LUT_3D_SIZE 33
0.0272679 0.0278325 0.0320897
0.0272679 0.0278325 0.0320897
0.030045 0.0294194 0.0343175
0.0362402 0.0307927 0.0348516
0.0392157 0.0322728 0.0352941
0.049546 0.0343938 0.0352331
0.0715343 0.038941 0.0349432
0.096376 0.0451667 0.0331121
0.143984 0.0496834 0.0276951
0.194659 0.0531624 0.00469978
0.259251 0.0542 0
0.332937 0.0484627 0
0.396765 0.0311284 0
0.449622 0.0015259 0
0.497948 0.00109865 0
0.538918 0.0011902 0
0.570321 0.00125124 0
0.595438 0.00131228 0
0.616403 0.00135805 0
0.633448 0.00138857 0
0.647272 0.00141909 0
0.657511 0.00144961 0
0.665553 0.00146487 0
0.671153 0.00148013 0
0.675074 0.00148013 0
0.678004 0.00149538 0
0.678187 0.00149538 0
0.678187 0.00149538 0
0.678187 0.00149538 0
0.678187 0.00149538 0
0.678187 0.00149538 0
0.678187 0.00149538 0
0.678187 0.00149538 0
0.0272679 0.0278325 0.0320897
0.0272679 0.0278325 0.0320897
0.0292515 0.0291447 0.0340276
0.0343633 0.0304265 0.0347448
0.0387732 0.0318608 0.035172
0.044892 0.0337072 0.0352941
0.0655528 0.037232 0.0349584
0.086656 0.0437934 0.0339818
0.129946 0.0485389 0.0296635
0.181033 0.0526284 0.01355
0.240497 0.0546426 0
0.313985 0.0505531 0
0.38146 0.0390936 0
0.436011 0.00183108 0
0.485603 0.00106813 0
0.528542 0.00115969 0
0.562203 0.00123598 0
0.588952 0.00129702 0
0.611093 0.00134279 0
0.629206 0.00138857 0
0.643137 0.00141909 0
0.654047 0.00143435 0
0.662715 0.00146487 0
0.669245 0.00146487 0
0.673747 0.00148013 0
0.676905 0.00149538 0
0.678187 0.00149538 0
0.678187 0.00149538 0
0.678187 0.00149538 0
0.678187 0.00149538 0
0.678187 0.00149538 0
0.678187 0.00149538 0
0.678187 0.00149538 0
0.0268101 0.0303044 0.033463
0.0269017 0.0297093 0.0331273
0.0271153 0.0292973 0.0329595
0.0322423 0.0301976 0.0348363
0.0387274 0.0318151 0.0351568
0.04448 0.0336156 0.0352941
0.0610361 0.0359503 0.0349737
0.0811933 0.0419928 0.0344091
0.115755 0.0474098 0.0312505
0.167529 0.0518654 0.0208133
0.223835 0.054139 0
0.295415 0.0525826 0
0.36582 0.0424506 0
0.423529 0.00825513 0
0.474189 0.00105287 0
0.519341 0.00114443 0
0.554925 0.00122072 0
0.582971 0.00128176 0
0.606073 0.00132753 0
0.625177 0.00137331 0
0.640223 0.00140383 0
0.651896 0.00143435 0
0.661006 0.00144961 0
0.668086 0.00146487 0
0.672877 0.00148013 0
0.676249 0.00148013 0
0.678187 0.00149538 0
0.678187 0.00149538 0
0.678187 0.00149538 0
0.678187 0.00149538 0
0.678187 0.00149538 0
0.678187 0.00149538 0
0.678187 0.00149538 0
0.0252842 0.0345006 0.0351873
0.025864 0.0334936 0.0350195
0.0261082 0.0330968 0.0349584
0.0281682 0.0335699 0.0363165
0.0368505 0.0342565 0.0365911
0.0412604 0.0357671 0.0367742
0.0635843 0.0386053 0.0359808
0.0855879 0.0445563 0.0345922
0.115496 0.0484016 0.0316472
0.159045 0.0512703 0.0234073
0.20795 0.0536507 0
0.276814 0.0534981 0
0.348898 0.046067 0
0.409903 0.0198825 0
0.461799 0.0012665 0
0.509377 0.00111391 0
0.547433 0.00120546 0
0.576638 0.0012665 0
0.600748 0.00132753 0
0.620783 0.00135805 0
0.63679 0.00140383 0
0.649226 0.00143435 0
0.658991 0.00144961 0
0.666575 0.00146487 0
0.671855 0.00148013 0
0.675532 0.00148013 0
0.678187 0.00149538 0
0.678187 0.00149538 0
0.678187 0.00149538 0
0.678187 0.00149538 0
0.678187 0.00149538 0
0.678187 0.00149538 0
0.678187 0.00149538 0
0.0198215 0.0404212 0.0342718
0.0210422 0.0391546 0.0346227
0.0217594 0.0384222 0.0348058
0.0209201 0.0392767 0.0345922
0.0296635 0.0390021 0.0375372
0.0386816 0.0392309 0.0378882
0.0511788 0.0411078 0.0379797
0.0819867 0.0467689 0.0366674
0.124102 0.0528878 0.0322423
0.18172 0.0558022 0.0178378
0.233875 0.057496 0
0.292592 0.0568551 0
0.356268 0.0517128 0
0.414359 0.0323644 0
0.465187 0.00508125 0
0.511147 0.00112917 0
0.548531 0.00120546 0
0.575662 0.0012665 0
0.598199 0.00131228 0
0.618021 0.00135805 0
0.633906 0.00138857 0
0.646433 0.00141909 0
0.656764 0.00144961 0
0.664927 0.00146487 0
0.670741 0.00148013 0
0.674784 0.00148013 0
0.677745 0.00149538 0
0.678187 0.00149538 0
0.678187 0.00149538 0
0.678187 0.00149538 0
0.678187 0.00149538 0
0.678187 0.00149538 0
0.678187 0.00149538 0
0.0177157 0.0441749 0.0344854
0.0179751 0.0434882 0.0343328
0.0181125 0.0431067 0.0342565
0.0211795 0.0430152 0.034638
0.0178988 0.0436713 0.0343786
0.0341344 0.0446326 0.0357824
0.0439612 0.0458686 0.0393683
0.0724346 0.0502022 0.0390021
0.103731 0.0567788 0.0362707
0.172702 0.0603189 0.0227054
0.248051 0.0627146 0
0.331228 0.0598764 0
0.399893 0.0513619 0
0.449866 0.0336004 0
0.495567 0.00236515 0
0.53846 0.00120546 0
0.574395 0.0012665 0
0.602609 0.00132753 0
0.625055 0.00137331 0
0.642847 0.00141909 0
0.656535 0.00144961 0
0.666316 0.00146487 0
0.673289 0.00148013 0
0.678386 0.00149538 0
0.681025 0.00149538 0
0.682063 0.00149538 0
0.682231 0.00149538 0
0.679911 0.00149538 0
0.678798 0.00149538 0
0.67834 0.00149538 0
0.678187 0.00149538 0
0.678187 0.00149538 0
0.678187 0.00149538 0
0.0108339 0.05066 0.0333715
0.0128481 0.0489967 0.033814
0.0141146 0.0479744 0.0340887
0.0152743 0.0470283 0.0343481
0.0222171 0.0478676 0.0355383
0.0150607 0.0498665 0.0339361
0.0381933 0.049134 0.036286
0.0622568 0.0522469 0.0415198
0.0924392 0.0590219 0.0395361
0.145968 0.0653239 0.0327764
0.222583 0.0709087 0.00343328
0.321386 0.0722667 0
0.41593 0.0639811 0
0.481956 0.0414435 0
0.533364 0.0080415 0
0.57203 0.00128176 0
0.601099 0.00132753 0
0.62475 0.00137331 0
0.644846 0.00141909 0
0.662272 0.00144961 0
0.675776 0.00148013 0
0.685527 0.00151064 0
0.692866 0.0015259 0
0.69807 0.00154116 0
0.701167 0.00154116 0
0.702907 0.00154116 0
0.704158 0.00155642 0
0.703609 0.00154116 0
0.701457 0.00154116 0
0.69897 0.00154116 0
0.696696 0.0015259 0
0.69424 0.0015259 0
0.691569 0.0015259 0
0 0.0660258 0.0265812
0 0.0625467 0.0281987
0 0.0598306 0.0294804
0.00239567 0.0576791 0.0304875
0.0100404 0.0576944 0.0314794
0.00518807 0.0612955 0.0298314
0 0.0655222 0.0276951
0.0424964 0.0598001 0.034638
0.0847944 0.0631266 0.0425116
0.124697 0.0707866 0.0382696
0.199557 0.0762493 0.0204166
0.284337 0.0818036 0
0.392569 0.0791485 0
0.48072 0.067216 0
0.546044 0.0315099 0
0.595468 0.00175479 0
0.626642 0.00137331 0
0.648966 0.00143435 0
0.666484 0.00146487 0
0.680461 0.00149538 0
0.691844 0.0015259 0
0.700801 0.00154116 0
0.708186 0.00155642 0
0.713573 0.00157168 0
0.717128 0.00157168 0
0.719326 0.00158694 0
0.721065 0.00158694 0
0.719875 0.00158694 0
0.718105 0.00158694 0
0.716457 0.00157168 0
0.714687 0.00157168 0
0.712963 0.00157168 0
0.71107 0.00157168 0
0 0.0842298 0.0194247
0 0.0830549 0.0197757
0 0.0779736 0.021622
0 0.075761 0.0225071
0 0.0747997 0.0230411
0 0.0766003 0.0230564
0 0.0819562 0.0206912
0 0.0854658 0.0199741
0.0545357 0.0776226 0.0325628
0.108965 0.084535 0.0428016
0.179461 0.0911116 0.0310521
0.261753 0.0975509 0
0.36347 0.100343 0
0.464454 0.0957656 0
0.541283 0.0800946 0
0.600732 0.0427558 0
0.64097 0.0130159 0
0.667506 0.00787366 0
0.686152 0.00326543 0
0.698436 0.00184634 0
0.708156 0.00239567 0
0.715541 0.00277714 0
0.722011 0.00469978 0
0.726864 0.00714122 0
0.730297 0.0087129 0
0.73312 0.00953689 0
0.735103 0.00939956 0
0.734234 0.00807202 0
0.733028 0.00642405 0
0.731716 0.00459297 0
0.729854 0.00277714 0
0.727886 0.0016022 0
0.726513 0.0016022 0
0 0.106386 0.0104524
0 0.105272 0.011017
0 0.0966659 0.0156252
0 0.093843 0.0168307
0 0.091722 0.0173953
0 0.0940108 0.0176242
0 0.0965286 0.0162814
0 0.105287 0.0118105
0 0.109987 0.00926223
0.0804456 0.0979477 0.044358
0.158755 0.109224 0.0394903
0.243732 0.118364 0.00538643
0.341558 0.127382 0
0.449195 0.130083 0
0.532937 0.127214 0
0.600671 0.116106 0
0.650294 0.102159 0
0.681666 0.0850538 0
0.70222 0.0634012 0
0.717083 0.0511025 0
0.727138 0.0503853 0
0.734066 0.0548867 0
0.739162 0.0614786 0
0.742824 0.0657054 0
0.745754 0.0695048 0
0.748272 0.070634 0
0.749493 0.0696574 0
0.748699 0.0648051 0
0.747387 0.0572976 0
0.745815 0.0483101 0
0.744045 0.0384222 0
0.742321 0.0285039 0
0.740459 0.0180056 0
0 0.142107 0
0 0.141039 0
0 0.129107 0
0 0.124102 0.000656138
0 0.119539 0.00343328
0 0.122011 0.00248722
0 0.124834 0.000915541
0 0.133181 0
0 0.144564 0
0 0.150362 0
0.106111 0.130632 0.0445106
0.225849 0.141024 0.0142977
0.321523 0.153735 0
0.432837 0.161273 0
0.530144 0.163745 0
0.601587 0.160998 0
0.659068 0.154406 0
0.697337 0.147555 0
0.722499 0.139361 0
0.739208 0.13492 0
0.750561 0.134142 0
0.757626 0.134234 0
0.76257 0.13518 0
0.765209 0.136141 0
0.767376 0.137087 0
0.768719 0.135958 0
0.768078 0.133669 0
0.767391 0.131548 0
0.766278 0.12845 0
0.764889 0.12459 0
0.763485 0.120531 0
0.761715 0.115511 0
0.759701 0.109926 0
0.00155642 0.184558 0
0.00138857 0.183734 0
0 0.170855 0
0 0.16463 0
0 0.159777 0
0 0.159396 0
0 0.165133 0
0 0.169223 0
0.00103761 0.181292 0
0.00334173 0.192416 0
0.00572213 0.197772 0
0.14287 0.181323 0.0282139
0.305104 0.197131 0
0.415595 0.209415 0
0.525643 0.217151 0
0.606546 0.219059 0
0.669657 0.216236 0
0.713832 0.212421 0
0.743389 0.206394 0
0.763317 0.199588 0
0.776654 0.194842 0
0.784253 0.192172 0
0.789563 0.190967 0
0.791913 0.190082 0
0.793362 0.189166 0
0.793591 0.186892 0
0.791257 0.181796 0
0.78941 0.178012 0
0.787579 0.174365 0
0.786313 0.171878 0
0.785046 0.16939 0
0.78378 0.166918 0
0.78233 0.164141 0
0.0146029 0.232517 0
0.0143893 0.231846 0
0.0104524 0.218753 0
0.00761425 0.20911 0
0.00593576 0.203342 0
0.00466926 0.198413 0
0.00695811 0.207996 0
0.00918593 0.213291 0
0.0117647 0.220066 0
0.0160983 0.236133 0
0.0205386 0.248707 0
0.0242924 0.254551 0
0.207965 0.241306 0
0.401541 0.264424 0
0.518563 0.276707 0
0.610437 0.284031 0
0.679652 0.285069 0
0.732769 0.284092 0
0.766232 0.282399 0
0.789288 0.27863 0
0.805386 0.27538 0
0.814725 0.270802 0
0.819577 0.26627 0
0.822141 0.262348 0
0.822919 0.258167 0
0.822904 0.252964 0
0.818967 0.243366 0
0.815702 0.235416 0
0.812665 0.228061 0
0.81033 0.222492 0
0.808316 0.218235 0
0.806577 0.214511 0
0.80531 0.21178 0
0.0366979 0.290486 0
0.0364691 0.289998 0
0.0336309 0.28368 0
0.0253605 0.263203 0
0.0227054 0.255848 0
0.0204623 0.249592 0
0.0233005 0.257893 0
0.0270848 0.266377 0
0.0308232 0.27216 0
0.0357977 0.284825 0
0.0430304 0.303395 0
0.0505684 0.317143 0
0.0658122 0.326925 0
0.290059 0.317266 0
0.507179 0.338155 0
0.612802 0.349706 0
0.68864 0.354955 0
0.747951 0.355825 0
0.789609 0.355596 0
0.815564 0.353506 0
0.834134 0.351171 0
0.846418 0.348363 0
0.852827 0.344732 0
0.856229 0.340246 0
0.856184 0.334752 0
0.855085 0.328496 0
0.851499 0.318868 0
0.846464 0.307515 0
0.842145 0.297795 0
0.838087 0.288655 0
0.835035 0.281773 0
0.832319 0.275685 0
0.830213 0.270573 0
0.0657969 0.348562 0
0.0657054 0.348409 0
0.0636301 0.344518 0
0.0523537 0.323552 0
0.0481727 0.31577 0
0.0450752 0.308995 0
0.0466316 0.312444 0
0.0524605 0.324895 0
0.0612802 0.333639 0
0.0742657 0.344442 0
0.0785687 0.358038 0
0.0881819 0.37174 0
0.0967117 0.386786 0
0.108919 0.415564 0
0.380179 0.405859 0
0.608499 0.423148 0
0.694774 0.431983 0
0.76022 0.435798 0
0.807568 0.436561 0
0.839094 0.435706 0
0.860075 0.432837 0
0.874662 0.430579 0
0.883741 0.427359 0
0.888777 0.422583 0
0.890257 0.415259 0
0.889097 0.407675 0
0.8869 0.398413 0
0.88101 0.384314 0
0.875502 0.371832 0
0.870298 0.360403 0
0.865888 0.350652 0
0.861769 0.341665 0
0.858228 0.333898 0
0.102129 0.397559 0
0.102174 0.397696 0
0.101137 0.394858 0
0.0886549 0.376623 0
0.0826429 0.369726 0
0.0775464 0.36405 0
0.0740368 0.36025 0
0.0868238 0.377539 0
0.0979171 0.390585 0
0.104982 0.405783 0
0.111849 0.423819 0
0.112932 0.426993 0
0.117372 0.439216 0
0.124056 0.457801 0
0.142535 0.509896 0
0.480827 0.493492 0
0.695659 0.510384 0
0.76994 0.517342 0
0.824033 0.520653 0
0.859815 0.520409 0
0.883299 0.517296 0
0.900389 0.513832 0
0.911315 0.511421 0
0.917708 0.508324 0
0.920974 0.501839 0
0.92108 0.493843 0
0.919005 0.483131 0
0.915022 0.469413 0
0.908934 0.453132 0
0.903502 0.438529 0
0.898177 0.425467 0
0.893523 0.414237 0
0.889067 0.403616 0
0.119738 0.445747 0
0.119799 0.44593 0
0.119005 0.443717 0
0.113024 0.427039 0
0.110048 0.418982 0
0.107774 0.412833 0
0.10576 0.407401 0
0.111894 0.42446 0
0.118669 0.442832 0
0.124971 0.46038 0
0.133837 0.485206 0
0.137179 0.494652 0
0.136233 0.491981 0
0.140352 0.503685 0
0.149035 0.528679 0
0.200198 0.597665 0
0.58967 0.573343 0
0.770794 0.586694 0
0.834043 0.591577 0
0.875471 0.593652 0
0.902541 0.591791 0
0.921187 0.588861 0
0.934874 0.586603 0
0.943206 0.584466 0
0.94757 0.580484 0
0.949432 0.574685 0
0.948638 0.566827 0
0.946654 0.557076 0
0.94136 0.541207 0
0.935546 0.525185 0
0.92987 0.509606 0
0.924544 0.494987 0
0.919676 0.481865 0
0.134783 0.487892 0
0.134859 0.488106 0
0.13434 0.486641 0
0.130068 0.474647 0
0.126848 0.465599 0
0.124956 0.460334 0
0.122988 0.454826 0
0.127275 0.466804 0
0.135317 0.489372 0
0.142107 0.50869 0
0.151003 0.534417 0
0.160433 0.562707 0
0.158236 0.556008 0
0.155184 0.546822 0
0.159335 0.55935 0
0.169772 0.592416 0
0.353979 0.65359 0
0.684977 0.645136 0
0.833951 0.651408 0
0.884978 0.654124 0
0.915602 0.654078 0
0.936812 0.651438 0
0.951995 0.648783 0
0.962371 0.647013 0
0.968582 0.644114 0
0.971862 0.639902 0
0.971435 0.634592 0
0.970184 0.628061 0
0.96997 0.6206 0
0.96582 0.607217 0
0.960433 0.592721 0
0.955016 0.578195 0
0.949752 0.56408 0
0.144961 0.516854 0
0.144976 0.516915 0
0.144839 0.516503 0
0.143709 0.513268 0
0.139635 0.50161 0
0.138308 0.497856 0
0.137072 0.494347 0
0.138064 0.497154 0
0.147127 0.523095 0
0.154604 0.545068 0
0.162707 0.569726 0
0.173693 0.605692 0
0.179263 0.625162 0
0.171649 0.598688 0
0.168582 0.588479 0
0.172992 0.603265 0
0.185382 0.646464 0
0.436637 0.668757 0
0.759335 0.706783 0
0.885145 0.708904 0
0.924788 0.70956 0
0.948165 0.708339 0
0.964904 0.70602 0
0.975082 0.70309 0
0.978851 0.699062 0
0.978302 0.693049 0
0.978576 0.687449 0
0.978805 0.682017 0
0.978851 0.675731 0
0.978912 0.668132 0
0.977874 0.658457 0
0.97554 0.647501 0
0.973144 0.635996 0
0.151797 0.536767 0
0.151873 0.536965 0
0.151736 0.536568 0
0.151263 0.535164 0
0.148302 0.526543 0
0.147234 0.523445 0
0.14638 0.520943 0
0.145525 0.518486 0
0.15378 0.542611 0
0.16199 0.567514 0
0.169055 0.590036 0
0.179599 0.626322 0
0.190967 0.665965 0
0.191165 0.666636 0
0.180133 0.628168 0
0.17789 0.620356 0
0.183551 0.640085 0
0.199283 0.694942 0
0.511696 0.70013 0
0.820371 0.754696 0
0.924804 0.756512 0
0.956481 0.755871 0
0.972473 0.753918 0
0.978058 0.749828 0
0.978546 0.744595 0
0.978576 0.7393 0
0.978622 0.733394 0
0.978637 0.727504 0
0.978683 0.722011 0
0.978729 0.716167 0
0.97879 0.709041 0
0.978805 0.70135 0
0.978821 0.692332 0
0.156939 0.552056 0
0.157 0.552239 0
0.156909 0.551965 0
0.156558 0.550912 0
0.154437 0.544579 0
0.153521 0.541863 0
0.152911 0.540017 0
0.152239 0.538079 0
0.157702 0.554391 0
0.166293 0.581064 0
0.173007 0.603311 0
0.182452 0.636271 0
0.195682 0.682368 0
0.212238 0.71313 0
0.198016 0.690562 0
0.186816 0.651484 0
0.186084 0.648951 0
0.193545 0.674952 0
0.249287 0.737713 0
0.591196 0.732845 0
0.871763 0.790402 0
0.955642 0.792706 0
0.977401 0.790295 0
0.978363 0.78526 0
0.978378 0.780789 0
0.978408 0.777218 0
0.978408 0.771832 0
0.978439 0.766552 0
0.978469 0.761563 0
0.978485 0.756954 0
0.978515 0.752132 0
0.978531 0.746822 0
0.978576 0.739971 0
0.160937 0.564248 0
0.160983 0.564416 0
0.160922 0.564218 0
0.160708 0.563546 0
0.159197 0.558923 0
0.158373 0.556405 0
0.157839 0.554788 0
0.157321 0.553216 0
0.159472 0.559777 0
0.168887 0.589517 0
0.175753 0.612894 0
0.183917 0.641367 0
0.196582 0.685557 0
0.236973 0.732204 0
0.274907 0.743847 0
0.202823 0.707286 0
0.192981 0.672969 0
0.194247 0.677378 0
0.20351 0.709682 0
0.383963 0.763714 0
0.670878 0.766629 0
0.9122 0.817258 0
0.974868 0.818051 0
0.978302 0.811215 0
0.978317 0.807324 0
0.978317 0.804227 0
0.978332 0.80032 0
0.978347 0.796307 0
0.978347 0.792584 0
0.978363 0.789029 0
0.978363 0.785794 0
0.978378 0.782406 0
0.978393 0.777935 0
0.163928 0.573541 0
0.163943 0.573632 0
0.163928 0.573541 0
0.163775 0.573083 0
0.162936 0.570459 0
0.162036 0.567666 0
0.161593 0.566293 0
0.161212 0.565118 0
0.160815 0.563882 0
0.170352 0.594369 0
0.177615 0.619379 0
0.184939 0.644953 0
0.196582 0.685512 0
0.211154 0.736355 0
0.360769 0.762341 0
0.313313 0.765133 0
0.206882 0.721462 0
0.198932 0.693706 0
0.202075 0.704692 0
0.213153 0.743297 0
0.462425 0.752895 0
0.742153 0.799084 0
0.943404 0.838743 0
0.978317 0.834134 0
0.978302 0.828153 0
0.978317 0.825147 0
0.978317 0.822049 0
0.978317 0.818936 0
0.978302 0.815885 0
0.978317 0.813123 0
0.978302 0.810285 0
0.978317 0.80763 0
0.978332 0.804379 0
0.166232 0.58088 0
0.166262 0.581003 0
0.166247 0.580941 0
0.16614 0.580606 0
0.16582 0.579583 0
0.164752 0.57615 0
0.164431 0.575158 0
0.164111 0.574166 0
0.163821 0.573251 0
0.17052 0.594919 0
0.178683 0.623087 0
0.185275 0.646113 0
0.195911 0.683207 0
0.209964 0.732204 0
0.349722 0.772778 0
0.445274 0.754177 0
0.340063 0.776867 0
0.210147 0.73283 0
0.20473 0.71397 0
0.209491 0.730541 0
0.265812 0.771481 0
0.513191 0.757397 0
0.800992 0.82533 0
0.966659 0.855894 0
0.978332 0.846952 0
0.978332 0.841581 0
0.978317 0.838972 0
0.978317 0.836515 0
0.978317 0.834058 0
0.978317 0.832013 0
0.978317 0.829801 0
0.978317 0.827527 0
0.978302 0.824994 0
0.168292 0.587625 0
0.168307 0.587625 0
0.168307 0.587655 0
0.168231 0.587396 0
0.167971 0.586542 0
0.166979 0.583307 0
0.16669 0.582345 0
0.166415 0.58146 0
0.166155 0.580636 0
0.16965 0.59202 0
0.178973 0.62414 0
0.18584 0.648051 0
0.194736 0.679103 0
0.207889 0.724941 0
0.287175 0.773724 0
0.4589 0.759686 0
0.471962 0.758877 0
0.327306 0.784665 0
0.213336 0.743969 0
0.210422 0.733806 0
0.216876 0.756146 0
0.370031 0.789944 0
0.569009 0.769116 0
0.85037 0.845045 0
0.978393 0.867338 0
0.978363 0.85713 0
0.978347 0.852705 0
0.978347 0.850553 0
0.978332 0.848493 0
0.978347 0.846784 0
0.978332 0.845365 0
0.978317 0.843397 0
0.978332 0.841535 0
0.170275 0.594263 0
0.170321 0.594369 0
0.170306 0.594339 0
0.170245 0.594141 0
0.170062 0.59353 0
0.169146 0.590463 0
0.168734 0.589059 0
0.168444 0.588098 0
0.168215 0.58735 0
0.167971 0.586542 0
0.17879 0.623468 0
0.186023 0.648707 0
0.193637 0.675288 0
0.205631 0.717083 0
0.233143 0.767773 0
0.448203 0.769314 0
0.501228 0.761166 0
0.488029 0.762951 0
0.32163 0.789258 0
0.218387 0.755993 0
0.218387 0.754269 0
0.257847 0.778363 0
0.458885 0.771435 0
0.629068 0.785687 0
0.89041 0.859495 0
0.978439 0.87335 0
0.978393 0.865461 0
0.978378 0.861814 0
0.978378 0.860212 0
0.978378 0.858763 0
0.978378 0.85745 0
0.978363 0.855726 0
0.978347 0.854307 0
0.171878 0.600931 0
0.171923 0.601068 0
0.171908 0.601022 0
0.171862 0.600809 0
0.17174 0.60032 0
0.170932 0.597391 0
0.170581 0.595712 0
0.170413 0.594812 0
0.170214 0.594034 0
0.170001 0.593332 0
0.178149 0.621302 0
0.186282 0.649638 0
0.19292 0.67274 0
0.203372 0.709194 0
0.218479 0.757458 0
0.390784 0.79147 0
0.50106 0.764797 0
0.535882 0.767269 0
0.494713 0.766781 0
0.351675 0.788785 0
0.229908 0.76878 0
0.23444 0.773907 0
0.369589 0.788647 0
0.494743 0.77023 0
0.689097 0.805264 0
0.922606 0.870939 0
0.978454 0.877745 0
0.978424 0.871824 0
0.978424 0.869184 0
0.978408 0.868162 0
0.978408 0.866911 0
0.978408 0.865675 0
0.978393 0.864439 0
0.172381 0.60705 0
0.172366 0.607141 0
0.172366 0.607141 0
0.172381 0.606958 0
0.172396 0.606592 0
0.172427 0.604852 0
0.172168 0.602243 0
0.171984 0.601373 0
0.171832 0.600702 0
