creator/6-Editing/New LUTS/2-LOG-Looks/Pocket3/Warm-Trust.cube
TITLE "Generated by Resolve"
LUT_3D_SIZE 33
0.0260624 0.0276799 0.031693
0.0260624 0.0276799 0.031693
0.0314641 0.0293126 0.0339513
0.0386664 0.0306554 0.0349432
0.043595 0.0318456 0.0354009
0.0493324 0.0334478 0.0357366
0.0639048 0.0354925 0.0358434
0.0821851 0.039353 0.035996
0.0992905 0.0439918 0.0349889
0.131228 0.0480201 0.0328374
0.173083 0.0507362 0.0272526
0.214694 0.0522164 0.00901808
0.264454 0.052842 0.00077821
0.325124 0.0489357 0.000793469
0.388128 0.0392309 0.000854505
0.443534 0.00991836 0.000915541
0.494881 0.000976577 0.000976577
0.540536 0.0010071 0.00102235
0.576379 0.00105287 0.00106813
0.603616 0.00111391 0.00111391
0.625055 0.00115969 0.00117494
0.641154 0.0011902 0.00120546
0.653773 0.00123598 0.00125124
0.662913 0.0012665 0.00128176
0.670146 0.00129702 0.00131228
0.675227 0.00131228 0.00132753
0.675532 0.00131228 0.00132753
0.675532 0.00131228 0.00132753
0.675532 0.00131228 0.00132753
0.675532 0.00131228 0.00132753
0.675532 0.00131228 0.00132753
0.675532 0.00131228 0.00132753
0.675532 0.00131228 0.00132753
0.0260624 0.0276799 0.031693
0.0260624 0.0276799 0.031693
0.0302739 0.0290227 0.0336004
0.0365911 0.0303044 0.0347906
0.0428626 0.0314794 0.0352789
0.0467994 0.03299 0.0357214
0.0586557 0.0348516 0.0358129
0.0773938 0.0381018 0.0359503
0.0947433 0.0427405 0.0353094
0.121126 0.0471504 0.0336919
0.162341 0.0500343 0.0293126
0.203738 0.052018 0.0154726
0.25095 0.052781 0.00198367
0.307988 0.0505837 0.00077821
0.372229 0.0426947 0.000839246
0.429389 0.0199588 0.000900282
0.481254 0.00201419 0.000961318
0.529091 0.000991836 0.0010071
0.567681 0.00103761 0.00105287
0.596765 0.00109865 0.00109865
0.618509 0.00114443 0.00114443
0.635782 0.00117494 0.0011902
0.649088 0.00122072 0.00123598
0.659525 0.00125124 0.0012665
0.667582 0.00128176 0.00129702
0.67332 0.00131228 0.00131228
0.675532 0.00131228 0.00132753
0.675532 0.00131228 0.00132753
0.675532 0.00131228 0.00132753
0.675532 0.00131228 0.00132753
0.675532 0.00131228 0.00132753
0.675532 0.00131228 0.00132753
0.675532 0.00131228 0.00132753
0.0260166 0.0314183 0.0332494
0.0259709 0.0305638 0.0328679
0.0262455 0.0299077 0.0326696
0.0344091 0.0302739 0.0346685
0.0427863 0.0314488 0.0352636
0.0463874 0.0329137 0.0357214
0.0545968 0.0343481 0.0357824
0.0727398 0.0368811 0.0359197
0.0902419 0.0415045 0.0356451
0.113085 0.0459907 0.0341192
0.15172 0.0493629 0.0308385
0.193133 0.0518196 0.0216831
0.238315 0.0525978 0.00323491
0.2934 0.0513313 0.00077821
0.357397 0.0454871 0.000823987
0.416754 0.0289158 0.000885023
0.469123 0.00315862 0.000946059
0.518242 0.000991836 0.000991836
0.559258 0.00103761 0.00105287
0.590845 0.00108339 0.00109865
0.613855 0.00112917 0.00114443
0.631968 0.00117494 0.0011902
0.646235 0.00120546 0.00122072
0.657496 0.00125124 0.0012665
0.665919 0.00128176 0.00128176
0.672175 0.00129702 0.00131228
0.675532 0.00131228 0.00132753
0.675532 0.00131228 0.00132753
0.675532 0.00131228 0.00132753
0.675532 0.00131228 0.00132753
0.675532 0.00131228 0.00132753
0.675532 0.00131228 0.00132753
0.675532 0.00131228 0.00132753
0.0252689 0.0378424 0.0356603
0.0255131 0.0366064 0.0352331
0.0256046 0.0360876 0.0350652
0.0297246 0.0367742 0.0365454
0.0409247 0.0372778 0.0373083
0.0454261 0.0377813 0.037583
0.0599832 0.0389715 0.0373846
0.0797436 0.0417182 0.037171
0.0941482 0.045182 0.0364385
0.113664 0.048661 0.0350042
0.147707 0.0511635 0.0318456
0.186069 0.052491 0.0251926
0.224994 0.0523995 0.00453193
0.278477 0.0521096 0.00077821
0.340978 0.0472572 0.000808728
0.402853 0.035996 0.000869764
0.456489 0.00434882 0.0009308
0.506798 0.000991836 0.000976577
0.549966 0.00102235 0.00103761
0.583642 0.00106813 0.00108339
0.608682 0.00111391 0.00112917
0.627985 0.00115969 0.00117494
0.643244 0.00120546 0.00122072
0.655283 0.00123598 0.00125124
0.664042 0.0012665 0.00128176
0.67097 0.00129702 0.00131228
0.675532 0.00131228 0.00132753
0.675532 0.00131228 0.00132753
0.675532 0.00131228 0.00132753
0.675532 0.00131228 0.00132753
0.675532 0.00131228 0.00132753
0.675532 0.00131228 0.00132753
0.675532 0.00131228 0.00132753
0.0229496 0.0442054 0.0377203
0.0234379 0.0429541 0.0373236
0.0237125 0.0422065 0.0370794
0.0233921 0.0430762 0.0373541
0.0348974 0.0439918 0.0392309
0.0437476 0.044892 0.0396429
0.053315 0.0464942 0.0399329
0.0798352 0.0496071 0.0396429
0.102174 0.0540475 0.0381628
0.134356 0.0574197 0.0354314
0.174655 0.0590372 0.0301213
0.211719 0.0607156 0.0182956
0.255482 0.0614786 0.00267033
0.310933 0.0601511 0.00122072
0.371344 0.0548104 0.00122072
0.425452 0.0413519 0.00117494
0.470985 0.00926223 0.00112917
0.516182 0.00244144 0.00111391
0.55494 0.00209049 0.00112917
0.584466 0.00173953 0.00114443
0.605936 0.00135805 0.00114443
0.623713 0.00114443 0.00115969
0.640024 0.0011902 0.00120546
0.652735 0.00123598 0.00123598
0.662104 0.0012665 0.00128176
0.669612 0.00129702 0.00129702
0.67483 0.00131228 0.00132753
0.675532 0.00131228 0.00132753
0.675532 0.00131228 0.00132753
0.675532 0.00131228 0.00132753
0.675532 0.00131228 0.00132753
0.675532 0.00131228 0.00132753
0.675532 0.00131228 0.00132753
0.0225528 0.0484474 0.0396277
0.0225223 0.0476692 0.0392462
0.0225071 0.0472267 0.0390173
0.0254673 0.0473182 0.0393378
0.0225223 0.0478981 0.039353
0.0414282 0.0499428 0.0413977
0.049958 0.0521553 0.0420386
0.0729534 0.0556497 0.0421607
0.0974746 0.0605173 0.0410468
0.131228 0.0656443 0.0380865
0.187945 0.0686961 0.0305028
0.240589 0.0711528 0.00622568
0.295781 0.0723125 0.00144961
0.350851 0.0701915 0.00148013
0.405402 0.0659037 0.00151064
0.456718 0.056199 0.0015259
0.503319 0.031342 0.00154116
0.547509 0.00842298 0.0015259
0.5841 0.00517281 0.00151064
0.610651 0.00474556 0.00148013
0.631128 0.00444038 0.00148013
0.647547 0.00418097 0.00148013
0.660227 0.00390631 0.00148013
0.669749 0.00360113 0.00148013
0.676356 0.00331121 0.00148013
0.681102 0.00302129 0.00148013
0.683818 0.00270085 0.00146487
0.68278 0.00231937 0.00143435
0.679881 0.00190738 0.00138857
0.676631 0.00146487 0.00134279
0.675532 0.00131228 0.00132753
0.675532 0.00131228 0.00132753
0.675532 0.00131228 0.00132753
0.0200504 0.0540932 0.0419928
0.0211795 0.0526131 0.041474
0.0218662 0.0517128 0.0411536
0.0225223 0.0508736 0.0408484
0.0285039 0.0522774 0.0422522
0.0239872 0.0537575 0.042237
0.0449531 0.0557107 0.0438544
0.0654154 0.0588083 0.0441291
0.0923476 0.0635233 0.0433356
0.118914 0.0693523 0.041886
0.172656 0.0739147 0.0361791
0.238102 0.0785382 0.0140841
0.311055 0.0813153 0.00164797
0.386618 0.0789349 0.00167849
0.449424 0.073228 0.00170901
0.496635 0.0644083 0.00173953
0.537438 0.0437476 0.00177005
0.575525 0.0142977 0.00180056
0.607706 0.0075227 0.00183108
0.632212 0.00714122 0.00183108
0.651606 0.00694286 0.00184634
0.667185 0.00672923 0.00184634
0.679805 0.00656138 0.0018616
0.689509 0.00636301 0.00187686
0.696651 0.00616464 0.00187686
0.701213 0.00595102 0.00187686
0.70515 0.00579843 0.00189212
0.705837 0.00555428 0.00187686
0.70341 0.00521859 0.00181582
0.700984 0.00488289 0.00177005
0.698497 0.00451667 0.00170901
0.695857 0.0041352 0.00166323
0.693004 0.00373846 0.0016022
0.0113832 0.0636301 0.0449073
0.0139315 0.0611734 0.0442512
0.0159457 0.0591897 0.0437171
0.0170596 0.0579843 0.0433661
0.024506 0.0586099 0.0444038
0.02327 0.0610056 0.0450752
0.0188144 0.0640116 0.0458076
0.0509651 0.0653849 0.046891
0.0869001 0.0695506 0.0459144
0.112062 0.0757763 0.0450599
0.158328 0.0815442 0.0401923
0.220401 0.0864424 0.0316014
0.293523 0.0903639 0.00273136
0.382589 0.0901503 0.00184634
0.463554 0.0853285 0.00189212
0.523507 0.0732586 0.0019379
0.570535 0.0470741 0.00196841
0.605814 0.0224308 0.00198367
0.631693 0.0131685 0.00201419
0.652064 0.0111696 0.00204471
0.669108 0.0101015 0.00207523
0.683421 0.00891127 0.00210575
0.695308 0.00854505 0.00213626
0.705013 0.00840772 0.00216678
0.712596 0.00831617 0.0021973
0.717906 0.00822461 0.00221256
0.722225 0.00814832 0.00224308
0.724575 0.0080415 0.00224308
0.722835 0.00781262 0.00221256
0.720928 0.00756847 0.00218204
0.71899 0.00732433 0.00215152
0.71693 0.00704967 0.00210575
0.714778 0.00677501 0.00205997
0.00215152 0.0769665 0.0487831
0.00222782 0.0760967 0.0484779
0.002533 0.0723278 0.0471962
0.00396735 0.0707713 0.0467689
0.00720226 0.0704662 0.0470588
0.0213321 0.0728008 0.0479896
0.00790417 0.0757458 0.0488899
0.0107729 0.0787671 0.0497749
0.062562 0.0819562 0.0497902
0.108034 0.0889296 0.0474403
0.147463 0.0963302 0.0443732
0.212222 0.10251 0.033875
0.280369 0.10837 0.00419623
0.3664 0.112444 0.00205997
0.458274 0.110018 0.00210575
0.530617 0.101061 0.00213626
0.586328 0.08159 0.00216678
0.627344 0.0491493 0.0021973
0.654459 0.0289769 0.00221256
0.672679 0.0191196 0.00222782
0.686824 0.0139162 0.00225834
0.698573 0.0107881 0.00228885
0.708827 0.00978103 0.00231937
0.716899 0.00976577 0.00234989
0.723857 0.00976577 0.00239567
0.729458 0.00976577 0.00242618
0.733852 0.00976577 0.0024567
0.737285 0.00975052 0.00248722
0.736477 0.00961318 0.00247196
0.735225 0.00944533 0.00244144
0.733928 0.00927749 0.00242618
0.73257 0.00909438 0.00239567
0.731136 0.00891127 0.00238041
0.00141909 0.0906691 0.053315
0.00140383 0.0901045 0.0531319
0.00135805 0.0860456 0.0518349
0.00151064 0.0843519 0.0512703
0.00166323 0.0827649 0.0507362
0.00596628 0.0851759 0.0518044
0.0126497 0.0880293 0.0521401
0.0043183 0.0909133 0.0536507
0.00860609 0.0940108 0.054078
0.0859236 0.100511 0.0524758
0.141878 0.111086 0.0480964
0.204959 0.119249 0.0384222
0.274815 0.127642 0.0087892
0.358999 0.135592 0.00225834
0.451286 0.139223 0.00231937
0.530755 0.13695 0.00236515
0.594568 0.126726 0.00239567
0.642496 0.112871 0.00242618
0.67364 0.0987869 0.0024567
0.693462 0.080827 0.00247196
0.707866 0.0601511 0.00250248
0.718929 0.0507057 0.00251774
0.72694 0.0473335 0.00254826
0.733806 0.0470741 0.00257877
0.739116 0.0476844 0.00260929
0.743938 0.0489967 0.00263981
0.747768 0.0511482 0.00267033
0.750866 0.0522621 0.00270085
0.750195 0.0486763 0.00268559
0.748837 0.043946 0.00267033
0.747295 0.0386206 0.00263981
0.745693 0.0331121 0.00260929
0.74403 0.0273899 0.00259403
0.00157168 0.106294 0.0574655
0.00157168 0.10576 0.0573587
0.00151064 0.0996567 0.0561379
0.00149538 0.0977493 0.0555734
0.00148013 0.0962387 0.0550851
0.0039826 0.098024 0.0559396
0.00724804 0.100526 0.0558785
0.00642405 0.103868 0.0567025
0.00515755 0.108812 0.0581216
0.00727855 0.113298 0.0582284
0.11043 0.123339 0.05449
0.198779 0.135714 0.0437018
0.270481 0.146242 0.0172274
0.353811 0.157366 0.0024567
0.450278 0.16463 0.00251774
0.534722 0.167178 0.00257877
0.600137 0.164538 0.00263981
0.654002 0.156024 0.00267033
0.691356 0.146426 0.00270085
0.714611 0.137072 0.00271611
0.729961 0.128939 0.00274662
0.741314 0.123735 0.00276188
0.749538 0.119036 0.0027924
0.755444 0.116304 0.00280766
0.760266 0.115648 0.00283818
0.763561 0.115023 0.0028687
0.766827 0.116869 0.00288396
0.769085 0.118135 0.00291447
0.768109 0.114549 0.00289921
0.766842 0.109865 0.00288396
0.765408 0.104616 0.0028687
0.763867 0.0988174 0.00285344
0.762051 0.092134 0.00283818
0.00173953 0.129015 0.0610971
0.00172427 0.128511 0.0610513
0.00167849 0.120531 0.0601663
0.00166323 0.117098 0.0596017
0.00163272 0.114717 0.0591287
0.00311284 0.115465 0.0595865
0.00584421 0.119371 0.0597543
0.00770581 0.123278 0.0598459
0.00642405 0.129351 0.0607919
0.00601205 0.136126 0.0617227
0.00836194 0.142275 0.0617685
0.142321 0.159609 0.052018
0.267002 0.174899 0.0136721
0.351247 0.190555 0.00271611
0.449516 0.201862 0.00271611
0.542687 0.208408 0.00277714
0.610788 0.208377 0.00283818
0.667063 0.202853 0.00288396
0.708309 0.195697 0.00292973
0.735332 0.18706 0.00296025
0.752834 0.177295 0.00297551
0.765026 0.169879 0.00300603
0.773526 0.165728 0.00302129
0.779095 0.163012 0.0030518
0.783475 0.162112 0.00308232
0.786831 0.162005 0.00309758
0.78912 0.162112 0.00311284
0.788952 0.160418 0.00311284
0.787198 0.157275 0.00309758
0.786099 0.155276 0.00308232
0.78497 0.153277 0.00306706
0.783948 0.151415 0.00306706
0.782559 0.148989 0.0030518
0.00190738 0.156863 0.0640116
0.00190738 0.156558 0.0639811
0.0018616 0.149111 0.0632792
0.00183108 0.143816 0.0627604
0.00180056 0.140459 0.0623789
0.00189212 0.137682 0.0621042
0.00534066 0.145312 0.0630655
0.00730907 0.149905 0.0627146
0.00833143 0.155764 0.0630198
0.00663767 0.162448 0.0638285
0.0068513 0.169574 0.064271
0.00961318 0.178622 0.0634623
0.197559 0.207904 0.0275578
0.350729 0.232731 0.00280766
0.450233 0.248753 0.00289921
0.54905 0.259754 0.00297551
0.62446 0.264393 0.0030518
0.683986 0.262623 0.00309758
0.729473 0.258412 0.00314336
0.758312 0.252049 0.00318914
0.777539 0.242954 0.00320439
0.790936 0.233356 0.00323491
0.799802 0.225422 0.00325017
0.80528 0.21976 0.00328069
0.809247 0.216175 0.00329595
0.812284 0.213947 0.00332647
0.81387 0.211749 0.00334173
0.812345 0.207111 0.00332647
0.80975 0.201846 0.00329595
0.807706 0.19765 0.00328069
0.805982 0.194125 0.00326543
0.804273 0.190631 0.00325017
0.803067 0.188174 0.00325017
0.00207523 0.186191 0.0670329
0.00207523 0.185977 0.0670176
0.00205997 0.182864 0.0666667
0.00199893 0.172625 0.0655222
0.00198367 0.168933 0.065156
0.00195315 0.165682 0.0648508
0.00471504 0.172213 0.0655375
0.0069276 0.178729 0.0649119
0.00865187 0.185031 0.0645457
0.00849927 0.191379 0.0649577
0.00709544 0.198062 0.0662242
0.00769055 0.206165 0.0663462
0.0112459 0.221515 0.0600137
0.272068 0.267628 0.00326543
0.451408 0.296925 0.00308232
0.557214 0.312306 0.00317388
0.63949 0.321096 0.00325017
0.702556 0.322667 0.00331121
0.752194 0.320562 0.00335698
0.785016 0.316609 0.00340276
0.805585 0.310719 0.00343328
0.819638 0.303365 0.0034638
0.829526 0.296391 0.00347906
0.835431 0.28986 0.00350958
0.83888 0.284367 0.00352483
0.841459 0.280705 0.00354009
0.842664 0.277073 0.00355535
0.840772 0.270405 0.00354009
0.836576 0.261326 0.00350958
0.83299 0.253223 0.00349432
0.830076 0.246586 0.0034638
0.827756 0.241367 0.00344854
0.825833 0.237018 0.00343328
0.00224308 0.21735 0.06804
0.00224308 0.21735 0.06804
0.00222782 0.214984 0.0681163
0.00216678 0.202899 0.0684062
0.00215152 0.198596 0.0684062
0.002121 0.195148 0.06804
0.00387579 0.198962 0.0684977
0.00653086 0.208286 0.0670787
0.00830091 0.216388 0.0658122
0.00999466 0.227207 0.0631723
0.00857557 0.2309 0.0647593
0.00766003 0.238041 0.0650645
0.00848402 0.248341 0.0634928
0.0132143 0.276692 0.0341802
0.35758 0.340917 0.00320439
0.56231 0.369543 0.00335698
0.653895 0.382635 0.00343328
0.721477 0.388022 0.00350958
0.774548 0.387976 0.00355535
0.811856 0.385519 0.00360113
0.834913 0.38027 0.00364691
0.850385 0.374487 0.00367742
0.861311 0.368505 0.00370794
0.868559 0.362936 0.0037232
0.872541 0.357153 0.00375372
0.87483 0.352071 0.00376898
0.875639 0.346975 0.00378424
0.8748 0.341085 0.00378424
0.869062 0.32929 0.00373846
0.863951 0.318761 0.00370794
0.859464 0.3093 0.00367742
0.855543 0.301076 0.00364691
0.852216 0.294133 0.00363165
0.00239567 0.251957 0.0664378
0.00239567 0.251957 0.0664378
0.00239567 0.249973 0.0665446
0.00233463 0.236439 0.0673381
0.00230411 0.231144 0.0676432
0.00228885 0.227192 0.0677958
0.00270085 0.225589 0.0679026
0.00604257 0.240146 0.0656748
0.00793469 0.250767 0.0635386
0.00982681 0.262425 0.0595102
0.0108339 0.275608 0.0514382
0.0087129 0.275547 0.0590372
0.00828565 0.284092 0.0580606
0.00941482 0.297154 0.0500496
0.0225071 0.347341 0.00315862
0.453574 0.426337 0.00347906
0.662745 0.452323 0.00361639
0.73933 0.461952 0.00369268
0.796323 0.464988 0.00375372
0.836988 0.464347 0.0037995
0.863783 0.460761 0.00384527
0.880796 0.454841 0.00389105
0.892973 0.449485 0.00392157
0.90132 0.444785 0.00395209
0.906477 0.43978 0.00396735
0.909667 0.434287 0.00399786
0.911238 0.428016 0.00401312
0.910597 0.420523 0.00401312
0.905394 0.40734 0.0039826
0.899123 0.393164 0.00395209
0.893339 0.380102 0.00390631
0.888029 0.368399 0.00387579
0.88333 0.358663 0.00384527
0.00254826 0.288548 0.0612497
0.00254826 0.288563 0.0612497
0.00254826 0.287053 0.0615244
0.00248722 0.273808 0.0639811
0.00247196 0.267475 0.0650797
0.00244144 0.262959 0.0657816
0.00242618 0.258869 0.0660258
0.00540169 0.273167 0.0630503
0.00759899 0.28751 0.0578012
0.00920119 0.298726 0.0500801
0.0116732 0.32018 0.0194095
0.0112764 0.326513 0.0175937
0.00895705 0.322942 0.0402686
0.00892653 0.331838 0.0328069
0.0106508 0.351385 0.0120699
0.0809491 0.423957 0.00341802
0.564446 0.516533 0.00373846
0.750393 0.538415 0.00386053
0.817472 0.545159 0.00393683
0.86186 0.547417 0.0039826
0.891249 0.545571 0.00404364
0.91075 0.541207 0.00407416
0.92459 0.537011 0.00411994
0.933867 0.532967 0.00415045
0.939956 0.529793 0.00418097
0.943999 0.526421 0.00421149
0.946441 0.521675 0.00422675
0.946838 0.514763 0.00424201
0.944244 0.503609 0.00422675
0.936934 0.484779 0.00419623
0.930175 0.467582 0.00415045
0.923751 0.451331 0.00410468
0.918029 0.436805 0.00407416
0.00268559 0.323339 0.0524147
0.00270085 0.323461 0.052369
0.00268559 0.322332 0.0527047
0.00263981 0.311742 0.0556649
0.00260929 0.303853 0.0578775
0.00259403 0.299565 0.0591287
0.00257877 0.295506 0.0599527
0.00457771 0.304814 0.0574502
0.007187 0.322621 0.0455482
0.00886549 0.335653 0.0297551
0.0110933 0.356344 0.00817884
0.0132601 0.385611 0.00326543
0.0113985 0.375479 0.00341802
0.00932326 0.367849 0.00784314
0.00970474 0.378668 0.00489815
0.0121157 0.408927 0.00331121
0.236133 0.500069 0.00367742
0.672023 0.59913 0.0039826
0.826459 0.613535 0.00408942
0.881498 0.618128 0.00415045
0.913832 0.619135 0.00421149
0.935653 0.617197 0.00425727
0.951339 0.614527 0.00428778
0.962386 0.61236 0.00433356
0.969512 0.610651 0.00436408
0.974578 0.6094 0.0043946
0.978363 0.607431 0.00440986
0.980407 0.603983 0.00444038
0.980072 0.597681 0.00444038
0.975418 0.584222 0.00442512
0.968612 0.566873 0.00437934
0.961654 0.548959 0.00433356
0.954803 0.531121 0.00430304
0.00283818 0.354376 0.035172
0.00283818 0.354604 0.0350347
0.00283818 0.353704 0.0355535
0.00282292 0.349905 0.0379797
0.00276188 0.337591 0.0459754
0.00273136 0.333471 0.0487068
0.00271611 0.329839 0.0505989
0.00344854 0.331212 0.0502022
0.00668345 0.353231 0.0265049
0.00856031 0.368978 0.00947585
0.0104067 0.387167 0.0037232
0.0133364 0.423285 0.0033875
0.0142824 0.443412 0.0034638
0.0113527 0.416953 0.00334173
0.00988785 0.411414 0.00328069
0.010605 0.426062 0.00335698
0.0137026 0.469276 0.00357061
0.347402 0.578042 0.00393683
0.760006 0.673732 0.00421149
0.889967 0.680781 0.00430304
0.931182 0.682872 0.00436408
0.955062 0.682963 0.00440986
0.972137 0.681498 0.00445563
0.9823 0.679225 0.00450141
0.988144 0.676753 0.00453193
0.991897 0.674479 0.00456245
0.993957 0.67219 0.00457771
0.995148 0.669642 0.00460822
0.996094 0.666377 0.00462348
0.995789 0.660273 0.00462348
0.993973 0.648768 0.00457771
0.991897 0.636088 0.00454719
0.989624 0.62298 0.00451667
0.00299077 0.383963 0.00772107
0.00299077 0.384298 0.00738537
0.00299077 0.383505 0.00819409
0.00297551 0.380758 0.0110781
0.00291447 0.367941 0.0239872
0.00288396 0.363622 0.0281529
0.0028687 0.360082 0.0315251
0.00285344 0.356725 0.0336767
0.00607309 0.379324 0.00717174
0.00820935 0.39855 0.00323491
0.00982681 0.415 0.00329595
0.0124666 0.447852 0.00347906
0.017792 0.490761 0.00366217
0.0148318 0.492988 0.00366217
0.0114137 0.455543 0.00349432
0.010544 0.453895 0.00347906
0.0116579 0.472923 0.00357061
0.0166018 0.532006 0.00383001
0.455695 0.652522 0.00416571
0.833341 0.73817 0.00442512
0.939696 0.742397 0.00451667
0.970199 0.742336 0.00456245
0.984192 0.741054 0.00460822
0.989013 0.737362 0.004654
0.99115 0.733333 0.00468452
0.992676 0.729732 0.00471504
0.994034 0.726467 0.0047303
0.995193 0.723293 0.00474556
0.996139 0.720562 0.00476081
0.996887 0.716838 0.00477607
0.997009 0.70956 0.00476081
0.996948 0.699855 0.0047303
0.996887 0.68925 0.00469978
0.00314336 0.411795 0.00315862
0.00314336 0.4121 0.00315862
0.00314336 0.411566 0.00317388
0.0031281 0.409537 0.00317388
0.00306706 0.397452 0.00321965
0.00303655 0.392859 0.00325017
0.00302129 0.389425 0.00326543
0.00300603 0.386267 0.00527962
0.00526436 0.401816 0.00317388
0.00781262 0.425101 0.00334173
0.00943008 0.441825 0.00343328
0.0115511 0.467353 0.00355535
0.0148775 0.516869 0.00376898
0.0292668 0.550057 0.00389105
0.0149996 0.529412 0.00383001
0.0117189 0.490883 0.00366217
0.0112917 0.491814 0.00367742
0.0129702 0.518196 0.0037995
0.0517739 0.587991 0.00407416
0.573632 0.716518 0.00440986
0.894926 0.787655 0.00462348
0.977508 0.792035 0.00469978
0.987259 0.786892 0.00476081
0.989212 0.783246 0.00479133
0.990906 0.779904 0.00483711
0.992432 0.776471 0.00485237
0.993805 0.773068 0.00486763
0.994995 0.769818 0.00488289
0.996017 0.767285 0.00489815
0.996826 0.764523 0.00491341
0.997223 0.760601 0.00491341
0.997192 0.754238 0.00488289
0.997162 0.746105 0.00486763
0.00328069 0.434623 0.00332647
0.00328069 0.434897 0.00332647
0.00328069 0.434516 0.00332647
0.00328069 0.433173 0.00331121
0.00321965 0.423896 0.00323491
0.00318914 0.419577 0.00318914
0.00317388 0.416693 0.00317388
0.00315862 0.413916 0.00315862
0.00416571 0.419562 0.00326543
0.00730907 0.445991 0.00343328
0.00914015 0.464561 0.00354009
0.0109102 0.485435 0.00364691
0.013901 0.528038 0.00383001
0.0413062 0.580118 0.00404364
0.0738842 0.59617 0.00410468
0.0149538 0.55552 0.0039826
0.0122683 0.521447 0.00384527
0.0124208 0.52752 0.00389105
0.0145876 0.561624 0.00404364
0.199939 0.638529 0.00430304
0.685969 0.769039 0.00462348
0.942702 0.823514 0.00482185
0.986648 0.820371 0.00488289
0.988968 0.815442 0.00492866
0.990662 0.812924 0.00497444
0.992203 0.81033 0.0049897
0.993561 0.807492 0.00500496
0.994781 0.80499 0.00502022
0.995865 0.802792 0.00503548
0.99675 0.800732 0.00503548
0.997436 0.798611 0.00505074
0.997406 0.794598 0.00502022
0.997375 0.790265 0.00500496
0.00341802 0.451942 0.00343328
0.00341802 0.45214 0.00343328
0.00341802 0.451942 0.00343328
0.00341802 0.451072 0.00341802
0.00337224 0.445655 0.0033875
0.00332647 0.441016 0.00337224
0.00331121 0.438743 0.00335698
0.00329595 0.43624 0.00334173
0.00328069 0.433829 0.00331121
0.00668345 0.460426 0.00350958
0.0087892 0.480659 0.00363165
0.0104219 0.498726 0.00373846
0.0130465 0.533837 0.00390631
0.0165408 0.588983 0.00411994
0.169757 0.630762 0.00427253
0.1234 0.627375 0.00427253
0.0151522 0.576349 0.00411994
0.0130312 0.54786 0.00402838
0.0136416 0.559625 0.00408942
0.0163119 0.602945 0.00427253
0.351247 0.686671 0.00451667
0.775464 0.809903 0.00482185
0.975296 0.849134 0.0049897
0.988174 0.83975 0.00505074
0.990417 0.835828 0.00509651
0.991943 0.833738 0.00511177
0.993317 0.831601 0.00512703
0.994568 0.829648 0.00514229
0.995682 0.827939 0.00514229
0.996628 0.826429 0.00515755
0.997391 0.824887 0.00515755
0.997604 0.822507 0.00515755
0.997574 0.819623 0.00514229
0.00355535 0.465171 0.00355535
0.00355535 0.465324 0.00355535
0.00355535 0.465217 0.00355535
0.00354009 0.464668 0.00354009
0.00352483 0.462913 0.00352483
0.0034638 0.45716 0.0034638
0.00344854 0.45507 0.00344854
0.00343328 0.453101 0.00343328
0.00341802 0.451377 0.00343328
0.00588998 0.469413 0.00357061
0.0083772 0.491173 0.0037232
0.00996414 0.507408 0.00383001
0.0122988 0.537072 0.0039826
0.0157321 0.589792 0.00419623
0.165972 0.643351 0.00437934
0.308995 0.671519 0.00447089
0.163256 0.648234 0.00442512
0.0154421 0.594202 0.00427253
0.0139467 0.573754 0.00421149
0.0151217 0.594003 0.00430304
0.0739147 0.640406 0.00447089
0.463111 0.732631 0.00471504
0.846586 0.840848 0.0049897
0.985458 0.864012 0.00514229
0.989578 0.855116 0.00520333
0.991684 0.851438 0.00521859
0.993072 0.84976 0.00523384
0.994339 0.848173 0.0052491
0.995483 0.846723 0.0052491
0.99649 0.845441 0.00526436
0.997299 0.844221 0.00527962
0.997787 0.842695 0.00526436
0.997772 0.840513 0.00526436
0.00367742 0.475868 0.00367742
0.00367742 0.476005 0.00367742
0.00367742 0.475914 0.00367742
0.00367742 0.475563 0.00367742
0.00366217 0.474464 0.00366217
0.00360113 0.469474 0.00360113
0.00357061 0.467628 0.00357061
0.00355535 0.466072 0.00355535
0.00354009 0.464729 0.00354009
0.00483711 0.472541 0.00363165
0.0078584 0.498131 0.00381476
0.00965896 0.515785 0.00392157
0.0115663 0.538064 0.00404364
0.0148318 0.585855 0.00425727
0.0878462 0.641855 0.00445563
0.342092 0.691569 0.00459297
