creator/6-Editing/New LUTS/2-LOG-Looks/Pocket3/Warm-Trust.cube
TITLE "Generated by Resolve"
LUT_3D_SIZE 5
0.0260624 0.0276799 0.031693
0.0992905 0.0439918 0.0349889
0.494881 0.000976577 0.000976577
0.670146 0.00129702 0.00131228
0.675532 0.00131228 0.00132753
0.00215152 0.0769665 0.0487831
0.062562 0.0819562 0.0497902
0.586328 0.08159 0.00216678
0.723857 0.00976577 0.00239567
0.731136 0.00891127 0.00238041
0.00254826 0.288548 0.0612497
0.00759899 0.28751 0.0578012
0.564446 0.516533 0.00373846
0.939956 0.529793 0.00418097
0.918029 0.436805 0.00407416
0.00367742 0.475868 0.00367742
0.00354009 0.464729 0.00354009
0.376364 0.703975 0.00463874
0.986969 0.873564 0.00527962
0.99794 0.85658 0.00535592
0.00433356 0.519326 0.0181735
0.00433356 0.519326 0.0181735
0.108125 0.684749 0.00514229
0.51162 0.776089 0.00523384
0.995544 0.895842 0.00587472
0.0148013 0.028687 0.100649
0.0989548 0.0436255 0.110582
0.51928 0.00120546 0.0984207
0.687984 0.0015259 0.07364
0.692226 0.00154116 0.0341039
0.0018616 0.0870222 0.109773
0.0682231 0.0884871 0.0966812
0.535409 0.0552071 0.0238956
0.727016 0.00901808 0.00950637
0.732647 0.00779736 0.00839246
0.00285344 0.314946 0.116274
0.00712596 0.300511 0.0979019
0.573159 0.508629 0.00767529
0.927459 0.490669 0.00505074
0.932815 0.471717 0.00521859
0.00375372 0.480171 0.0175174
0.00352483 0.462165 0.00352483
0.485588 0.734081 0.00466926
0.987137 0.870008 0.0052491
0.997894 0.852918 0.00534066
0.00433356 0.519326 0.0181735
0.00433356 0.519326 0.0181735
0.0535134 0.66862 0.00517281
0.976501 0.900298 0.00564584
0.995666 0.895674 0.00585946
0.000518807 0.000518807 0.348638
0.0864576 0.000976577 0.388113
0.569848 0.00146487 0.453529
0.729778 0.00181582 0.458839
0.733272 0.00183108 0.433692
0.00199893 0.0122072 0.372
0.0133211 0.038117 0.382254
0.557931 0.0189364 0.447852
0.755932 0.00885023 0.426902
0.760739 0.00759899 0.38854
0.00389105 0.401907 0.510613
0.00762951 0.386038 0.480858
0.592737 0.575723 0.519707
0.913268 0.545205 0.481315
0.922179 0.505028 0.442542
0.00468452 0.580957 0.512795
0.00445563 0.559838 0.447761
0.166232 0.742535 0.442466
0.9664 0.879515 0.396109
0.998138 0.844617 0.21001
0.00505074 0.609628 0.484733
0.00495918 0.597848 0.429694
0.0147707 0.683436 0.410727
0.946059 0.895964 0.330724
0.996094 0.893736 0.286168
0.000686656 0.000686656 0.481697
0.0364843 0.00155642 0.527321
0.594949 0.00143435 0.620096
0.761883 0.00202945 0.646967
0.768017 0.00207523 0.643381
0.00207523 0.0113069 0.545708
0.00975052 0.0113222 0.565713
0.564477 0.0105135 0.663798
0.785016 0.00863661 0.673823
0.792554 0.00704967 0.657237
0.00421149 0.410391 0.729168
0.00761425 0.390692 0.721798
0.543603 0.594583 0.816159
0.910231 0.570687 0.828412
0.924849 0.53579 0.811688
0.00540169 0.622812 0.792859
0.0052491 0.612314 0.777127
0.019379 0.769848 0.832227
0.951446 0.935241 0.874327
0.997909 0.932708 0.863676
0.00584421 0.66212 0.797162
0.00578317 0.658351 0.782361
0.014374 0.740154 0.807813
0.899229 0.955901 0.852735
0.996216 0.968063 0.848249
0.000686656 0.000686656 0.481697
0.0248569 0.00169375 0.529015
0.577752 0.00103761 0.620798
0.762219 0.00181582 0.656474
0.770367 0.00158694 0.657725
0.00224308 0.0115053 0.563775
0.0093843 0.0115053 0.584772
0.561212 0.0113832 0.691081
0.797971 0.0102998 0.716731
0.813153 0.00900282 0.714321
0.00427253 0.404501 0.747265
0.00721752 0.386374 0.746487
0.504417 0.595026 0.84152
0.911421 0.591699 0.868467
0.931579 0.563897 0.863798
0.00555428 0.62858 0.829816
0.00543221 0.616861 0.824033
0.0184634 0.758404 0.877775
0.942733 0.936141 0.93315
0.994965 0.935729 0.934264
0.00614939 0.670634 0.848386
0.00611887 0.668132 0.846006
0.0144656 0.746593 0.875532
0.878965 0.96054 0.933745
0.994919 0.975708 0.938323
