creator/6-Editing/New LUTS/2-LOG-Looks/Pocket3/Warm-Trust.cube
TITLE "Generated by Resolve"
LUT_3D_SIZE 9
0.0260624 0.0276799 0.031693
0.043595 0.0318456 0.0354009
0.0992905 0.0439918 0.0349889
0.264454 0.052842 0.00077821
0.494881 0.000976577 0.000976577
0.625055 0.00115969 0.00117494
0.670146 0.00129702 0.00131228
0.675532 0.00131228 0.00132753
0.675532 0.00131228 0.00132753
0.0229496 0.0442054 0.0377203
0.0348974 0.0439918 0.0392309
0.102174 0.0540475 0.0381628
0.255482 0.0614786 0.00267033
0.470985 0.00926223 0.00112917
0.605936 0.00135805 0.00114443
0.662104 0.0012665 0.00128176
0.675532 0.00131228 0.00132753
0.675532 0.00131228 0.00132753
0.00215152 0.0769665 0.0487831
0.00720226 0.0704662 0.0470588
0.062562 0.0819562 0.0497902
0.280369 0.10837 0.00419623
0.586328 0.08159 0.00216678
0.686824 0.0139162 0.00225834
0.723857 0.00976577 0.00239567
0.736477 0.00961318 0.00247196
0.731136 0.00891127 0.00238041
0.00190738 0.156863 0.0640116
0.00180056 0.140459 0.0623789
0.00833143 0.155764 0.0630198
0.197559 0.207904 0.0275578
0.62446 0.264393 0.0030518
0.777539 0.242954 0.00320439
0.809247 0.216175 0.00329595
0.80975 0.201846 0.00329595
0.803067 0.188174 0.00325017
0.00254826 0.288548 0.0612497
0.00247196 0.267475 0.0650797
0.00759899 0.28751 0.0578012
0.00895705 0.322942 0.0402686
0.564446 0.516533 0.00373846
0.891249 0.545571 0.00404364
0.939956 0.529793 0.00418097
0.944244 0.503609 0.00422675
0.918029 0.436805 0.00407416
0.00314336 0.411795 0.00315862
0.00306706 0.397452 0.00321965
0.00526436 0.401816 0.00317388
0.0148775 0.516869 0.00376898
0.0112917 0.491814 0.00367742
0.894926 0.787655 0.00462348
0.990906 0.779904 0.00483711
0.996017 0.767285 0.00489815
0.997162 0.746105 0.00486763
0.00367742 0.475868 0.00367742
0.00366217 0.474464 0.00366217
0.00354009 0.464729 0.00354009
0.0115663 0.538064 0.00404364
0.376364 0.703975 0.00463874
0.0207828 0.628382 0.00450141
0.986969 0.873564 0.00527962
0.995285 0.861067 0.00535592
0.99794 0.85658 0.00535592
0.00415045 0.507591 0.00471504
0.0041352 0.507179 0.00469978
0.00401312 0.500389 0.0043183
0.00972 0.548226 0.00433356
0.384543 0.728618 0.00495918
0.462394 0.755154 0.00505074
0.438376 0.749905 0.00509651
0.991897 0.892348 0.00567636
0.998199 0.888289 0.00569161
0.00433356 0.519326 0.0181735
0.00433356 0.519326 0.0181735
0.00433356 0.519326 0.0181735
0.00737011 0.543908 0.00856031
0.108125 0.684749 0.00514229
0.792065 0.856077 0.00543221
0.51162 0.776089 0.00523384
0.718883 0.835599 0.00537118
0.995544 0.895842 0.00587472
0.0250858 0.0296178 0.0505989
0.0414588 0.033341 0.0541238
0.102113 0.0458991 0.0547036
0.270115 0.0474403 0.0295415
0.505898 0.00105287 0.00593576
0.633799 0.00123598 0.00556954
0.677394 0.00135805 0.00505074
0.681727 0.00137331 0.00424201
0.679896 0.00135805 0.00328069
0.0231327 0.0457465 0.0539559
0.0353094 0.0446174 0.0521553
0.0949264 0.053315 0.0513008
0.246998 0.0590677 0.0218814
0.469154 0.00257877 0.00343328
0.606851 0.00112917 0.002533
0.66244 0.0012665 0.00146487
0.675532 0.00131228 0.00132753
0.675532 0.00131228 0.00132753
0.00137331 0.0786755 0.0578012
0.00560006 0.0700236 0.0498817
0.0652628 0.0803998 0.050309
0.2878 0.103487 0.00370794
0.537697 0.0988632 0.00213626
0.672816 0.0302586 0.00227359
0.721538 0.00972 0.00238041
0.735225 0.00944533 0.00244144
0.729412 0.00868238 0.00234989
0.00187686 0.153292 0.0636759
0.00178531 0.137423 0.0620432
0.00943008 0.151186 0.0621042
0.201709 0.202472 0.0288243
0.618418 0.25539 0.00300603
0.771939 0.224125 0.00315862
0.804791 0.213565 0.00326543
0.819486 0.22269 0.0033875
0.810285 0.202914 0.00331121
0.002533 0.283909 0.0621195
0.00244144 0.263096 0.0657664
0.00724804 0.279805 0.0599985
0.0648661 0.371603 0.00326543
0.566598 0.506157 0.00370794
0.885496 0.534142 0.00401312
0.933532 0.511833 0.0041352
0.934813 0.479377 0.00418097
0.917082 0.434363 0.0040589
0.0031281 0.408362 0.00317388
0.0030518 0.394034 0.00323491
0.00459297 0.392615 0.00364691
0.0142672 0.503014 0.00370794
0.0494545 0.571038 0.0039826
0.894652 0.781735 0.00460822
0.990768 0.773877 0.00480659
0.996002 0.76141 0.00488289
0.997101 0.732021 0.00482185
0.00366217 0.474632 0.00366217
0.00364691 0.473228 0.00364691
0.00352483 0.46331 0.00352483
0.0111696 0.531807 0.00399786
0.510582 0.74258 0.00469978
0.328328 0.695689 0.00466926
0.987015 0.871611 0.00526436
0.995178 0.859266 0.00534066
0.997909 0.854871 0.00535592
0.0041352 0.506767 0.00466926
0.00411994 0.506325 0.00463874
0.00401312 0.499535 0.00428778
0.00943008 0.544396 0.00430304
0.34966 0.717571 0.00491341
0.805417 0.85388 0.00529488
0.615 0.801617 0.00520333
0.991943 0.891814 0.0056611
0.998123 0.887755 0.00567636
0.00433356 0.519326 0.0181735
0.00433356 0.519326 0.0181735
0.00433356 0.519326 0.0181735
0.0068513 0.539086 0.00975052
0.0761883 0.676005 0.00515755
0.792935 0.856199 0.00543221
0.828336 0.865843 0.00547799
0.810849 0.861524 0.00546273
0.995575 0.895766 0.00587472
0.0148013 0.028687 0.100649
0.0385595 0.0317082 0.106233
0.0989548 0.0436255 0.110582
0.278172 0.0440833 0.107546
0.51928 0.00120546 0.0984207
0.645243 0.00140383 0.0881819
0.687984 0.0015259 0.07364
0.693233 0.00155642 0.054078
0.692226 0.00154116 0.0341039
0.00573739 0.0465705 0.100496
0.0280613 0.0461585 0.0978408
0.0924086 0.053666 0.101854
0.248157 0.0577096 0.0894942
0.475303 0.0019379 0.0497292
0.621149 0.00129702 0.0269017
0.678279 0.00144961 0.0186313
0.691554 0.00149538 0.0104372
0.6907 0.00148013 0.00935378
0.0018616 0.0870222 0.109773
0.00173953 0.0774243 0.0952316
0.0682231 0.0884871 0.0966812
0.268666 0.11017 0.0877852
0.535409 0.0552071 0.0238956
0.678538 0.00967422 0.0110475
0.727016 0.00901808 0.00950637
0.740368 0.00875868 0.00910964
0.732647 0.00779736 0.00839246
0.00234989 0.176745 0.121004
0.00218204 0.155871 0.103487
0.00840772 0.166491 0.0982681
0.21062 0.216953 0.0834821
0.627573 0.242313 0.00886549
0.762478 0.228275 0.00885023
0.806668 0.216602 0.00814832
0.820218 0.213169 0.0075227
0.809323 0.190036 0.00679026
0.00285344 0.314946 0.116274
0.00273136 0.288869 0.105669
0.00712596 0.300511 0.0979019
0.089189 0.383474 0.0110475
0.573159 0.508629 0.00767529
0.884855 0.528191 0.00518807
0.927459 0.490669 0.00505074
0.938247 0.48629 0.00576791
0.932815 0.471717 0.00521859
0.00334173 0.430579 0.0883345
0.00321965 0.412131 0.0763561
0.0040589 0.399573 0.062562
0.0135195 0.493721 0.00531014
0.554208 0.685283 0.00512703
0.897383 0.778347 0.00480659
0.990692 0.768414 0.00479133
0.996063 0.75256 0.00485237
0.99704 0.717754 0.00477607
0.00375372 0.480171 0.0175174
0.0037232 0.477653 0.00927749
0.00352483 0.462165 0.00352483
0.0108186 0.526589 0.00396735
0.485588 0.734081 0.00466926
0.652522 0.789746 0.00485237
0.987137 0.870008 0.0052491
0.995102 0.85774 0.0053254
0.997894 0.852918 0.00534066
0.00411994 0.506111 0.00462348
0.00410468 0.505638 0.00459297
0.00399786 0.498909 0.00425727
0.00917067 0.541253 0.00427253
0.321447 0.708659 0.00489815
0.876951 0.871031 0.00534066
0.787701 0.850813 0.00531014
0.992035 0.891371 0.0056611
0.998077 0.887343 0.00567636
0.00433356 0.519326 0.0181735
0.00433356 0.519326 0.0181735
0.00433356 0.519326 0.0181735
0.00639353 0.534936 0.0106508
0.0535134 0.66862 0.00517281
0.779904 0.852399 0.00541695
0.976501 0.900298 0.00564584
0.899565 0.883223 0.00555428
0.995666 0.895674 0.00585946
0.000411994 0.000411994 0.214206
0.0108034 0.000610361 0.221836
0.099794 0.00125124 0.244038
0.29839 0.00112917 0.266011
0.546502 0.00134279 0.279576
0.666392 0.00154116 0.279881
0.707713 0.00167849 0.273793
0.712947 0.00170901 0.260014
0.711116 0.00169375 0.242573
0.000869764 0.00943008 0.204547
0.00460822 0.0157626 0.202914
0.0850843 0.0220035 0.223087
0.245701 0.0247501 0.226184
0.487037 0.00158694 0.223468
0.638895 0.00144961 0.22089
0.694423 0.00161746 0.213748
0.706676 0.00166323 0.201419
0.704921 0.00164797 0.183642
0.00201419 0.0797894 0.231083
0.0018616 0.0708019 0.208957
0.0308537 0.0922103 0.229511
0.268803 0.113619 0.25124
0.54612 0.037995 0.235492
0.690639 0.00968948 0.220981
0.738247 0.00907912 0.206607
0.751171 0.00886549 0.194217
0.742596 0.0078584 0.168093
0.00288396 0.204471 0.272511
0.00273136 0.180514 0.241276
0.00877394 0.19379 0.247028
0.224125 0.245289 0.252918
0.607385 0.26183 0.23827
0.760006 0.223224 0.207324
0.801007 0.1953 0.186786
0.814633 0.190906 0.174044
0.80267 0.152712 0.14583
0.00341802 0.363378 0.291554
0.00328069 0.332784 0.257115
0.00729381 0.343969 0.247745
0.0165713 0.417731 0.235706
0.559442 0.525261 0.19826
0.86656 0.505135 0.05243
0.909285 0.49337 0.0661021
0.925139 0.489876 0.0148775
0.919783 0.462272 0.0215305
0.00378424 0.479866 0.276188
0.00366217 0.460273 0.245151
0.00376898 0.441596 0.21886
0.0123903 0.51545 0.2038
0.544259 0.688899 0.0285649
0.877424 0.774182 0.0140536
0.990509 0.767971 0.0111543
0.996216 0.744457 0.0111086
0.99707 0.726268 0.0115663
0.00416571 0.526421 0.258686
0.0041352 0.523323 0.250843
0.00393683 0.502312 0.197314
0.0106966 0.550546 0.177752
0.390494 0.714519 0.0133059
0.885801 0.85008 0.0113222
0.986984 0.870329 0.0112306
0.995132 0.860914 0.0096437
0.997909 0.853635 0.0081178
0.00453193 0.54992 0.259022
0.00451667 0.548836 0.255512
0.0043183 0.52903 0.189548
0.00914015 0.56112 0.168124
0.141482 0.68542 0.0222934
0.8448 0.8645 0.00982681
0.906401 0.874632 0.0120241
0.992172 0.891707 0.0096437
0.998047 0.887221 0.00671397
0.004654 0.555825 0.239612
0.004654 0.555795 0.239445
0.00457771 0.545113 0.188052
0.00608835 0.550225 0.157412
0.0163577 0.654414 0.042237
0.749447 0.843503 0.00799573
0.985641 0.900069 0.00662242
0.929183 0.876692 0.0539864
0.995758 0.895338 0.00614939
0.000518807 0.000518807 0.348638
0.00630198 0.000701915 0.358526
0.0864576 0.000976577 0.388113
0.317998 0.00123598 0.427527
0.569848 0.00146487 0.453529
0.68864 0.00167849 0.460258
0.729778 0.00181582 0.458839
0.735302 0.00184634 0.448585
0.733272 0.00183108 0.433692
0.0009308 0.00497444 0.343954
0.00411994 0.00430304 0.339132
0.0534981 0.0037232 0.362036
0.25507 0.00260929 0.390204
0.503471 0.00137331 0.40177
0.661753 0.00158694 0.412451
0.716762 0.00175479 0.409567
0.72903 0.00181582 0.400153
0.727382 0.00180056 0.384482
0.00199893 0.0122072 0.372
0.00181582 0.0107118 0.349493
0.0133211 0.038117 0.382254
0.261173 0.0819562 0.435111
0.557931 0.0189364 0.447852
0.707393 0.00943008 0.438361
0.755932 0.00885023 0.426902
0.769665 0.00865187 0.4168
0.760739 0.00759899 0.38854
0.00311284 0.204318 0.448951
0.00296025 0.17644 0.417487
0.00895705 0.198077 0.438285
0.184085 0.267094 0.476341
0.609277 0.284108 0.502235
0.77145 0.244114 0.479072
0.813581 0.215274 0.458137
0.827726 0.213291 0.446479
0.81706 0.175433 0.416388
0.00389105 0.401907 0.510613
0.00376898 0.373159 0.478126
0.00762951 0.386038 0.480858
0.0149996 0.457267 0.504601
0.592737 0.575723 0.519707
0.859785 0.570977 0.500923
0.913268 0.545205 0.481315
0.928435 0.537774 0.468284
0.922179 0.505028 0.442542
0.00434882 0.532753 0.523278
0.00424201 0.51606 0.493004
0.00411994 0.496559 0.462593
0.0125124 0.576532 0.488441
0.447227 0.735424 0.481697
0.847196 0.807263 0.469718
0.977203 0.787549 0.41294
0.992523 0.787594 0.425071
0.995697 0.774456 0.392447
0.00468452 0.580957 0.512795
0.004654 0.578515 0.505241
0.00445563 0.559838 0.447761
0.0108797 0.610162 0.458915
0.166232 0.742535 0.442466
0.848554 0.861479 0.409445
0.9664 0.879515 0.396109
0.995361 0.854185 0.224735
0.998138 0.844617 0.21001
0.00495918 0.60415 0.510338
0.00495918 0.60322 0.507073
0.00474556 0.584451 0.439582
0.00924697 0.61503 0.435279
0.0178225 0.709224 0.423728
0.775235 0.864256 0.386374
0.966461 0.892485 0.337804
0.992264 0.892134 0.321157
0.998184 0.872587 0.050721
0.00505074 0.609628 0.484733
0.00505074 0.609628 0.484733
0.00495918 0.597848 0.429694
0.00587472 0.598962 0.406165
0.0147707 0.683436 0.410727
0.675593 0.849454 0.385595
0.946059 0.895964 0.330724
0.969604 0.913039 0.439597
0.996094 0.893736 0.286168
0.000610361 0.000610361 0.439734
0.00604257 0.00077821 0.449577
0.0478523 0.00108339 0.480369
0.322652 0.00134279 0.531838
0.586648 0.00157168 0.570413
0.707195 0.00178531 0.584604
0.749554 0.0019379 0.589395
0.75555 0.00196841 0.584131
0.754055 0.00196841 0.575402
0.0010071 0.00480659 0.448066
0.00384527 0.00402838 0.444327
0.0136568 0.00343328 0.466743
0.251041 0.00231937 0.504646
0.518013 0.00148013 0.536141
0.679973 0.00169375 0.55494
0.736889 0.00187686 0.558297
0.750927 0.0019379 0.554849
0.749401 0.00192264 0.544411
0.0019379 0.0112154 0.484123
0.00172427 0.0100862 0.465522
0.0100557 0.0113985 0.503609
0.251926 0.0360113 0.560204
0.562539 0.0102998 0.59527
0.720867 0.00914015 0.596872
0.771817 0.00836194 0.589929
0.787137 0.00825513 0.585489
0.778012 0.0071107 0.56173
0.00318914 0.166873 0.568551
0.00302129 0.130632 0.540139
0.00894179 0.164675 0.56849
0.111727 0.26978 0.61941
0.596674 0.287724 0.670253
0.774868 0.242054 0.664515
0.820874 0.208759 0.649989
0.836454 0.207996 0.643061
0.827161 0.163272 0.619303
0.00410468 0.411948 0.664256
0.0039826 0.382437 0.64036
0.00770581 0.395697 0.648798
0.0148013 0.470253 0.685847
0.56791 0.593973 0.735973
0.852003 0.593896 0.740902
0.912154 0.567834 0.724025
0.92845 0.561288 0.713558
0.924163 0.531563 0.69276
0.00471504 0.55787 0.700191
0.00462348 0.543648 0.682551
0.00451667 0.52604 0.661128
0.0128481 0.610269 0.704707
0.337331 0.763455 0.735714
0.857191 0.840238 0.750683
0.96141 0.834272 0.738537
0.983078 0.827039 0.727626
0.986282 0.815793 0.713359
0.00514229 0.613031 0.706294
0.00511177 0.61149 0.701991
0.00494392 0.597421 0.665431
0.0112306 0.650782 0.691325
0.0201419 0.767834 0.709178
0.807401 0.900206 0.72578
0.948486 0.920363 0.722896
0.995743 0.913619 0.687221
0.99852 0.911894 0.689525
0.00541695 0.6365 0.705028
0.00540169 0.635996 0.703395
0.00523384 0.624628 0.661387
0.00946059 0.65655 0.671962
0.016144 0.732799 0.686137
0.723308 0.901793 0.705745
0.948013 0.9355 0.693049
0.989059 0.941268 0.692927
0.998535 0.926299 0.610132
0.00550851 0.646799 0.690303
0.00550851 0.646799 0.690303
0.00540169 0.64033 0.655482
0.00569161 0.638575 0.637873
0.0142672 0.721202 0.664546
0.605905 0.882795 0.681773
0.919356 0.936721 0.675731
0.98941 0.944305 0.660822
0.996414 0.943313 0.659846
0.000686656 0.000686656 0.481697
0.0059968 0.0011902 0.495476
0.0364843 0.00155642 0.527321
0.324834 0.00132753 0.578408
0.594949 0.00143435 0.620096
0.71928 0.00187686 0.639735
0.761883 0.00202945 0.646967
0.769085 0.00207523 0.647013
0.768017 0.00207523 0.643381
0.00108339 0.004654 0.499977
0.00360113 0.00393683 0.498497
0.0117189 0.00344854 0.521416
0.243717 0.00195315 0.557244
0.526452 0.00157168 0.60148
0.692515 0.00180056 0.624842
0.751064 0.00196841 0.633539
0.765682 0.00204471 0.634791
0.764584 0.00204471 0.630594
0.00207523 0.0113069 0.545708
0.00183108 0.0101015 0.531594
0.00975052 0.0113222 0.565713
0.244739 0.0371862 0.618601
0.564477 0.0105135 0.663798
0.731411 0.00941482 0.674403
0.785016 0.00863661 0.673823
0.800793 0.0083772 0.673136
0.792554 0.00704967 0.657237
0.00326543 0.146319 0.622827
0.00309758 0.0946975 0.601099
0.00889601 0.148913 0.628244
0.0812848 0.271183 0.683467
0.586786 0.296223 0.741436
0.776455 0.250019 0.745769
0.826825 0.212375 0.73872
0.843214 0.209964 0.73666
0.835111 0.159319 0.720913
0.00421149 0.410391 0.729168
0.00408942 0.378546 0.712108
0.00761425 0.390692 0.721798
0.0145724 0.46659 0.761242
0.543603 0.594583 0.816159
0.843519 0.59971 0.83563
0.910231 0.570687 0.828412
0.927977 0.563195 0.823377
0.924849 0.53579 0.811688
0.00489815 0.564294 0.778119
0.00480659 0.5514 0.769268
0.00471504 0.532723 0.757839
0.0129702 0.61738 0.801083
0.286336 0.768597 0.837201
0.844755 0.847517 0.874296
0.954192 0.843412 0.873442
0.977966 0.836484 0.867521
0.981598 0.826764 0.860105
0.00540169 0.622812 0.792859
0.00537118 0.621653 0.791333
0.0052491 0.612314 0.777127
0.0114595 0.664836 0.804395
0.019379 0.769848 0.832227
0.778531 0.912917 0.871672
0.951446 0.935241 0.874327
0.990051 0.935363 0.869505
0.997909 0.932708 0.863676
0.00572213 0.648936 0.798856
0.00570687 0.648554 0.798245
0.0055848 0.641337 0.781445
0.00961318 0.671748 0.796155
0.0162966 0.750469 0.822049
0.679774 0.914336 0.858335
0.931716 0.954101 0.865232
0.980865 0.960662 0.865019
0.998901 0.957443 0.846647
0.00584421 0.66212 0.797162
0.00584421 0.66212 0.797223
0.00578317 0.658351 0.782361
0.00573739 0.655787 0.773053
0.014374 0.740154 0.807813
0.541192 0.894514 0.837659
0.899229 0.955901 0.852735
0.980362 0.966201 0.847623
0.996216 0.968063 0.848249
0.000686656 0.000686656 0.481697
0.00579843 0.00115969 0.495567
0.0309911 0.00169375 0.530221
0.316091 0.00131228 0.580804
0.585611 0.00105287 0.62211
0.720745 0.00183108 0.649073
0.762951 0.00180056 0.65655
0.770367 0.00158694 0.657725
0.770367 0.00158694 0.657725
0.00106813 0.00436408 0.506188
0.00326543 0.00375372 0.507225
0.0115816 0.00392157 0.537011
0.234485 0.00163272 0.566384
0.514046 0.000946059 0.610574
0.694545 0.00154116 0.64271
0.756649 0.0019379 0.655802
0.770367 0.00158694 0.657725
0.770367 0.00158694 0.657725
0.00228885 0.0117952 0.566308
0.00213626 0.0108339 0.558389
0.0096437 0.0118105 0.587976
0.242435 0.0745403 0.644251
0.573953 0.011902 0.694423
0.746075 0.0110475 0.713054
0.800198 0.0105745 0.718807
0.817578 0.0102998 0.722499
0.812314 0.00900282 0.711818
0.0033875 0.157137 0.645014
0.00325017 0.109071 0.627527
0.00892653 0.169055 0.65832
0.0530404 0.28838 0.712505
0.587243 0.331762 0.773556
0.787335 0.29688 0.782986
0.840131 0.264317 0.779217
0.857191 0.260822 0.779614
0.850065 0.222263 0.768841
0.00430304 0.411872 0.749966
0.00418097 0.381491 0.737408
0.00749218 0.394842 0.748592
0.0142824 0.467933 0.786892
0.526131 0.600122 0.841169
0.83801 0.610803 0.864317
0.911406 0.584695 0.862058
0.930755 0.576806 0.860365
0.928206 0.548882 0.852705
0.00500496 0.564538 0.803586
0.00491341 0.551354 0.798154
0.00482185 0.535866 0.791775
0.0129397 0.617166 0.830243
0.225742 0.76408 0.86508
0.833707 0.846174 0.90573
0.948989 0.843427 0.909987
0.976074 0.836027 0.908751
0.980362 0.82678 0.905653
0.00552377 0.627939 0.82446
0.00550851 0.626749 0.823667
0.00538643 0.615045 0.814801
0.0115053 0.667811 0.840635
0.0186923 0.761975 0.868788
0.775158 0.914519 0.912306
0.947112 0.937224 0.921996
0.986938 0.937987 0.921752
0.995956 0.936004 0.919509
0.00588998 0.652216 0.831815
0.00587472 0.651957 0.831617
0.00578317 0.64712 0.826322
0.00961318 0.676539 0.839002
0.0163729 0.754681 0.86627
0.665293 0.916579 0.906172
0.922332 0.957931 0.921355
0.983124 0.965087 0.921904
0.997787 0.964981 0.91986
0.00604257 0.667277 0.835142
0.00604257 0.667277 0.835187
0.0059968 0.66511 0.830091
0.00598154 0.663142 0.826658
0.0144808 0.746212 0.859739
0.5075 0.895491 0.891798
0.885588 0.960388 0.915923
0.974746 0.972564 0.918029
0.994079 0.974716 0.918227
0.000686656 0.000686656 0.481697
0.0055848 0.00109865 0.494591
0.0248569 0.00169375 0.529015
0.306661 0.00132753 0.579126
0.577752 0.00103761 0.620798
0.717723 0.00178531 0.648249
0.762219 0.00181582 0.656474
0.770367 0.00158694 0.657725
0.770367 0.00158694 0.657725
0.0010071 0.00395209 0.503243
0.00276188 0.00317388 0.502373
0.0111696 0.00329595 0.531426
0.222843 0.0015259 0.563043
0.504005 0.000961318 0.608927
0.69012 0.00149538 0.641825
0.755169 0.0019379 0.655558
0.770367 0.00158694 0.657725
0.770367 0.00158694 0.657725
0.00224308 0.0115053 0.563775
0.00209049 0.0105592 0.5561
0.0093843 0.0115053 0.584772
0.228565 0.0612802 0.638575
0.561212 0.0113832 0.691081
0.740703 0.0108186 0.710948
0.797971 0.0102998 0.716731
0.816938 0.010071 0.721569
0.813153 0.00900282 0.714321
0.00335698 0.143862 0.640223
0.00321965 0.0961166 0.62388
0.00869764 0.156893 0.652415
0.0423896 0.274678 0.707103
0.571008 0.32311 0.769375
0.7823 0.293996 0.782788
0.839216 0.265019 0.781399
0.858213 0.265766 0.783963
0.853635 0.236789 0.776745
0.00427253 0.404501 0.747265
0.00416571 0.374533 0.735912
0.00721752 0.386374 0.746487
0.0140536 0.459968 0.785855
0.504417 0.595026 0.84152
0.832166 0.613794 0.86836
0.911421 0.591699 0.868467
0.932158 0.585107 0.868299
0.931579 0.563897 0.863798
0.00500496 0.563165 0.806088
0.00492866 0.550332 0.801923
0.00483711 0.534554 0.796323
0.0128023 0.614221 0.834653
0.173587 0.757992 0.868467
0.824231 0.84387 0.912032
0.945937 0.844236 0.918196
0.975372 0.837659 0.918654
0.980514 0.829557 0.917617
0.00555428 0.62858 0.829816
0.00553903 0.627588 0.829404
0.00543221 0.616861 0.824033
0.011429 0.66746 0.849897
0.0184634 0.758404 0.877775
0.7664 0.912367 0.921965
0.942733 0.936141 0.93315
0.984939 0.937575 0.934966
0.994965 0.935729 0.934264
0.00593576 0.653681 0.839734
0.00593576 0.653437 0.839612
0.00585946 0.648508 0.837201
0.00949111 0.676402 0.851926
0.0163424 0.755032 0.879637
0.65655 0.91548 0.918624
0.918776 0.957885 0.935912
0.981506 0.965362 0.938689
0.996658 0.965438 0.938079
0.00614939 0.670634 0.848386
0.00614939 0.670634 0.848402
0.00611887 0.668132 0.846006
0.00610361 0.666178 0.844404
0.0144656 0.746593 0.875532
0.485664 0.893172 0.906432
0.878965 0.96054 0.933745
0.971588 0.973449 0.938354
0.994919 0.975708 0.938323
