creator/6-Editing/New LUTS/1-Rec709-Looks/Base-Normalization.cube
TITLE "Generated by Resolve"
LUT_3D_SIZE 9
0.0272679 0.0278325 0.0320897
0.0714275 0.0389105 0.0349432
0.24828 0.0546273 0
0.417212 0.0136568 0
0.54786 0.00120546 0
0.643671 0.00141909 0
0.678187 0.00149538 0
0.678187 0.00149538 0
0.678187 0.00149538 0
0.00239567 0.0576791 0.0304875
0.0467079 0.062501 0.0352331
0.299702 0.0817426 0
0.487098 0.0679789 0
0.605264 0.00135805 0
0.667948 0.00146487 0
0.683757 0.00151064 0
0.678187 0.00149538 0
0.678187 0.00149538 0
0 0.171649 0
0.00357061 0.189181 0
0.20827 0.217777 0
0.556497 0.249149 0
0.709941 0.209766 0
0.75639 0.175799 0
0.790722 0.181079 0
0.769284 0.136965 0
0.750484 0.0749828 0
0.0512856 0.321569 0
0.0516365 0.322942 0
0.121874 0.416999 0
0.450767 0.426307 0
0.722683 0.425742 0
0.824125 0.383642 0
0.871107 0.366812 0
0.86038 0.338598 0
0.847089 0.308934 0
0.109468 0.417411 0
0.105287 0.406119 0
0.143038 0.511345 0
0.169848 0.561013 0
0.633158 0.570855 0
0.845396 0.57467 0
0.920546 0.555032 0
0.938201 0.532494 0
0.924193 0.494041 0
0.136324 0.492256 0
0.136645 0.493126 0
0.156603 0.55108 0
0.389166 0.645212 0
0.328145 0.693111 0
0.79234 0.709621 0
0.947692 0.712093 0
0.978805 0.703853 0
0.978851 0.681163 0
0.154559 0.544915 0
0.155535 0.547845 0
0.158938 0.558114 0
0.242588 0.728252 0
0.594797 0.733669 0
0.504173 0.733898 0
0.926497 0.817761 0
0.978332 0.807431 0
0.978332 0.800076 0
0.169207 0.590677 0
0.170565 0.595666 0
0.168658 0.58883 0
0.209705 0.731319 0
0.549981 0.768215 0
0.761425 0.825788 0
0.640116 0.798749 0
0.978485 0.880446 0
0.978408 0.867628 0
0.169238 0.620005 0
0.169238 0.620005 0
0.169238 0.620005 0
0.207218 0.722606 0
0.495277 0.776577 0
0.736126 0.827253 0
0.805524 0.850492 0
0.773709 0.839734 0
0.978546 0.889311 0
0.0193179 0.0278935 0.0930037
0.0729992 0.0385748 0.0881208
0.249393 0.0480201 0.0582895
0.426123 0.000167849 0
0.560021 0.00123598 0
0.653056 0.00143435 0
0.685084 0.00151064 0
0.679286 0.00149538 0
0.678187 0.00149538 0
0.00062562 0.0602731 0.0816663
0.0484016 0.0686351 0.0844587
0.284306 0.0845197 0.0510719
0.503929 0.0146639 0
0.626825 0.00137331 0
0.681987 0.00149538 0
0.69015 0.00151064 0
0.678264 0.00149538 0
0.678187 0.00149538 0
0 0.192554 0
0 0.213397 0
0.239368 0.239231 0.0394751
0.585657 0.253895 0
0.708568 0.231159 0
0.757305 0.189456 0
0.787945 0.177661 0
0.768963 0.135988 0
0.750286 0.0737926 0
0.0449989 0.34728 0
0.0465858 0.343175 0
0.207523 0.431037 0
0.473381 0.439216 0
0.722164 0.422065 0
0.82298 0.376028 0
0.860441 0.360586 0
0.868528 0.356542 0
0.850141 0.315816 0
0.108766 0.420844 0
0.104555 0.40412 0
0.141314 0.506416 0
0.391089 0.52636 0
0.63859 0.569238 0
0.845563 0.573312 0
0.922393 0.550622 0
0.93875 0.533974 0
0.930587 0.511559 0
0.136187 0.491829 0
0.136431 0.492546 0
0.155932 0.54902 0
0.386343 0.646891 0
0.480262 0.651576 0
0.799146 0.711101 0
0.948623 0.712551 0
0.97879 0.703029 0
0.978866 0.67866 0
0.15465 0.545205 0
0.155612 0.548074 0
0.158984 0.558282 0
0.239246 0.727565 0
0.599893 0.734691 0
0.597513 0.745418 0
0.930571 0.81915 0
0.978317 0.808133 0
0.978332 0.800275 0
0.169436 0.59144 0
0.170687 0.596292 0
0.168719 0.589014 0
0.209735 0.731426 0
0.552224 0.768994 0
0.801129 0.837812 0
0.707607 0.817014 0
0.978469 0.880598 0
0.978408 0.868467 0
0.169238 0.620005 0
0.169238 0.620005 0
0.169238 0.620005 0
0.207446 0.723476 0
0.497749 0.776394 0
0.738903 0.828153 0
0.877165 0.870176 0
0.814618 0.853147 0
0.978561 0.889143 0
0.018677 0 0.277256
0.0668956 0 0.271382
0.257267 0 0.249775
0.437232 0 0.232898
0.575875 0 0.210163
0.670817 0 0.177844
0.705531 0 0.137896
0.70042 0 0.0867628
0.696696 7.62951e-05 0.021912
0.0180209 0 0.269917
0.0201114 0.0372625 0.29276
0.293828 0.0652628 0.281636
0.522225 0 0.273579
0.64596 0 0.250553
0.70045 0 0.204425
0.707835 0 0.132189
0.699397 0 0.0761883
0.696513 0.000106813 0.0153048
0.00296025 0.20351 0.291691
0.00263981 0.22031 0.312688
0.251942 0.268009 0.298421
0.564965 0.265751 0.264591
0.704585 0.218952 0.220462
0.75874 0.149203 0.17052
0.7897 0.128832 0.137865
0.770657 0.0464179 0.0784772
0.759304 0.00273136 0.0289921
0 0.38378 0.202014
0 0.378698 0.180423
0 0.493492 0.0909895
0.471977 0.45417 0.187488
0.731929 0.420676 0.0554208
0.812451 0.388144 0.0149691
0.859113 0.36463 0
0.875273 0.360433 0
0.860395 0.321996 0
0.0093843 0.492103 0.0425422
0.0157168 0.476005 0.0237583
0.0644999 0.570031 0
0.430228 0.555779 0.00769055
0.655634 0.59295 0
0.865812 0.598367 0
0.936858 0.56939 0
0.958785 0.573159 0
0.951003 0.550423 0
0.079881 0.544274 0
0.0763256 0.547036 0
0.122667 0.591302 0
0.392416 0.68658 0
0.647898 0.698665 0
0.820706 0.738247 0
0.962158 0.731975 0
0.978759 0.710521 0
0.978897 0.692973 0
0.126314 0.573877 0
0.118273 0.581781 0
0.142473 0.581262 0
0.241917 0.743847 0
0.608713 0.751156 0
0.761547 0.801404 0
0.945769 0.836347 0
0.978317 0.811109 0
0.978332 0.800076 0
0.148516 0.607553 0
0.123262 0.624704 0
0.161944 0.597574 0
0.211261 0.736751 0
0.554864 0.775036 0
0.80856 0.844266 0
0.789014 0.844144 0
0.978515 0.884794 0
0.978408 0.869032 0
0.169238 0.620005 0
0.156115 0.62623 0
0.169238 0.620005 0
0.207721 0.724407 0
0.498985 0.776333 0
0.739818 0.828443 0
0.918029 0.880613 0
0.847074 0.85803 0
0.978561 0.889143 0
0.0264591 0 0.394842
0.0267338 0 0.398733
0.26978 0 0.389929
0.45745 0 0.383352
0.594934 0 0.379767
0.690929 0 0.368612
0.729412 0 0.346716
0.723796 0 0.302831
0.718547 0 0.262303
0.0278325 0 0.415579
0.0292973 0 0.437736
0.312795 0 0.441505
0.546258 0 0.445457
0.667414 0 0.435172
0.720317 0 0.401541
0.729397 0 0.340764
0.722499 0 0.292958
0.717662 0 0.255299
0.0156252 0.197925 0.478721
0.0158083 0.215488 0.504829
0.225345 0.276692 0.51725
0.5664 0.276982 0.499763
0.710979 0.22565 0.47158
0.76875 0.149645 0.432441
0.800351 0.122164 0.409766
0.787503 0.0511788 0.362219
0.776898 0 0.316716
0 0.373907 0.505287
0 0.364157 0.493614
0 0.451209 0.515496
0.484199 0.482826 0.484291
0.713664 0.458183 0.445136
0.813916 0.409522 0.403952
0.857588 0.370748 0.369879
0.869184 0.360006 0.339849
0.851484 0.309514 0.295415
0 0.472938 0.439017
0 0.461784 0.416739
0 0.545663 0.406134
0.374823 0.663188 0.318517
0.633936 0.616053 0.389914
0.836973 0.587274 0.320531
0.898512 0.56997 0.29926
0.934051 0.565469 0.261952
0.925566 0.533822 0.225269
0 0.557168 0.299382
0 0.557153 0.309514
0 0.611124 0.25626
0.106096 0.777661 0.140688
0.623087 0.710048 0.283803
0.780819 0.726558 0.262867
0.928679 0.711498 0.00759899
0.974166 0.700008 0.0133211
0.972137 0.694331 0.0660563
0 0.613336 0.18584
0 0.612787 0.217563
0 0.628458 0.156512
0.0564279 0.79678 0.0509041
0.602945 0.791333 0.189853
0.792981 0.792874 0.0311284
0.903014 0.814954 0.0466316
0.978302 0.818631 0
0.978317 0.810788 0
0 0.652232 0.161944
0 0.652842 0.204807
0 0.651377 0.139223
0.0541085 0.790875 0.0535897
0.598978 0.867857 0.162539
0.761273 0.823758 0.0155032
0.857359 0.851698 0.119905
0.976471 0.874022 0
0.978439 0.875288 0
0 0.673686 0.142382
0 0.671733 0.172656
0.000198367 0.674357 0.127428
0.0407721 0.783047 0.0739605
0.520867 0.900435 0.149615
0.704372 0.816724 0.117693
0.879835 0.858412 0.0270542
0.868376 0.873869 0.331212
0.979095 0.872862 0.0579843
0.0323796 0 0.484123
0.0328527 0 0.491234
0.264332 0 0.49398
0.47129 0 0.494301
0.610819 0 0.494514
0.705882 0 0.489036
0.749416 0 0.474586
0.743862 0 0.440055
0.738689 0 0.409659
0.0346075 0 0.517403
0.0359808 0 0.537926
0.316991 0 0.553017
0.561807 0 0.55787
0.683101 0 0.548547
0.733562 0 0.518349
0.748348 0 0.465568
0.742367 0 0.431861
0.737819 0 0.403769
0.026215 0.158053 0.590158
0.0254826 0.186053 0.614801
0.186954 0.270176 0.643915
0.56614 0.268254 0.633005
0.714656 0.213382 0.609583
0.776333 0.117845 0.576486
0.810224 0.0819867 0.557275
0.803937 0.0243992 0.522377
0.796216 0 0.487129
0.0120851 0.373907 0.646311
0.0124361 0.357183 0.631312
0.00817884 0.443885 0.681041
0.466148 0.483742 0.658961
0.705974 0.467689 0.63003
0.812451 0.42031 0.596368
0.860182 0.381384 0.570718
0.875456 0.373022 0.55227
0.859876 0.323156 0.518471
0 0.468711 0.627848
0 0.457542 0.614343
0 0.525902 0.642649
0.205173 0.61799 0.609232
0.650782 0.638376 0.60885
0.820188 0.621927 0.581674
0.897414 0.595087 0.557397
0.934447 0.589731 0.537316
0.927077 0.559335 0.514305
0 0.536217 0.580606
0 0.53698 0.583963
0 0.576379 0.582116
0 0.716869 0.512978
0.641764 0.796201 0.515694
0.772351 0.76257 0.554803
0.921874 0.74226 0.507347
0.970901 0.742046 0.495995
0.96968 0.728618 0.472938
0 0.581323 0.538323
0 0.582437 0.554482
0 0.593301 0.523964
0 0.754849 0.455451
0.592981 0.926192 0.455283
0.7832 0.836881 0.500816
0.888487 0.848981 0.496544
0.98233 0.834272 0.388205
0.982406 0.823575 0.390768
0 0.614878 0.523888
0 0.616861 0.547173
0 0.614084 0.508202
0 0.751156 0.452522
0.405417 0.971267 0.391043
0.779095 0.893629 0.490272
0.89662 0.889235 0.464744
0.964477 0.902083 0.4748
0.981704 0.878218 0.32932
0 0.636774 0.490318
0 0.634638 0.511986
0 0.63827 0.476768
0 0.747845 0.440742
0.0676585 0.913466 0.317296
0.773739 0.936873 0.489158
0.86041 0.891066 0.473548
0.915816 0.910445 0.537377
0.983536 0.911299 0.492317
0.0372778 0 0.557458
0.0383459 0 0.573373
0.271748 0 0.597116
0.507881 0 0.619669
0.639735 0 0.598337
0.72134 0 0.581674
0.771344 0 0.570413
0.763378 0 0.54081
0.758083 0 0.516167
0.0405127 0 0.605661
0.0418555 0 0.629129
0.320562 0.15172 0.680186
0.580926 0.0138857 0.664134
0.700603 0 0.634485
0.741329 0 0.59765
0.768399 0 0.560113
0.7617 0 0.534127
0.757122 0 0.511223
0.0312047 0.169574 0.678904
0.0305028 0.188159 0.691905
0.14435 0.278233 0.726925
0.562463 0.268101 0.721187
0.718883 0.204852 0.695628
0.784268 0.0706493 0.662608
0.820447 0.0413672 0.645975
0.821485 0 0.624002
0.814435 0 0.597269
0.0184634 0.365515 0.734661
0.019089 0.345586 0.71957
0.0155489 0.432242 0.771618
0.439475 0.473854 0.760876
0.698665 0.4607 0.738262
0.810086 0.416907 0.714
0.861265 0.376394 0.69369
0.880522 0.372 0.682597
0.866773 0.322927 0.654704
0.00999466 0.46772 0.732738
0.0103304 0.457649 0.723384
0.0059205 0.518517 0.759594
0.136339 0.602335 0.753231
0.6383 0.640635 0.753491
0.81207 0.629892 0.734859
0.895491 0.604501 0.71751
0.936233 0.600229 0.703197
0.929458 0.570825 0.685664
0 0.535302 0.719249
0 0.536431 0.721187
0 0.570138 0.73431
0 0.689555 0.730526
0.506493 0.770184 0.716731
0.786877 0.776425 0.728466
0.909957 0.769162 0.713649
0.970245 0.762371 0.695476
0.969329 0.750195 0.683513
0 0.576089 0.706905
0 0.577996 0.71426
0 0.586297 0.706523
0 0.722805 0.710048
0.364416 0.87715 0.654749
0.808652 0.89424 0.686625
0.88368 0.877028 0.707973
0.987793 0.86865 0.671046
0.988617 0.866438 0.670588
0 0.606226 0.71165
0 0.609049 0.720241
0 0.604807 0.705791
0 0.721126 0.709316
0.113664 0.885039 0.630823
0.797818 0.975464 0.669871
0.89221 0.923293 0.698116
0.960189 0.934157 0.704097
0.987655 0.920485 0.63331
0 0.624933 0.699168
0 0.624659 0.708492
0 0.625162 0.693523
0 0.720638 0.698772
0 0.85568 0.629892
0.709468 0.99646 0.644251
0.871168 0.937255 0.698589
0.961288 0.942718 0.708049
0.990829 0.945663 0.715755
0.0372778 0 0.557458
0.0382239 0 0.57142
0.250309 0 0.594629
0.488777 0 0.617868
0.652369 0 0.637751
0.756802 0 0.656001
0.820172 0 0.678294
0.790661 0 0.624674
0.778393 0 0.598474
0.0402991 0 0.602441
0.0417029 0 0.623743
0.291905 0.137362 0.671016
0.565896 0.112886 0.684474
0.703075 0 0.681208
0.765393 0 0.672221
0.81413 0 0.671687
0.786145 0 0.6168
0.776745 0 0.593317
0.0298466 0.198734 0.695537
0.0290684 0.221302 0.712566
0.0537881 0.326192 0.762402
0.554925 0.347478 0.773007
0.734493 0.319783 0.767727
0.812985 0.275563 0.759579
0.832013 0.0716106 0.71043
0.835233 0.0206302 0.690135
0.829541 0 0.666804
0.0195315 0.383963 0.773861
0.0202792 0.369787 0.76762
0.0168154 0.458289 0.823346
0.403082 0.513161 0.831037
0.691295 0.476768 0.815564
0.81088 0.419471 0.786664
0.864607 0.375753 0.767437
0.886976 0.372091 0.758206
0.874418 0.322011 0.734524
0.0144656 0.468574 0.799191
0.014847 0.458457 0.792905
0.0123751 0.513817 0.823209
0.0588998 0.597269 0.835004
0.622599 0.635813 0.839109
0.807157 0.62887 0.823331
0.892989 0.604395 0.811124
0.937209 0.601328 0.801587
0.93109 0.573266 0.78735
0.00720226 0.536187 0.795346
0.0071107 0.537743 0.796643
0.00428778 0.567575 0.812589
0 0.67863 0.835309
0.492363 0.748913 0.835172
0.777981 0.779492 0.84126
0.904509 0.776593 0.832898
0.969573 0.769696 0.820371
0.969711 0.758938 0.811185
0 0.578164 0.792599
3.0518e-05 0.580118 0.796765
0 0.585809 0.794781
0 0.711574 0.826108
0.28957 0.830762 0.808774
0.720562 0.893339 0.805524
0.897017 0.888823 0.834379
0.98146 0.88867 0.824948
0.990097 0.88336 0.814527
0 0.60795 0.798779
0 0.610666 0.802899
0 0.60621 0.796078
0 0.712154 0.822644
0.00950637 0.854856 0.790219
0.673503 0.961517 0.785336
0.902815 0.952636 0.819547
0.960616 0.952071 0.838743
0.994797 0.946014 0.812192
0 0.624384 0.794934
0 0.624399 0.798703
0 0.624308 0.792737
0 0.712963 0.815717
0 0.835691 0.789227
0.578576 0.954818 0.780896
0.878782 0.972793 0.799725
0.960281 0.961303 0.839567
0.995895 0.966018 0.843763
0.0372778 0 0.557458
0.0380865 0 0.569482
0.226688 0 0.591989
0.467002 0 0.615854
0.63537 0 0.635248
0.744625 0 0.65391
0.817334 0 0.676204
0.820172 0 0.678294
0.820172 0 0.678294
0.0400092 0 0.598184
0.0412757 0 0.61709
0.259861 0.117861 0.659083
0.532235 0.0679789 0.671183
0.675593 0 0.669505
0.737438 0 0.654704
0.807889 0 0.670863
0.820172 0 0.678294
0.820172 0 0.678294
0.0308537 0.178866 0.685496
0.0305028 0.191653 0.696544
0.0437018 0.300786 0.753368
0.525277 0.326513 0.76463
0.714336 0.302556 0.760739
0.801587 0.259678 0.753445
0.846174 0.234394 0.750835
0.860731 0.242054 0.753552
0.851942 0.195575 0.740719
0.0204013 0.367376 0.766552
0.0211643 0.353521 0.76083
0.0181582 0.433249 0.813611
0.369696 0.493324 0.824186
0.676143 0.499626 0.828626
0.812558 0.474708 0.820508
0.876677 0.444968 0.815091
0.907835 0.45127 0.818128
0.900587 0.418921 0.808316
0.0148318 0.466972 0.803021
0.0152132 0.460655 0.80116
0.0128481 0.519585 0.837369
0.0102083 0.606897 0.861708
0.595041 0.64863 0.872648
0.798352 0.652338 0.872297
0.893675 0.635386 0.867857
0.946029 0.633799 0.86952
0.938811 0.596857 0.856687
0.0100099 0.539498 0.82855
0.00985733 0.541054 0.829068
0.00767529 0.573648 0.850736
0 0.67866 0.884733
0.460807 0.747509 0.889876
0.75877 0.782437 0.90692
0.895781 0.783337 0.903227
0.967865 0.771572 0.899031
0.969482 0.760266 0.891875
0.00518807 0.581842 0.839521
0.00509651 0.584298 0.84213
0.00477607 0.586542 0.842542
0 0.70721 0.887236
0.214755 0.816022 0.885878
0.707835 0.869825 0.91165
0.888426 0.890929 0.918059
0.978088 0.892592 0.914946
0.989151 0.888762 0.908995
0.00122072 0.609873 0.846387
0.00105287 0.612711 0.849149
0.0012665 0.60856 0.844999
0 0.707988 0.878996
0 0.844846 0.872404
0.637675 0.925017 0.89691
0.859678 0.960037 0.889693
0.97348 0.959884 0.918517
0.998001 0.959915 0.913024
0 0.625727 0.846647
0 0.625696 0.8486
0 0.625925 0.845548
0 0.710811 0.873426
0 0.82742 0.870359
0.549172 0.920699 0.883696
0.816098 0.971389 0.878477
0.958175 0.970336 0.914275
0.998276 0.976089 0.918578
0.0372778 0 0.557458
0.0379644 0 0.567529
0.199069 0 0.589487
0.441733 0 0.613733
0.616831 0 0.632807
0.729366 0 0.650721
0.806668 0 0.670298
0.820172 0 0.678294
0.820172 0 0.678294
0.0396124 0 0.592294
0.0406806 0 0.608209
0.223636 0.081651 0.641764
0.49221 0.0174105 0.654215
0.637583 0 0.653071
0.716838 0 0.64831
0.797787 0 0.666896
0.820172 0 0.678294
0.820172 0 0.678294
0.0323949 0.151568 0.674281
0.0323949 0.15552 0.679042
0.0291752 0.272404 0.743786
0.491234 0.304433 0.755215
0.693599 0.284886 0.753399
0.788907 0.244419 0.747173
0.837522 0.213962 0.744259
0.858213 0.229923 0.749966
0.849454 0.181689 0.737041
0.0215305 0.347356 0.758709
0.0223239 0.333761 0.754009
0.0194858 0.407965 0.802747
0.333349 0.472084 0.816709
0.656809 0.482704 0.822919
0.802243 0.460822 0.815885
0.86978 0.43241 0.810834
0.905928 0.442863 0.815579
0.898894 0.411337 0.806012
0.0153201 0.45864 0.800534
0.015671 0.452949 0.798901
0.0136721 0.505547 0.832532
0.0102235 0.593637 0.859373
0.577356 0.637476 0.869352
0.790097 0.644068 0.870161
0.888991 0.629297 0.866102
0.945174 0.629236 0.868345
0.941314 0.608682 0.86302
0.0103761 0.535515 0.827207
0.0102083 0.537408 0.827848
0.00831617 0.566766 0.8477
0 0.670542 0.883909
0.444373 0.741314 0.888304
0.75285 0.778103 0.90602
0.891783 0.781994 0.904204
0.966125 0.774243 0.904402
0.970184 0.767208 0.902525
0.00546273 0.581476 0.841398
0.00526436 0.583322 0.842283
0.00523384 0.584634 0.843824
0 0.704997 0.891447
0.170169 0.813153 0.891234
0.695964 0.866621 0.918975
0.879484 0.889036 0.928145
0.973678 0.892119 0.928832
0.988617 0.88922 0.92781
0.00202945 0.611612 0.854871
0.00172427 0.613352 0.854887
0.00213626 0.610651 0.854459
0 0.709545 0.891554
0 0.839796 0.88954
0.621912 0.91632 0.915709
0.845365 0.951476 0.925582
0.96939 0.959838 0.940902
0.996857 0.959945 0.939544
0 0.633646 0.864393
0 0.633646 0.864393
0 0.633646 0.864393
0 0.71548 0.89398
0 0.823194 0.89456
0.53019 0.911086 0.910033
0.799237 0.960113 0.922988
0.955306 0.973678 0.932082
0.998734 0.979034 0.944991
