creator/6-Editing/New LUTS/1-Rec709-Looks/Base-Normalization.cube
TITLE "Generated by Resolve"
LUT_3D_SIZE 33
0.0272679 0.0278325 0.0320897
0.0282902 0.028397 0.0328679
0.0390173 0.0320897 0.0352331
0.0457771 0.0339055 0.0352789
0.0714275 0.0389105 0.0349432
0.10074 0.0457313 0.0327153
0.151125 0.0503548 0.0256046
0.197635 0.0532845 0.00276188
0.24828 0.0546273 0
0.299321 0.0521553 0
0.343984 0.0471199 0
0.383093 0.0387427 0
0.417212 0.0136568 0
0.450904 0.00151064 0
0.485298 0.00106813 0
0.518685 0.00114443 0
0.54786 0.00120546 0
0.573205 0.0012665 0
0.596933 0.00131228 0
0.620279 0.00135805 0
0.643671 0.00141909 0
0.668147 0.00146487 0
0.678187 0.00149538 0
0.678187 0.00149538 0
0.678187 0.00149538 0
0.678187 0.00149538 0
0.678187 0.00149538 0
0.678187 0.00149538 0
0.678187 0.00149538 0
0.678187 0.00149538 0
0.678187 0.00149538 0
0.678187 0.00149538 0
0.678187 0.00149538 0
0.0272679 0.0278325 0.0320897
0.0272679 0.0278325 0.0320897
0.0364538 0.0308385 0.0348669
0.0444038 0.0336004 0.0352941
0.0648051 0.0370184 0.0349584
0.0884413 0.0441291 0.0338293
0.133181 0.0487984 0.0292973
0.179431 0.0525521 0.0146029
0.225589 0.0542 0
0.276066 0.0535286 0
0.324331 0.0494087 0
0.367453 0.0420996 0
0.404715 0.0243229 0
0.440009 0.00173953 0
0.475715 0.00105287 0
0.509987 0.00112917 0
0.540093 0.0011902 0
0.56585 0.00125124 0
0.589822 0.00129702 0
0.61326 0.00134279 0
0.636286 0.00140383 0
0.659632 0.00144961 0
0.678187 0.00149538 0
0.678187 0.00149538 0
0.678187 0.00149538 0
0.678187 0.00149538 0
0.678187 0.00149538 0
0.678187 0.00149538 0
0.678187 0.00149538 0
0.678187 0.00149538 0
0.678187 0.00149538 0
0.678187 0.00149538 0
0.678187 0.00149538 0
0.0223392 0.0378424 0.0349279
0.0242008 0.0359808 0.0352331
0.028809 0.0366674 0.0373999
0.0413672 0.0384527 0.0378119
0.0703899 0.0418555 0.0367132
0.100191 0.0489204 0.0340887
0.139788 0.0523537 0.0293889
0.181521 0.0543221 0.0158236
0.224628 0.055024 0
0.271901 0.0536965 0
0.321401 0.0497292 0
0.36527 0.0425574 0
0.403418 0.0254368 0
0.438895 0.00177005 0
0.474037 0.00105287 0
0.508156 0.00111391 0
0.538277 0.0011902 0
0.564187 0.00123598 0
0.589212 0.00129702 0
0.612696 0.00134279 0
0.635477 0.00140383 0
0.657984 0.00144961 0
0.678187 0.00149538 0
0.678187 0.00149538 0
0.678187 0.00149538 0
0.678187 0.00149538 0
0.678187 0.00149538 0
0.678187 0.00149538 0
0.678187 0.00149538 0
0.678187 0.00149538 0
0.678187 0.00149538 0
0.678187 0.00149538 0
0.678187 0.00149538 0
0.0173648 0.0450752 0.034699
0.0175784 0.0445258 0.0345769
0.017319 0.0452277 0.0347295
0.0372931 0.0472114 0.0363317
0.0645762 0.0515297 0.0408331
0.0986343 0.0592813 0.0381628
0.166339 0.0628061 0.0264286
0.221317 0.0649882 0.000885023
0.267918 0.0657816 0
0.315969 0.0643015 0
0.365148 0.0604562 0
0.409567 0.0540932 0
0.447761 0.0402075 0
0.481712 0.0139162 0
0.512367 0.0011902 0
0.539742 0.00120546 0
0.561639 0.00123598 0
0.577554 0.0012665 0
0.590631 0.00129702 0
0.609598 0.00134279 0
0.631327 0.00138857 0
0.654093 0.00143435 0
0.677363 0.00149538 0
0.678187 0.00149538 0
0.678187 0.00149538 0
0.678187 0.00149538 0
0.678187 0.00149538 0
0.678187 0.00149538 0
0.678187 0.00149538 0
0.678187 0.00149538 0
0.678187 0.00149538 0
0.678187 0.00149538 0
0.678187 0.00149538 0
0.00239567 0.0576791 0.0304875
0.00425727 0.0561074 0.0312352
0.00596628 0.0566567 0.0312352
0.00250248 0.0621347 0.0290837
0.0467079 0.062501 0.0352331
0.0934768 0.0674601 0.0426337
0.149722 0.0744335 0.0351263
0.225986 0.0793622 0.00767529
0.299702 0.0817426 0
0.365881 0.0797742 0
0.414343 0.0770886 0
0.453376 0.0736248 0
0.487098 0.0679789 0
0.520958 0.0546426 0
0.553857 0.0264439 0
0.582437 0.00555428 0
0.605264 0.00135805 0
0.624201 0.00137331 0
0.640375 0.00140383 0
0.654749 0.00143435 0
0.667948 0.00146487 0
0.679484 0.00149538 0
0.692119 0.0015259 0
0.692012 0.0015259 0
0.683757 0.00151064 0
0.678553 0.00149538 0
0.678187 0.00149538 0
0.678187 0.00149538 0
0.678187 0.00149538 0
0.678187 0.00149538 0
0.678187 0.00149538 0
0.678187 0.00149538 0
0.678187 0.00149538 0
0 0.0794232 0.0210574
0 0.0783703 0.0214694
0 0.0792554 0.0211185
0 0.0831464 0.0199435
0 0.0881208 0.0191196
0.0729229 0.0863203 0.0440986
0.131914 0.0960861 0.0419471
0.209155 0.102174 0.0184482
0.284016 0.108003 0
0.36817 0.10898 0
0.439948 0.105547 0
0.49131 0.100649 0
0.527428 0.0939651 0
0.55642 0.0868849 0
0.583474 0.077821 0
0.607813 0.0569619 0
0.630564 0.0331273 0
0.65005 0.0146181 0
0.666972 0.00872816 0
0.682017 0.00344854 0
0.694865 0.00172427 0
0.706462 0.00183108 0
0.717601 0.00157168 0
0.723339 0.00158694 0
0.718181 0.00158694 0
0.713161 0.00157168 0
0.707683 0.00155642 0
0.702068 0.00154116 0
0.695689 0.0015259 0
0.688914 0.00151064 0
0.681086 0.00149538 0
0.678279 0.00149538 0
0.678187 0.00149538 0
0 0.101167 0.0131685
0 0.100069 0.0137636
0 0.101961 0.0127413
0 0.105699 0.0116274
0 0.112734 0.00604257
0 0.120272 0.00311284
0.102525 0.116564 0.0491035
0.19675 0.125902 0.031693
0.274235 0.135302 0
0.354528 0.143175 0
0.435111 0.146258 0
0.502403 0.144488 0
0.550118 0.139345 0
0.58851 0.132052 0
0.618418 0.123522 0
0.641215 0.11667 0
0.657847 0.110597 0
0.673304 0.103059 0
0.686992 0.0908675 0
0.699657 0.072694 0
0.711772 0.0531014 0
0.723018 0.0445258 0
0.734051 0.046479 0
0.745998 0.0533608 0
0.742596 0.0299992 0
0.737926 0.0131838 0
0.733745 0.00743114 0
0.728542 0.00175479 0
0.723888 0.00158694 0
0.719341 0.00158694 0
0.714565 0.00157168 0
0.709957 0.00155642 0
0.705135 0.00155642 0
0 0.133898 0
0 0.133684 0
0 0.136233 0
0 0.138445 0
0 0.149859 0
0 0.159594 0
0 0.16994 0
0.143755 0.164569 0.0384527
0.2654 0.175448 0
0.344442 0.185229 0
0.425299 0.189929 0
0.497841 0.191348 0
0.555825 0.189395 0
0.601892 0.181491 0
0.640421 0.170779 0
0.66923 0.160388 0
0.688624 0.152621 0
0.702068 0.146777 0
0.712963 0.141466 0
0.723156 0.136233 0
0.733211 0.131594 0
0.742016 0.127474 0
0.75108 0.126345 0
0.761456 0.128359 0
0.766079 0.127871 0
0.760464 0.112047 0
0.754986 0.0966354 0
0.750546 0.075288 0
0.746288 0.0510109 0
0.742031 0.0267033 0
0.737881 0.0131228 0
0.734234 0.00807202 0
0.729915 0.00282292 0
0 0.171649 0
0 0.172107 0
0 0.174746 0
0 0.172686 0
0.00357061 0.189181 0
0.00907912 0.199145 0
0.00927749 0.209049 0
0.0133516 0.219806 0
0.20827 0.217777 0
0.336049 0.233631 0
0.415839 0.242588 0
0.49337 0.247333 0
0.556497 0.249149 0
0.605295 0.246174 0
0.647852 0.236408 0
0.684108 0.222797 0
0.709941 0.209766 0
0.726955 0.197467 0
0.739132 0.187594 0
0.748455 0.18085 0
0.75639 0.175799 0
0.76376 0.172274 0
0.770932 0.17026 0
0.780072 0.171527 0
0.790722 0.181079 0
0.786084 0.171435 0
0.780484 0.160494 0
0.774639 0.149081 0
0.769284 0.136965 0
0.764004 0.122087 0
0.759136 0.108385 0
0.75436 0.0949111 0
0.750484 0.0749828 0
0.00738537 0.208331 0
0.00776684 0.209644 0
0.00834669 0.211612 0
0.00604257 0.203738 0
0.0131838 0.226108 0
0.01944 0.238834 0
0.031281 0.250172 0
0.0264134 0.258732 0
0.0391241 0.271946 0
0.276371 0.27361 0
0.406058 0.28716 0
0.484108 0.294377 0
0.553109 0.29868 0
0.607248 0.299031 0
0.651255 0.295659 0
0.690852 0.28658 0
0.72311 0.273793 0
0.744961 0.260258 0
0.759533 0.247211 0
0.770504 0.235691 0
0.779629 0.2271 0
0.786816 0.221637 0
0.792935 0.218585 0
0.800244 0.219165 0
0.809232 0.225818 0
0.810239 0.222324 0
0.805478 0.212131 0
0.800046 0.200534 0
0.794629 0.188968 0
0.789197 0.177569 0
0.78407 0.167498 0
0.779004 0.157565 0
0.773892 0.147631 0
0.019501 0.24686 0
0.0199741 0.248219 0
0.0203555 0.249287 0
0.0171664 0.240208 0
0.0250553 0.261936 0
0.035172 0.279133 0
0.0538491 0.293278 0
0.0598154 0.304204 0
0.0562753 0.309941 0
0.0818952 0.333898 0
0.340352 0.328511 0
0.472572 0.338003 0
0.545037 0.344091 0
0.604852 0.345983 0
0.652079 0.344564 0
0.691936 0.338704 0
0.726925 0.329397 0
0.754421 0.317189 0
0.773907 0.303655 0
0.787228 0.29015 0
0.798627 0.279988 0
0.807935 0.272602 0
0.815076 0.268894 0
0.822599 0.26949 0
0.830777 0.276341 0
0.831571 0.273854 0
0.827573 0.264225 0
0.823407 0.254032 0
0.818906 0.243183 0
0.814008 0.231327 0
0.809033 0.219776 0
0.804196 0.2094 0
0.799161 0.198672 0
0.0344396 0.285451 0
0.0348821 0.286427 0
0.0350958 0.286915 0
0.0307622 0.277241 0
0.038529 0.295491 0
0.0536965 0.316716 0
0.0739757 0.33373 0
0.0887465 0.358343 0
0.086656 0.357717 0
0.0898604 0.364691 0
0.148562 0.39411 0
0.39765 0.380194 0
0.532418 0.386496 0
0.595682 0.389899 0
0.646632 0.389914 0
0.689601 0.385565 0
0.726909 0.379202 0
0.75729 0.369635 0
0.781765 0.357931 0
0.800259 0.343526 0
0.813565 0.330648 0
0.82501 0.32163 0
0.834058 0.315938 0
0.842878 0.315908 0
0.853101 0.32488 0
0.851499 0.318883 0
0.847807 0.310567 0
0.844327 0.302663 0
0.840696 0.294545 0
0.83653 0.285206 0
0.832609 0.276295 0
0.82826 0.265858 0
0.823911 0.255268 0
0.0512856 0.321569 0
0.0515297 0.322026 0
0.0515297 0.322026 0
0.0467384 0.312627 0
0.0516365 0.322942 0
0.0716716 0.348501 0
0.090959 0.369421 0
0.103334 0.399878 0
0.121874 0.416999 0
0.105257 0.405295 0
0.110109 0.418891 0
0.224582 0.440314 0
0.450767 0.426307 0
0.58294 0.431037 0
0.638788 0.432807 0
0.683085 0.430961 0
0.722683 0.425742 0
0.758038 0.418616 0
0.786389 0.409033 0
0.808515 0.39765 0
0.824125 0.383642 0
0.837629 0.371328 0
0.849805 0.363226 0
0.86009 0.360494 0
0.871107 0.366812 0
0.872251 0.364675 0
0.86743 0.354086 0
0.86363 0.345739 0
0.86038 0.338598 0
0.857099 0.331426 0
0.854215 0.324956 0
0.850858 0.317449 0
0.847089 0.308934 0
0.0675517 0.351843 0
0.0677043 0.352148 0
0.0674601 0.35169 0
0.0631266 0.343587 0
0.0612192 0.340017 0
0.0886854 0.372534 0
0.102235 0.398093 0
0.113527 0.428458 0
0.155734 0.456596 0
0.135317 0.46363 0
0.120928 0.449104 0
0.127855 0.468437 0
0.286961 0.459678 0
0.500023 0.467231 0
0.625879 0.470726 0
0.674754 0.471641 0
0.716564 0.46952 0
0.753765 0.463752 0
0.785855 0.456672 0
0.811353 0.448569 0
0.831647 0.438575 0
0.847379 0.425574 0
0.862089 0.414221 0
0.874144 0.407279 0
0.886183 0.408835 0
0.893324 0.413809 0
0.887984 0.401022 0
0.883467 0.390173 0
0.879728 0.381262 0
0.876326 0.373632 0
0.873579 0.367559 0
0.871046 0.362036 0
0.868345 0.35613 0
0.0877394 0.37557 0
0.0878462 0.375692 0
0.0875105 0.375296 0
0.0826429 0.369726 0
0.0768292 0.363256 0
0.09514 0.388968 0
0.10985 0.419089 0
0.120836 0.448844 0
0.138399 0.484306 0
0.221347 0.497398 0
0.143023 0.496437 0
0.135058 0.488655 0
0.150591 0.510658 0
0.327718 0.486931 0
0.546151 0.503471 0
0.664637 0.508003 0
0.709392 0.508232 0
0.749691 0.506569 0
0.78529 0.501488 0
0.814847 0.495903 0
0.837385 0.48809 0
0.856306 0.479454 0
0.871504 0.468193 0
0.886213 0.459983 0
0.898802 0.456748 0
0.911376 0.462638 0
0.908232 0.45124 0
0.903502 0.438529 0
0.899184 0.427848 0
0.89543 0.418799 0
0.892332 0.411414 0
0.889708 0.405127 0
0.887617 0.400153 0
0.101869 0.396841 0
0.101823 0.396704 0
0.10161 0.396139 0
0.101076 0.394705 0
0.0952468 0.384482 0
0.102983 0.400092 0
0.115648 0.434394 0
0.126238 0.463905 0
0.139055 0.499992 0
0.212299 0.526497 0
0.2757 0.524117 0
0.155535 0.528786 0
0.148669 0.527581 0
0.176242 0.550622 0
0.367834 0.515038 0
0.591638 0.538582 0
0.700023 0.542275 0
0.743252 0.542779 0
0.781094 0.5411 0
0.814466 0.537606 0
0.842008 0.533425 0
0.863264 0.527733 0
0.880629 0.520378 0
0.896178 0.512505 0
0.91046 0.506752 0
0.923705 0.506996 0
0.928298 0.505241 0
0.923049 0.49099 0
0.918578 0.479011 0
0.914458 0.467948 0
0.910948 0.458534 0
0.907973 0.450523 0
0.905653 0.444373 0
0.109468 0.417411 0
0.109407 0.417258 0
0.1093 0.416983 0
0.109148 0.416556 0
0.105287 0.406119 0
0.104829 0.404913 0
0.119753 0.445869 0
0.130968 0.47715 0
0.143038 0.511345 0
0.16936 0.548119 0
0.307622 0.539223 0
0.302632 0.552041 0
0.169848 0.561013 0
0.168978 0.564828 0
0.262333 0.57995 0
0.408225 0.545846 0
0.633158 0.570855 0
0.734905 0.57525 0
0.777874 0.576867 0
0.814694 0.576852 0
0.845396 0.57467 0
0.869642 0.570993 0
0.888624 0.565408 0
0.905379 0.559625 0
0.920546 0.555032 0
0.934691 0.554086 0
0.948302 0.560098 0
0.94287 0.545327 0
0.938201 0.532494 0
0.934112 0.521294 0
0.930419 0.511086 0
0.926955 0.501579 0
0.924193 0.494041 0
0.116457 0.436622 0
0.116411 0.436484 0
0.116365 0.436347 0
0.116365 0.436347 0
0.113161 0.427436 0
0.111315 0.422415 0
0.122621 0.453819 0
0.135256 0.489219 0
0.146822 0.522225 0
0.160891 0.561135 0
0.278294 0.580011 0
0.344976 0.562402 0
0.323476 0.583459 0
0.184039 0.595697 0
0.186358 0.602319 0
0.32108 0.605539 0
0.448035 0.57792 0
0.675456 0.605051 0
0.771023 0.608454 0
0.811276 0.609689 0
0.844602 0.609842 0
0.872221 0.608179 0
0.894606 0.605875 0
0.912718 0.601587 0
0.929213 0.597986 0
0.944533 0.597711 0
0.958618 0.600168 0
0.962066 0.597055 0
0.957626 0.585229 0
0.953582 0.57435 0
0.949844 0.564309 0
0.946517 0.555337 0
0.943404 0.546807 0
0.123445 0.456107 0
0.123445 0.456107 0
0.123445 0.456107 0
0.123552 0.456428 0
0.12221 0.452689 0
0.1187 0.442863 0
0.124529 0.459144 0
0.138705 0.49897 0
0.15024 0.532189 0
0.163027 0.570764 0
0.196429 0.607217 0
0.348852 0.597009 0
0.379919 0.585245 0
0.34107 0.616587 0
0.223957 0.629511 0
0.25098 0.636881 0
0.362203 0.631144 0
0.490776 0.611154 0
0.71397 0.63917 0
0.805142 0.641794 0
0.843503 0.643168 0
0.87483 0.644358 0
0.899733 0.643595 0
0.919661 0.641108 0
0.936797 0.63769 0
0.952911 0.636652 0
0.967239 0.638453 0
0.97409 0.64062 0
0.972381 0.632288 0
0.970565 0.623407 0
0.968811 0.615183 0
0.965393 0.606073 0
0.962402 0.597955 0
0.129976 0.474372 0
0.130068 0.474647 0
0.130114 0.474754 0
0.130251 0.475135 0
0.129885 0.474113 0
0.126589 0.464897 0
0.125353 0.461433 0
0.141344 0.506477 0
0.153719 0.542428 0
0.165728 0.579293 0
0.182193 0.620111 0
0.317678 0.638819 0
0.395438 0.610971 0
0.4121 0.614145 0
0.366644 0.645487 0
0.273518 0.661341 0
0.301183 0.66949 0
0.403265 0.641779 0
0.540536 0.646433 0
0.754314 0.674647 0
0.839628 0.675929 0
0.8757 0.678416 0
0.902159 0.679118 0
0.924117 0.678431 0
0.942733 0.675883 0
0.959762 0.674449 0
0.972778 0.674754 0
0.97879 0.674495 0
0.978897 0.670787 0
0.978927 0.664805 0
0.977478 0.656596 0
0.975906 0.649165 0
0.974334 0.641718 0
0.136324 0.492256 0
0.136431 0.492546 0
0.136538 0.492836 0
0.13666 0.493202 0
0.136645 0.493126 0
0.133669 0.484733 0
0.132357 0.481056 0
0.143145 0.51162 0
0.156603 0.55108 0
0.168139 0.587076 0
0.180179 0.628138 0
0.256458 0.662501 0
0.389166 0.645212 0
0.438666 0.636103 0
0.444984 0.64155 0
0.399969 0.658824 0
0.328145 0.693111 0
0.375998 0.689952 0
0.443046 0.665309 0
0.596521 0.681147 0
0.79234 0.709621 0
0.871015 0.709331 0
0.904448 0.712276 0
0.927947 0.713268 0
0.947692 0.712093 0
0.964858 0.710674 0
0.976516 0.70959 0
0.97879 0.706401 0
0.978805 0.703853 0
0.978805 0.699001 0
0.978821 0.693675 0
0.978851 0.687312 0
0.978851 0.681163 0
0.141604 0.507225 0
0.141726 0.507591 0
0.141894 0.508049 0
0.142031 0.508446 0
0.142153 0.508827 0
0.140032 0.502754 0
0.138872 0.499458 0
0.143313 0.512108 0
0.15819 0.55584 0
0.16965 0.592035 0
0.181537 0.633066 0
0.201602 0.675807 0
0.367941 0.68925 0
0.438758 0.661646 0
0.483619 0.664469 0
0.477882 0.66862 0
0.428107 0.67805 0
0.397971 0.701183 0
0.424262 0.690105 0
0.486931 0.686824 0
0.655207 0.715938 0
0.83003 0.741176 0
0.903044 0.74229 0
0.931136 0.74406 0
0.952422 0.745357 0
0.969589 0.744961 0
0.978149 0.742779 0
0.978576 0.73875 0
0.978607 0.733928 0
0.978622 0.730404 0
0.978653 0.726268 0
0.978683 0.721965 0
0.978714 0.716884 0
0.146334 0.520821 0
0.146471 0.521233 0
0.146654 0.521752 0
0.146838 0.522271 0
0.147051 0.522911 0
0.146532 0.521401 0
0.144717 0.516152 0
0.144106 0.514412 0
0.159243 0.55903 0
0.171313 0.597574 0
0.182803 0.637491 0
0.195621 0.6822 0
0.317418 0.712932 0
0.431952 0.683864 0
0.489479 0.682994 0
0.529152 0.690623 0
0.511147 0.692714 0
0.456184 0.696925 0
0.435508 0.70544 0
0.460914 0.704433 0
0.53434 0.709941 0
0.708247 0.748547 0
0.865995 0.76994 0
0.92987 0.772045 0
0.955627 0.773342 0
0.97351 0.773571 0
0.978195 0.77023 0
0.978439 0.766201 0
0.978469 0.761746 0
0.978485 0.75877 0
0.978485 0.756191 0
0.9785 0.753216 0
0.978515 0.749935 0
0.150713 0.533562 0
0.150881 0.534051 0
0.151064 0.534585 0
0.151263 0.535164 0
0.151507 0.535897 0
0.151324 0.535363 0
0.149493 0.529992 0
0.14902 0.528634 0
0.159457 0.559731 0
0.172168 0.600488 0
0.183368 0.639429 0
0.196246 0.684352 0
0.274113 0.722881 0
0.425361 0.705425 0
0.481529 0.700313 0
0.542184 0.707988 0
0.573907 0.71603 0
0.544198 0.714427 0
0.484443 0.714443 0
0.468528 0.718822 0
0.501213 0.720989 0
0.586496 0.7346 0
0.756436 0.776242 0
0.897078 0.795483 0
0.953857 0.79646 0
0.973419 0.796216 0
0.978241 0.79321 0
0.978363 0.789837 0
0.978363 0.786603 0
0.978378 0.784405 0
0.978378 0.782605 0
0.978378 0.780484 0
0.978393 0.778058 0
0.154559 0.544915 0
0.154772 0.545556 0
0.154955 0.54612 0
0.1552 0.546853 0
0.155535 0.547845 0
0.155489 0.547723 0
0.153903 0.542977 0
0.153445 0.541619 0
0.158938 0.558114 0
0.172778 0.602564 0
0.18381 0.640986 0
0.196582 0.685542 0
0.242588 0.728252 0
0.409689 0.734173 0
0.472175 0.716167 0
0.533578 0.721355 0
0.594797 0.733669 0
0.615274 0.740154 0
0.574868 0.735088 0
0.512306 0.731014 0
0.504173 0.733898 0
0.544686 0.739986 0
0.639399 0.760357 0
0.798627 0.801068 0
0.926497 0.817761 0
0.973861 0.818311 0
0.978302 0.813611 0
0.978332 0.810117 0
0.978332 0.807431 0
0.978332 0.804685 0
0.978317 0.803281 0
0.978332 0.801877 0
0.978332 0.800076 0
0.158389 0.556451 0
0.158618 0.557153 0
0.158846 0.557839 0
0.159121 0.558709 0
0.159442 0.559655 0
0.159457 0.559701 0
0.158083 0.55552 0
0.157687 0.554314 0
0.157397 0.553429 0
0.173205 0.604044 0
0.18436 0.642908 0
0.196612 0.685664 0
0.209857 0.731823 0
0.375433 0.755505 0
0.463264 0.732235 0
0.522683 0.732769 0
0.588647 0.744045 0
0.64506 0.758389 0
0.65594 0.76379 0
0.600305 0.754055 0
0.54229 0.748318 0
0.543038 0.751064 0
0.590433 0.760525 0
0.691691 0.786999 0
0.839384 0.824323 0
0.9514 0.838468 0
0.978317 0.833661 0
0.978302 0.828565 0
0.978317 0.826078 0
0.978317 0.822309 0
0.978302 0.821332 0
0.978317 0.820783 0
0.978302 0.819562 0
0.16202 0.56759 0
0.162249 0.568338 0
0.162509 0.569116 0
0.162768 0.56994 0
0.163058 0.570825 0
0.163119 0.571038 0
0.16202 0.56762 0
0.161547 0.566155 0
0.161303 0.565362 0
0.173571 0.605295 0
0.185061 0.64538 0
0.196704 0.685954 0
0.209949 0.732158 0
0.316991 0.768124 0
0.455909 0.747814 0
0.512535 0.74432 0
0.576074 0.753048 0
0.644434 0.769268 0
0.692027 0.78378 0
0.689006 0.785809 0
0.624063 0.772015 0
0.573114 0.76463 0
0.583246 0.768429 0
0.636576 0.781842 0
0.738994 0.81181 0
0.874617 0.844892 0
0.97023 0.856825 0
0.978332 0.847333 0
0.978332 0.842573 0
0.978317 0.839643 0
0.978317 0.838361 0
0.978317 0.837522 0
0.978317 0.836652 0
0.165362 0.578073 0
0.16556 0.578759 0
0.165805 0.579553 0
0.166049 0.580331 0
0.166384 0.581369 0
0.166506 0.581765 0
0.165988 0.580133 0
0.165057 0.577111 0
0.164813 0.576379 0
