creator/6-Editing/New LUTS/1-Rec709-Looks/Base-Normalization.cube
TITLE "Generated by Resolve"
LUT_3D_SIZE 5
0.0272679 0.0278325 0.0320897
0.24828 0.0546273 0
0.54786 0.00120546 0
0.678187 0.00149538 0
0.678187 0.00149538 0
0 0.171649 0
0.20827 0.217777 0
0.709941 0.209766 0
0.790722 0.181079 0
0.750484 0.0749828 0
0.109468 0.417411 0
0.143038 0.511345 0
0.633158 0.570855 0
0.920546 0.555032 0
0.924193 0.494041 0
0.154559 0.544915 0
0.158938 0.558114 0
0.594797 0.733669 0
0.926497 0.817761 0
0.978332 0.800076 0
0.169238 0.620005 0
0.169238 0.620005 0
0.495277 0.776577 0
0.805524 0.850492 0
0.978546 0.889311 0
0.018677 0 0.277256
0.257267 0 0.249775
0.575875 0 0.210163
0.705531 0 0.137896
0.696696 7.62951e-05 0.021912
0.00296025 0.20351 0.291691
0.251942 0.268009 0.298421
0.704585 0.218952 0.220462
0.7897 0.128832 0.137865
0.759304 0.00273136 0.0289921
0.0093843 0.492103 0.0425422
0.0644999 0.570031 0
0.655634 0.59295 0
0.936858 0.56939 0
0.951003 0.550423 0
0.126314 0.573877 0
0.142473 0.581262 0
0.608713 0.751156 0
0.945769 0.836347 0
0.978332 0.800076 0
0.169238 0.620005 0
0.169238 0.620005 0
0.498985 0.776333 0
0.918029 0.880613 0
0.978561 0.889143 0
0.0323796 0 0.484123
0.264332 0 0.49398
0.610819 0 0.494514
0.749416 0 0.474586
0.738689 0 0.409659
0.026215 0.158053 0.590158
0.186954 0.270176 0.643915
0.714656 0.213382 0.609583
0.810224 0.0819867 0.557275
0.796216 0 0.487129
0 0.468711 0.627848
0 0.525902 0.642649
0.650782 0.638376 0.60885
0.897414 0.595087 0.557397
0.927077 0.559335 0.514305
0 0.581323 0.538323
0 0.593301 0.523964
0.592981 0.926192 0.455283
0.888487 0.848981 0.496544
0.982406 0.823575 0.390768
0 0.636774 0.490318
0 0.63827 0.476768
0.0676585 0.913466 0.317296
0.86041 0.891066 0.473548
0.983536 0.911299 0.492317
0.0372778 0 0.557458
0.250309 0 0.594629
0.652369 0 0.637751
0.820172 0 0.678294
0.778393 0 0.598474
0.0298466 0.198734 0.695537
0.0537881 0.326192 0.762402
0.734493 0.319783 0.767727
0.832013 0.0716106 0.71043
0.829541 0 0.666804
0.0144656 0.468574 0.799191
0.0123751 0.513817 0.823209
0.622599 0.635813 0.839109
0.892989 0.604395 0.811124
0.93109 0.573266 0.78735
0 0.578164 0.792599
0 0.585809 0.794781
0.28957 0.830762 0.808774
0.897017 0.888823 0.834379
0.990097 0.88336 0.814527
0 0.624384 0.794934
0 0.624308 0.792737
0 0.835691 0.789227
0.878782 0.972793 0.799725
0.995895 0.966018 0.843763
0.0372778 0 0.557458
0.199069 0 0.589487
0.616831 0 0.632807
0.806668 0 0.670298
0.820172 0 0.678294
0.0323949 0.151568 0.674281
0.0291752 0.272404 0.743786
0.693599 0.284886 0.753399
0.837522 0.213962 0.744259
0.849454 0.181689 0.737041
0.0153201 0.45864 0.800534
0.0136721 0.505547 0.832532
0.577356 0.637476 0.869352
0.888991 0.629297 0.866102
0.941314 0.608682 0.86302
0.00546273 0.581476 0.841398
0.00523384 0.584634 0.843824
0.170169 0.813153 0.891234
0.879484 0.889036 0.928145
0.988617 0.88922 0.92781
0 0.633646 0.864393
0 0.633646 0.864393
0 0.823194 0.89456
0.799237 0.960113 0.922988
0.998734 0.979034 0.944991
