creator/6-Editing/New LUTS/3-Archive-Sony/SLog3-Fresh.cube
TITLE "Generated by Resolve"
LUT_3D_SIZE 5
0.026978 0.0279393 0.0319524
0.163836 0.0509346 0.0243534
0.58262 0 0
0.687251 0 0
0.69189 0 0
0 0.0817884 0.0516976
0.0450141 0.0767376 0.0487373
0.620096 0.0195773 0
0.72961 0.000411994 0
0.727977 0 0
0 0.341024 0.000900282
0 0.314351 0.0310216
0.411292 0.46096 0
0.914565 0.451408 0
0.884993 0.364019 0
0 0.466255 0
0 0.461738 0
0 0.59855 0
0.96051 0.862486 0
1 0.839078 0
0 0.500282 0
0 0.500282 0
0 0.591897 0
0 0.644633 0
1 0.89633 0
0 0 0.212909
0.156878 0.0176242 0.188968
0.603235 0 0.124498
0.704616 0 0.0790112
0.707027 0 0.0223239
0 0.0907607 0.122026
0.0332189 0.0779126 0.100053
0.591714 0.00387579 0
0.73962 0 0
0.733471 0 0
0 0.35494 0.0805066
0 0.316442 0.0495918
0.419959 0.445151 0
0.899397 0.407309 0
0.892699 0.380285 0
0 0.465278 0
0 0.46125 0
0.00973526 0.616724 0
0.965621 0.859541 0
1 0.832456 0
0 0.500282 0
0 0.500282 0
0 0.581353 0
0.776669 0.844327 0
1 0.89572 0
0 0 0.474083
0.0984054 0 0.493065
0.636469 0 0.546441
0.753567 0 0.537667
0.753658 0 0.508644
0 0 0.482551
0 9.15541e-05 0.482887
0.613703 0 0.532708
0.775296 0 0.497642
0.767727 0 0.451347
0 0.440803 0.560967
0 0.405051 0.518639
0.397787 0.485771 0.513741
0.888945 0.413077 0.402365
0.883589 0.371542 0.34963
0 0.557931 0.476677
0 0.542473 0.40856
0 0.627832 0.294347
0.944518 0.854597 3.0518e-05
1 0.829908 0
0 0.567239 0.393484
0 0.561257 0.364904
0 0.598016 0.261891
0.795544 0.846448 1.5259e-05
1 0.891539 0
0 0 0.552956
0.0640726 0 0.581537
0.662303 0 0.676768
0.798077 0 0.697322
0.799237 0 0.69308
0 3.0518e-05 0.597971
0 0.00122072 0.608392
0.593454 0.0274357 0.703288
0.812222 0 0.720592
0.809094 0 0.702205
0 0.44155 0.761715
0 0.394369 0.743786
0.349248 0.4934 0.804547
0.889189 0.424308 0.82121
0.889754 0.380285 0.798474
0 0.604913 0.80795
0 0.603937 0.804227
0 0.701305 0.838499
0.89778 0.918273 0.879759
0.996963 0.898756 0.831052
0 0.634638 0.798749
0 0.633158 0.791974
0 0.674434 0.77499
0.623301 0.893477 0.755016
0.999466 0.948455 0.698604
0 0 0.554391
0.028336 0 0.583795
0.648112 0 0.687449
0.808484 0 0.716915
0.81323 0 0.719753
0 0 0.606958
0 0.0040589 0.61912
0.573053 0.148562 0.721218
0.815961 1.5259e-05 0.740627
0.818555 0 0.733593
0 0.445914 0.771069
0 0.401633 0.754314
0.299702 0.509361 0.813306
0.894133 0.478172 0.847898
0.906508 0.44979 0.840436
0 0.608713 0.824643
0 0.604791 0.822431
0 0.710033 0.871794
0.885756 0.912642 0.931014
0.991577 0.895064 0.93228
0 0.646937 0.843626
0 0.64686 0.843549
0 0.684169 0.85951
0.529778 0.899855 0.913451
0.991547 0.975998 0.942077
