creator/6-Editing/New LUTS/3-Archive-Sony/SLog3-Base.cube
TITLE "BaseLUTs - Sony S-Log3 Conversion LUT by Gamut"
# Designed for converting S-Gamut3.Cine / S-Log3 to Rec709 Color Space. Version 1.1 - 10/05/2022 -  Copyright 2022 Gamut, LLC
# 
LUT_3D_SIZE 5
0.0000000000 0.0000000000 0.0000000000
0.2043490000 0.0007934690 0.0143893000
0.7406580000 0.0066987100 0.0901808000
0.9996490000 0.0000000000 0.1410240000
0.9995730000 0.0000000000 0.1461660000
0.0000000000 0.2345770000 0.0472267000
0.1510030000 0.1920200000 0.0000762951
0.7548330000 0.0542306000 0.0932784000
0.9996340000 0.0000000000 0.1441670000
0.9995730000 0.0000000000 0.1461660000
0.0000000000 0.8124820000 0.0000000000
0.0151827000 0.7791560000 0.0000000000
0.6255890000 0.6895400000 0.0168307000
0.9790950000 0.5500270000 0.1742120000
0.9996340000 0.0000000000 0.1461660000
0.2066680000 0.9664450000 0.0185245000
0.3149770000 0.9602350000 0.0404974000
0.6576790000 0.9538570000 0.1593040000
0.9545130000 0.9420000000 0.1994810000
0.9886020000 0.9373160000 0.1930110000
0.8955820000 0.9889520000 0.2250250000
0.8995190000 0.9887080000 0.2234230000
0.9379260000 0.9867250000 0.2226900000
0.9909670000 0.9872740000 0.2191350000
1.0000000000 0.9983980000 0.2034030000
0.0145876000 0.0169528000 0.1338520000
0.1786070000 0.0000000000 0.1319140000
0.7140760000 0.0252384000 0.1209580000
0.9996490000 0.0000000000 0.1410240000
0.9995730000 0.0000000000 0.1461660000
0.0000000000 0.1990840000 0.1435720000
0.1350270000 0.1453880000 0.1367060000
0.6733500000 0.0698711000 0.1238880000
0.9996950000 0.0000000000 0.1421530000
0.9995730000 0.0000000000 0.1461660000
0.0000000000 0.7978330000 0.1231400000
0.0104524000 0.7675590000 0.0206912000
0.6156710000 0.6613570000 0.1141370000
0.9961700000 0.4786450000 0.1792020000
0.9996340000 0.0000000000 0.1461660000
0.2368200000 0.9694970000 0.0262150000
0.3225150000 0.9637290000 0.0450141000
0.6970170000 0.9509570000 0.1670710000
0.9575650000 0.9423820000 0.1986880000
0.9896700000 0.9111160000 0.2064550000
0.9105520000 0.9882350000 0.2258340000
0.9107800000 0.9882350000 0.2253600000
0.9410090000 0.9865570000 0.2233770000
0.9931640000 0.9878690000 0.2175780000
1.0000000000 0.9984130000 0.2028380000
0.0232700000 0.0613107000 0.5410850000
0.1451740000 0.0516060000 0.5410540000
0.6853890000 0.0031586200 0.5273670000
0.9994660000 0.0035553500 0.3545130000
0.9996490000 0.0003967350 0.1476460000
0.0228733000 0.0763867000 0.5646450000
0.1580380000 0.0619059000 0.5599450000
0.6965900000 0.0029602500 0.5480580000
0.9994350000 0.0047303000 0.3687190000
0.9995730000 0.0003967350 0.1467000000
0.0000000000 0.7068740000 0.5817960000
0.0266117000 0.6703590000 0.5981540000
0.5655600000 0.5697870000 0.5683530000
0.9923700000 0.4152440000 0.4458080000
0.9996800000 0.0003967350 0.1472500000
0.1828030000 0.9644160000 0.5003890000
0.2787210000 0.9580220000 0.5774010000
0.6008850000 0.9495540000 0.5672240000
0.9539020000 0.9378350000 0.5929350000
0.9851070000 0.9020070000 0.2154880000
0.9155870000 0.9886170000 0.2407570000
0.9212940000 0.9881440000 0.2360720000
0.9433890000 0.9865110000 0.2250250000
0.9957730000 0.9891200000 0.2180510000
1.0000000000 0.9984130000 0.2028380000
0.0493324000 0.1338220000 0.8388950000
0.0581369000 0.1345690000 0.8408790000
0.6494390000 0.0041352000 0.9831390000
0.9993740000 0.0000000000 0.9810640000
0.9995570000 0.0031586200 0.8934460000
0.0500038000 0.1352410000 0.8465100000
0.0683146000 0.1363390000 0.8476840000
0.6836040000 0.0025635200 0.9905090000
0.9994510000 0.0000000000 0.9852600000
0.9995270000 0.0025635200 0.9088270000
0.0070954400 0.3924470000 0.9328600000
0.0796521000 0.3276260000 0.9014730000
0.5757080000 0.2289460000 0.9404900000
0.9978030000 0.0745556000 0.9841310000
0.9995120000 0.0011902000 0.9253990000
0.2885180000 0.9504540000 0.8538190000
0.3127950000 0.9472190000 0.8760050000
0.5118940000 0.9414360000 0.8955670000
0.9320670000 0.9314110000 0.9287560000
0.9987030000 0.8561530000 0.8634620000
0.8163270000 0.9991910000 0.8623640000
0.8185090000 0.9991910000 0.9058670000
0.8397800000 0.9992680000 0.9389330000
0.9617460000 0.9994660000 0.8810100000
0.9995120000 0.9995120000 0.8869150000
0.0568246000 0.1517810000 0.9538720000
0.0561990000 0.1517810000 0.9539020000
0.1211570000 0.1485620000 0.9583430000
0.9989010000 0.0000000000 0.9993740000
0.9994050000 0.0000000000 0.9994050000
0.0561990000 0.1517810000 0.9539640000
0.0557259000 0.1517810000 0.9539790000
0.1152510000 0.1474630000 0.9589840000
0.9989930000 0.0000000000 0.9993740000
0.9994050000 0.0000000000 0.9994050000
0.0555734000 0.1517810000 0.9543910000
0.0552529000 0.1517810000 0.9544210000
0.1848020000 0.1370410000 0.9634240000
0.9992370000 0.0000000000 0.9994050000
0.9994050000 0.0000000000 0.9994050000
0.0082856500 0.8696270000 0.9897000000
0.0055237700 0.8034030000 0.9931790000
0.2969410000 0.6975970000 0.9932250000
0.9250780000 0.5818110000 0.9971010000
0.9979400000 0.3328150000 0.9977870000
0.7929050000 0.9991910000 0.9991910000
0.7909510000 0.9991910000 0.9991910000
0.8074010000 0.9992680000 0.9992680000
0.9139850000 0.9994660000 0.9994660000
0.9995730000 0.9995730000 0.9995730000
