creator/6-Editing/New LUTS/3-Archive-Sony/SLog3-Base.cube
TITLE "BaseLUTs - Sony S-Log3 Conversion LUT by Gamut"
# Designed for converting S-Gamut3.Cine / S-Log3 to Rec709 Color Space. Version 1.1 - 10/05/2022 -  Copyright 2022 Gamut, LLC
# 
LUT_3D_SIZE 33
0.0000000000 0.0000000000 0.0000000000
0.0000000000 0.0000000000 0.0000000000
0.0036926800 0.0000000000 0.0000000000
0.0210422000 0.0000000000 0.0000000000
0.0457771000 0.0000000000 0.0000000000
0.0727703000 0.0000000000 0.0006713970
0.1078660000 0.0000000000 0.0042877800
0.1514920000 0.0006103610 0.0089417900
0.2043490000 0.0007934690 0.0143893000
0.2649880000 0.0007934690 0.0204013000
0.3319450000 0.0002441440 0.0258183000
0.4003510000 0.0000000000 0.0299382000
0.4682990000 0.0000000000 0.0345922000
0.5369190000 0.0000000000 0.0421454000
0.6055540000 0.0012359800 0.0553140000
0.6735480000 0.0039978600 0.0727855000
0.7406580000 0.0066987100 0.0901808000
0.8045780000 0.0055695400 0.1026470000
0.8675210000 0.0020141900 0.1105520000
0.9249410000 0.0004730300 0.1165940000
0.9662470000 0.0000000000 0.1226210000
0.9889070000 0.0000000000 0.1287560000
0.9973910000 0.0000000000 0.1337450000
0.9993440000 0.0000000000 0.1376360000
0.9996490000 0.0000000000 0.1410240000
0.9996490000 0.0000000000 0.1438620000
0.9995880000 0.0000000000 0.1454490000
0.9995730000 0.0000000000 0.1461660000
0.9995730000 0.0000000000 0.1461660000
0.9995730000 0.0000000000 0.1461660000
0.9995730000 0.0000000000 0.1461660000
0.9995730000 0.0000000000 0.1461660000
0.9995730000 0.0000000000 0.1461660000
0.0007629510 0.0007629510 0.0000000000
0.0001068130 0.0000000000 0.0000000000
0.0030365500 0.0000000000 0.0000000000
0.0205234000 0.0000000000 0.0000000000
0.0457771000 0.0000000000 0.0000000000
0.0747387000 0.0000000000 0.0006713970
0.1121840000 0.0000000000 0.0044098600
0.1569240000 0.0007629510 0.0095521500
0.2100400000 0.0007934690 0.0149844000
0.2712290000 0.0007934690 0.0204013000
0.3386590000 0.0002441440 0.0260777000
0.4074620000 0.0000000000 0.0307317000
0.4760660000 0.0000000000 0.0358587000
0.5453880000 0.0000000000 0.0440528000
0.6144500000 0.0016784900 0.0574807000
0.6829020000 0.0047608100 0.0752880000
0.7499050000 0.0070954400 0.0920729000
0.8136720000 0.0048065900 0.1037610000
0.8764480000 0.0016784900 0.1114520000
0.9323870000 0.0000305180 0.1174030000
0.9708710000 0.0000000000 0.1235680000
0.9909970000 0.0000000000 0.1296710000
0.9980320000 0.0000000000 0.1345390000
0.9994200000 0.0000000000 0.1382010000
0.9996340000 0.0000000000 0.1415120000
0.9996490000 0.0000000000 0.1441370000
0.9995880000 0.0000000000 0.1456630000
0.9995730000 0.0000000000 0.1461660000
0.9995730000 0.0000000000 0.1461660000
0.9995730000 0.0000000000 0.1461660000
0.9995730000 0.0000000000 0.1461660000
0.9995730000 0.0000000000 0.1461660000
0.9995730000 0.0000000000 0.1461660000
0.0007934690 0.0083314300 0.0000000000
0.0000000000 0.0075684700 0.0000000000
0.0038147600 0.0062104200 0.0000000000
0.0155337000 0.0060120500 0.0000000000
0.0457313000 0.0023651500 0.0000000000
0.0752117000 0.0008087280 0.0006713970
0.1134360000 0.0007324330 0.0050812500
0.1572590000 0.0007324330 0.0096894800
0.2087130000 0.0007934690 0.0143893000
0.2714890000 0.0007934690 0.0204013000
0.3408250000 0.0007934690 0.0260777000
0.4113830000 0.0000000000 0.0307317000
0.4819710000 0.0000000000 0.0363775000
0.5529410000 0.0004730300 0.0452277000
0.6231630000 0.0019684100 0.0601968000
0.6918900000 0.0047760700 0.0777447000
0.7591210000 0.0063630100 0.0939345000
0.8238960000 0.0047760700 0.1050740000
0.8866100000 0.0012359800 0.1125050000
0.9405510000 0.0000000000 0.1185780000
0.9760430000 0.0000000000 0.1248340000
0.9932710000 0.0000000000 0.1305870000
0.9986110000 0.0000000000 0.1351190000
0.9995880000 0.0000000000 0.1387660000
0.9996950000 0.0000000000 0.1420610000
0.9997100000 0.0000000000 0.1446860000
0.9995880000 0.0000000000 0.1457240000
0.9996800000 0.0000000000 0.1461660000
0.9995730000 0.0000000000 0.1461660000
0.9995730000 0.0000000000 0.1461660000
0.9995730000 0.0000000000 0.1461660000
0.9995730000 0.0000000000 0.1461660000
0.9995730000 0.0000000000 0.1461660000
0.0000000000 0.0288548000 0.0052185900
0.0000000000 0.0272984000 0.0044556300
0.0037689800 0.0264897000 0.0022125600
0.0121004000 0.0238651000 0.0000000000
0.0375372000 0.0186160000 0.0000000000
0.0704509000 0.0095521500 0.0000000000
0.1140150000 0.0045014100 0.0042877800
0.1575650000 0.0022430800 0.0090180800
0.2131230000 0.0016327200 0.0143893000
0.2753490000 0.0014953800 0.0204776000
0.3423670000 0.0009613180 0.0260777000
0.4102240000 0.0001983670 0.0307317000
0.4794540000 0.0000000000 0.0358740000
0.5513240000 0.0004730300 0.0452277000
0.6238040000 0.0020141900 0.0602731000
0.6946970000 0.0050812500 0.0782483000
0.7633170000 0.0066224200 0.0944076000
0.8298770000 0.0039978600 0.1058370000
0.8934160000 0.0012359800 0.1132070000
0.9463650000 0.0000000000 0.1194020000
0.9797360000 0.0000000000 0.1257650000
0.9948880000 0.0000000000 0.1314870000
0.9990230000 0.0000000000 0.1359120000
0.9995730000 0.0000000000 0.1393300000
0.9996950000 0.0000000000 0.1426110000
0.9996190000 0.0000000000 0.1449450000
0.9995730000 0.0000000000 0.1459370000
0.9996800000 0.0000000000 0.1461660000
0.9995730000 0.0000000000 0.1461660000
0.9995730000 0.0000000000 0.1461660000
0.9995730000 0.0000000000 0.1461660000
0.9995730000 0.0000000000 0.1461660000
0.9995730000 0.0000000000 0.1461660000
0.0000000000 0.0579690000 0.0158694000
0.0000000000 0.0555428000 0.0143130000
0.0008850230 0.0549325000 0.0105440000
0.0068513000 0.0549020000 0.0067444900
0.0314183000 0.0503700000 0.0001678490
0.0623484000 0.0401770000 0.0004730300
0.0905165000 0.0356146000 0.0024109300
0.1493860000 0.0203555000 0.0067750100
0.2102690000 0.0114290000 0.0121157000
0.2704660000 0.0083314300 0.0181430000
0.3425650000 0.0055237700 0.0243534000
0.4147100000 0.0031281000 0.0297704000
0.4852370000 0.0014801300 0.0356756000
0.5558860000 0.0006866560 0.0458534000
0.6261540000 0.0024567000 0.0607919000
0.6954600000 0.0055695400 0.0787213000
0.7634240000 0.0066987100 0.0944076000
0.8305490000 0.0039978600 0.1058820000
0.8948810000 0.0012359800 0.1135420000
0.9479360000 0.0000000000 0.1197680000
0.9808650000 0.0000000000 0.1261460000
0.9954830000 0.0000000000 0.1319910000
0.9991910000 0.0000000000 0.1362330000
0.9996490000 0.0000000000 0.1398950000
0.9996640000 0.0000000000 0.1429920000
0.9995880000 0.0000000000 0.1452510000
0.9995730000 0.0000000000 0.1461360000
0.9995880000 0.0000000000 0.1461660000
0.9995730000 0.0000000000 0.1461660000
0.9995730000 0.0000000000 0.1461660000
0.9995730000 0.0000000000 0.1461660000
0.9995730000 0.0000000000 0.1461660000
0.9995730000 0.0000000000 0.1461660000
0.0000000000 0.0903639000 0.0274052000
0.0000000000 0.0870832000 0.0251774000
0.0007324330 0.0853285000 0.0220340000
0.0038910500 0.0872511000 0.0117800000
0.0112154000 0.0896925000 0.0003967350
0.0521096000 0.0798810000 0.0000152590
0.0919203000 0.0644846000 0.0011291700
0.1246660000 0.0574044000 0.0036774200
0.1738160000 0.0464332000 0.0102998000
0.2575880000 0.0308232000 0.0173648000
0.3354240000 0.0215763000 0.0222477000
0.4064700000 0.0147097000 0.0275425000
0.4818490000 0.0080872800 0.0346227000
0.5586020000 0.0039673500 0.0461585000
0.6323800000 0.0048065900 0.0622721000
0.7032430000 0.0072632900 0.0805524000
0.7711450000 0.0069733700 0.0957198000
0.8365610000 0.0039978600 0.1065690000
0.8988940000 0.0012359800 0.1138780000
0.9499350000 0.0000000000 0.1200430000
0.9815520000 0.0000000000 0.1264060000
0.9955900000 0.0000000000 0.1320210000
0.9991910000 0.0000000000 0.1363240000
0.9996340000 0.0000000000 0.1399400000
0.9996640000 0.0000000000 0.1431910000
0.9995880000 0.0000000000 0.1454640000
0.9995730000 0.0000000000 0.1461660000
0.9995730000 0.0000000000 0.1461660000
0.9995730000 0.0000000000 0.1461660000
0.9995730000 0.0000000000 0.1461660000
0.9995730000 0.0000000000 0.1461660000
0.9995730000 0.0000000000 0.1461660000
0.9995730000 0.0000000000 0.1461660000
0.0000000000 0.1276720000 0.0391699000
0.0000000000 0.1243760000 0.0376287000
0.0000000000 0.1224380000 0.0331731000
0.0015716800 0.1228350000 0.0195621000
0.0095521500 0.1239640000 0.0078889100
0.0305943000 0.1232320000 0.0002441440
0.0785840000 0.1117270000 0.0000152590
0.1276870000 0.0907759000 0.0012359800
0.1649960000 0.0834211000 0.0054322100
0.2061490000 0.0780041000 0.0136873000
0.2941330000 0.0607767000 0.0207523000
0.3908290000 0.0418860000 0.0266575000
0.4728770000 0.0285801000 0.0332189000
0.5486840000 0.0190890000 0.0435798000
0.6251770000 0.0156252000 0.0599680000
0.7011980000 0.0137484000 0.0794690000
0.7743950000 0.0106966000 0.0957198000
0.8439610000 0.0056916100 0.1069960000
0.9067980000 0.0015259000 0.1147170000
0.9551080000 0.0003204390 0.1210190000
0.9838410000 0.0000000000 0.1273520000
0.9961390000 0.0000000000 0.1327080000
0.9992520000 0.0000000000 0.1367670000
0.9996340000 0.0000000000 0.1401690000
0.9996640000 0.0000000000 0.1431910000
0.9995880000 0.0000000000 0.1452510000
0.9995730000 0.0000000000 0.1461660000
0.9995730000 0.0000000000 0.1461660000
0.9995730000 0.0000000000 0.1461660000
0.9995730000 0.0000000000 0.1461660000
0.9995730000 0.0000000000 0.1461660000
0.9995730000 0.0000000000 0.1461660000
0.9995730000 0.0000000000 0.1461660000
0.0000000000 0.1749750000 0.0482185000
0.0000000000 0.1713590000 0.0455940000
0.0000000000 0.1684440000 0.0387121000
0.0007171740 0.1678340000 0.0255589000
0.0041352000 0.1688870000 0.0090180800
0.0141451000 0.1697110000 0.0005035480
0.0517586000 0.1634090000 0.0000000000
0.1113300000 0.1481800000 0.0000000000
0.1725190000 0.1228810000 0.0017700500
0.2118720000 0.1179830000 0.0077363200
0.2594030000 0.1130690000 0.0146792000
0.3251540000 0.1028610000 0.0258488000
0.4312050000 0.0776074000 0.0352789000
0.5313340000 0.0552071000 0.0454719000
0.6157780000 0.0415961000 0.0601358000
0.6908830000 0.0337987000 0.0775616000
0.7641110000 0.0243992000 0.0933394000
0.8376290000 0.0133822000 0.1053480000
0.9052260000 0.0050202200 0.1140460000
0.9562070000 0.0010833900 0.1214160000
0.9853360000 0.0000000000 0.1282670000
0.9967190000 0.0000000000 0.1337610000
0.9993740000 0.0000000000 0.1376210000
0.9996190000 0.0000000000 0.1408710000
0.9996490000 0.0000000000 0.1436180000
0.9995880000 0.0000000000 0.1454640000
0.9995730000 0.0000000000 0.1461660000
0.9995730000 0.0000000000 0.1461660000
0.9995730000 0.0000000000 0.1461660000
0.9995730000 0.0000000000 0.1461660000
0.9995730000 0.0000000000 0.1461660000
0.9995730000 0.0000000000 0.1461660000
0.9995730000 0.0000000000 0.1461660000
0.0000000000 0.2345770000 0.0472267000
0.0000000000 0.2302740000 0.0444190000
0.0000000000 0.2269170000 0.0352789000
0.0001220720 0.2255130000 0.0187686000
0.0022735900 0.2256200000 0.0025787700
0.0110323000 0.2247040000 0.0001220720
0.0278935000 0.2217440000 0.0000000000
0.0792706000 0.2116430000 0.0000000000
0.1510030000 0.1920200000 0.0000762951
0.2221870000 0.1671170000 0.0027771400
0.2672310000 0.1605400000 0.0100862000
0.3181350000 0.1552610000 0.0196994000
0.3735560000 0.1493250000 0.0314031000
0.4667580000 0.1257340000 0.0455787000
0.5772180000 0.0970932000 0.0619364000
0.6740830000 0.0739757000 0.0791485000
0.7548330000 0.0542306000 0.0932784000
0.8276490000 0.0342260000 0.1034260000
0.8953990000 0.0162661000 0.1116960000
0.9499810000 0.0052948800 0.1196150000
0.9830170000 0.0013733100 0.1275650000
0.9963070000 0.0000000000 0.1337000000
0.9992980000 0.0000000000 0.1380640000
0.9996340000 0.0000000000 0.1415730000
0.9996340000 0.0000000000 0.1441670000
0.9995880000 0.0000000000 0.1457390000
0.9996490000 0.0000000000 0.1461660000
0.9995730000 0.0000000000 0.1461660000
0.9995730000 0.0000000000 0.1461660000
0.9995730000 0.0000000000 0.1461660000
0.9995730000 0.0000000000 0.1461660000
0.9995730000 0.0000000000 0.1461660000
0.9995730000 0.0000000000 0.1461660000
0.0000000000 0.3081710000 0.0254215000
0.0000000000 0.3033950000 0.0236973000
0.0000000000 0.2988780000 0.0164187000
0.0000000000 0.2959180000 0.0053864300
0.0016022000 0.2931720000 0.0003967350
0.0057831700 0.2909290000 0.0000000000
0.0188907000 0.2881060000 0.0000000000
0.0475013000 0.2811170000 0.0000000000
0.1122910000 0.2693370000 0.0000000000
0.1968260000 0.2462960000 0.0001525900
0.2768900000 0.2208740000 0.0047455600
0.3297930000 0.2097350000 0.0146334000
0.3807580000 0.2044250000 0.0259098000
0.4382850000 0.1968260000 0.0383459000
0.5096060000 0.1821470000 0.0559701000
0.6167090000 0.1492330000 0.0764630000
0.7208210000 0.1139390000 0.0926833000
0.8126650000 0.0770581000 0.1036090000
0.8890520000 0.0436713000 0.1106580000
0.9453270000 0.0196689000 0.1174030000
0.9795830000 0.0066987100 0.1251540000
0.9951930000 0.0013733100 0.1324790000
0.9992070000 0.0000000000 0.1379570000
0.9996190000 0.0000000000 0.1416340000
0.9996190000 0.0000000000 0.1444420000
0.9995730000 0.0000000000 0.1458760000
0.9996800000 0.0000000000 0.1461660000
0.9995730000 0.0000000000 0.1461660000
0.9995730000 0.0000000000 0.1461660000
0.9995730000 0.0000000000 0.1461660000
0.9995730000 0.0000000000 0.1461660000
0.9995730000 0.0000000000 0.1461660000
0.9996030000 0.0000000000 0.1461660000
0.0000000000 0.3875490000 0.0056305800
0.0000000000 0.3820710000 0.0051575500
0.0000000000 0.3764550000 0.0031586200
0.0000000000 0.3714200000 0.0004730300
0.0007934690 0.3668570000 0.0000000000
0.0032806900 0.3633940000 0.0000000000
0.0102998000 0.3604180000 0.0000000000
0.0303044000 0.3563590000 0.0000000000
0.0757153000 0.3469600000 0.0000000000
0.1526510000 0.3339130000 0.0000000000
0.2498210000 0.3084460000 0.0005645840
0.3362940000 0.2815750000 0.0074464000
0.3967500000 0.2642250000 0.0202640000
0.4475010000 0.2579690000 0.0332952000
0.5056690000 0.2489050000 0.0493172000
0.5673000000 0.2385600000 0.0672770000
0.6568250000 0.2086980000 0.0880446000
0.7615470000 0.1640800000 0.1037920000
0.8590070000 0.1124440000 0.1120780000
0.9327080000 0.0648966000 0.1174940000
0.9756920000 0.0305638000 0.1239190000
0.9940030000 0.0109407000 0.1306940000
0.9990390000 0.0025177400 0.1366900000
0.9996640000 0.0003204390 0.1414510000
0.9996190000 0.0000000000 0.1444420000
0.9995730000 0.0000000000 0.1459530000
0.9996800000 0.0000000000 0.1461660000
0.9995730000 0.0000000000 0.1461660000
0.9996190000 0.0000000000 0.1461660000
0.9996190000 0.0000000000 0.1461660000
0.9995730000 0.0000000000 0.1461660000
0.9996190000 0.0000000000 0.1461660000
0.9996190000 0.0000000000 0.1461660000
0.0000000000 0.4616310000 0.0002746620
0.0000000000 0.4557720000 0.0002746620
0.0000000000 0.4494850000 0.0002746620
0.0000000000 0.4433200000 0.0000000000
0.0001678490 0.4382390000 0.0000000000
0.0016022000 0.4341650000 0.0000000000
0.0062409400 0.4307010000 0.0000000000
0.0191958000 0.4271920000 0.0000000000
0.0501411000 0.4212560000 0.0000000000
0.1151450000 0.4104370000 0.0000000000
0.2019840000 0.3975590000 0.0000000000
0.3084920000 0.3713130000 0.0010376100
0.3977260000 0.3438160000 0.0095826700
0.4642860000 0.3208820000 0.0269474000
0.5157090000 0.3131150000 0.0435035000
0.5721980000 0.3039290000 0.0620890000
0.6324560000 0.2931720000 0.0809644000
0.7020980000 0.2746620000 0.1008320000
0.7994350000 0.2270850000 0.1162580000
0.8903640000 0.1676200000 0.1226060000
0.9549250000 0.1057600000 0.1259480000
0.9873200000 0.0537575000 0.1302820000
0.9976650000 0.0202945000 0.1357290000
0.9994660000 0.0052033300 0.1407640000
0.9996190000 0.0006408790 0.1442440000
0.9995880000 0.0000000000 0.1458300000
0.9996800000 0.0000000000 0.1461660000
0.9995730000 0.0000000000 0.1461660000
0.9995730000 0.0000000000 0.1461660000
0.9995730000 0.0000000000 0.1461660000
0.9995730000 0.0000000000 0.1461660000
0.9995730000 0.0000000000 0.1461660000
0.9995730000 0.0000000000 0.1461660000
0.0000000000 0.5320670000 0.0000000000
0.0000000000 0.5254140000 0.0000000000
0.0000000000 0.5187000000 0.0000000000
0.0000000000 0.5127030000 0.0000000000
0.0000000000 0.5078360000 0.0000000000
0.0009613180 0.5034870000 0.0000000000
0.0039368300 0.4994130000 0.0000000000
0.0128634000 0.4958880000 0.0000000000
0.0353552000 0.4915850000 0.0000000000
0.0817426000 0.4840310000 0.0000000000
0.1634240000 0.4725870000 0.0000000000
0.2579080000 0.4598920000 0.0000000000
0.3685660000 0.4333260000 0.0016632300
0.4591440000 0.4050660000 0.0123445000
0.5324180000 0.3771570000 0.0367285000
0.5847870000 0.3695430000 0.0568704000
0.6398570000 0.3609980000 0.0780499000
0.6984820000 0.3509120000 0.0985275000
0.7584040000 0.3396200000 0.1167930000
0.8363320000 0.3017620000 0.1300070000
0.9133440000 0.2389870000 0.1349200000
0.9662620000 0.1648130000 0.1358820000
0.9909820000 0.0929885000 0.1373920000
0.9982760000 0.0388037000 0.1404750000
0.9994510000 0.0107424000 0.1437860000
0.9995730000 0.0017700500 0.1456780000
0.9996030000 0.0000000000 0.1461660000
0.9997100000 0.0000000000 0.1461660000
0.9995730000 0.0000000000 0.1461660000
0.9995730000 0.0000000000 0.1461660000
0.9995730000 0.0000000000 0.1461660000
0.9995730000 0.0000000000 0.1461660000
0.9995730000 0.0000000000 0.1461660000
0.0000000000 0.6018310000 0.0000000000
0.0000000000 0.5950100000 0.0000000000
0.0000000000 0.5885860000 0.0000000000
0.0000000000 0.5831690000 0.0000000000
0.0000000000 0.5784390000 0.0000000000
0.0006713970 0.5741050000 0.0000000000
0.0023956700 0.5700310000 0.0000000000
0.0084229800 0.5664760000 0.0000000000
0.0242008000 0.5631800000 0.0000000000
0.0601511000 0.5583580000 0.0000000000
0.1245440000 0.5497520000 0.0000000000
0.2179750000 0.5379720000 0.0000000000
0.3179680000 0.5245140000 0.0000152590
0.4286870000 0.4974590000 0.0026703300
0.5223320000 0.4677810000 0.0172580000
0.6022280000 0.4354920000 0.0496529000
0.6556040000 0.4287790000 0.0737774000
0.7086290000 0.4222480000 0.0970321000
0.7637290000 0.4137640000 0.1167010000
0.8177310000 0.4028690000 0.1317770000
0.8739910000 0.3807740000 0.1423670000
0.9351950000 0.3192650000 0.1469290000
0.9753110000 0.2382700000 0.1470210000
0.9933620000 0.1478900000 0.1456630000
0.9985200000 0.0692302000 0.1448840000
0.9993590000 0.0236210000 0.1455560000
0.9995880000 0.0050812500 0.1460590000
0.9996190000 0.0003509580 0.1461660000
0.9997100000 0.0000000000 0.1461660000
0.9996340000 0.0000000000 0.1461660000
0.9995730000 0.0000000000 0.1461660000
0.9995730000 0.0000000000 0.1461660000
0.9995730000 0.0000000000 0.1461660000
0.0000000000 0.6729690000 0.0000000000
0.0000000000 0.6666060000 0.0000000000
0.0000000000 0.6608070000 0.0000000000
0.0000000000 0.6557560000 0.0000000000
0.0000000000 0.6513620000 0.0000000000
0.0000000000 0.6472880000 0.0000000000
0.0014343500 0.6433970000 0.0000000000
0.0065766400 0.6399330000 0.0000000000
0.0191653000 0.6369120000 0.0000000000
0.0461128000 0.6336460000 0.0000000000
0.0974136000 0.6281830000 0.0000000000
0.1776000000 0.6188600000 0.0000000000
0.2767530000 0.6070040000 0.0000000000
0.3797210000 0.5924620000 0.0000610361
0.4919200000 0.5645380000 0.0041962300
0.5881290000 0.5342490000 0.0240024000
0.6732740000 0.4976420000 0.0659037000
0.7254600000 0.4914780000 0.0918593000
0.7750210000 0.4855570000 0.1146410000
0.8240940000 0.4773780000 0.1309830000
0.8709540000 0.4652930000 0.1426110000
0.9130540000 0.4500950000 0.1509730000
0.9554890000 0.4020600000 0.1567560000
0.9833830000 0.3206990000 0.1577480000
0.9951930000 0.2184790000 0.1547720000
0.9984590000 0.1188530000 0.1503780000
0.9992070000 0.0466011000 0.1477070000
0.9995420000 0.0104982000 0.1466850000
0.9996640000 0.0006866560 0.1462880000
0.9997100000 0.0000000000 0.1461660000
0.9997100000 0.0000000000 0.1461660000
0.9995730000 0.0000000000 0.1461660000
0.9995730000 0.0000000000 0.1461660000
0.0000000000 0.7450070000 0.0000000000
0.0000000000 0.7393000000 0.0000000000
0.0000000000 0.7340810000 0.0000000000
0.0000000000 0.7295190000 0.0000000000
0.0000000000 0.7254290000 0.0000000000
0.0000000000 0.7215080000 0.0000000000
0.0014343500 0.7176930000 0.0000000000
0.0056153200 0.7141070000 0.0000000000
0.0165255000 0.7109640000 0.0000000000
0.0395361000 0.7080190000 0.0000000000
0.0800336000 0.7041730000 0.0000000000
0.1453420000 0.6973980000 0.0000000000
0.2358430000 0.6870680000 0.0000000000
0.3382310000 0.6749520000 0.0000000000
0.4452430000 0.6589760000 0.0001983670
0.5589680000 0.6310060000 0.0071259600
0.6534070000 0.6013730000 0.0328832000
0.7368580000 0.5647970000 0.0800336000
0.7879760000 0.5539940000 0.1071950000
0.8323800000 0.5464260000 0.1271380000
0.8740220000 0.5378040000 0.1406730000
0.9122000000 0.5253990000 0.1503010000
0.9439840000 0.5101240000 0.1578850000
0.9701230000 0.4823830000 0.1646300000
0.9888760000 0.4071110000 0.1669030000
0.9963840000 0.3020980000 0.1630730000
0.9985050000 0.1820250000 0.1569700000
0.9992370000 0.0753338000 0.1511860000
0.9995270000 0.0177615000 0.1472800000
0.9995730000 0.0025635200 0.1461660000
0.9996190000 0.0000000000 0.1461660000
0.9997100000 0.0000000000 0.1461660000
0.9995730000 0.0000000000 0.1461660000
0.0000000000 0.8124820000 0.0000000000
0.0000000000 0.8075380000 0.0000000000
0.0000000000 0.8030670000 0.0000000000
0.0000000000 0.7990540000 0.0000000000
0.0000000000 0.7951170000 0.0000000000
0.0000000000 0.7911960000 0.0000000000
0.0014343500 0.7871670000 0.0000000000
0.0052185900 0.7830930000 0.0000000000
0.0151827000 0.7791560000 0.0000000000
0.0352636000 0.7753870000 0.0000000000
0.0690623000 0.7713890000 0.0000000000
0.1219350000 0.7659110000 0.0000000000
0.1992520000 0.7573510000 0.0000000000
0.2978260000 0.7459070000 0.0000000000
0.4051420000 0.7328760000 0.0003967350
0.5160600000 0.7155410000 0.0030365500
0.6255890000 0.6895400000 0.0168307000
0.7120320000 0.6629590000 0.0469062000
0.7880980000 0.6285340000 0.0922866000
0.8368960000 0.6125580000 0.1192490000
0.8747390000 0.6041660000 0.1368730000
0.9090410000 0.5954990000 0.1507130000
0.9385210000 0.5840240000 0.1605100000
0.9618370000 0.5686270000 0.1685360000
0.9790950000 0.5500270000 0.1742120000
0.9917300000 0.4918140000 0.1759060000
0.9969630000 0.3879150000 0.1721980000
0.9986110000 0.2477000000 0.1636680000
0.9991150000 0.1154190000 0.1537800000
0.9992830000 0.0392920000 0.1477680000
0.9994960000 0.0088197100 0.1462880000
0.9996640000 0.0007324330 0.1462880000
0.9996340000 0.0000000000 0.1461660000
0.0000000000 0.8673530000 0.0000000000
0.0000000000 0.8632180000 0.0000000000
0.0000000000 0.8593580000 0.0000000000
0.0000000000 0.8558330000 0.0000000000
0.0000000000 0.8521400000 0.0000000000
0.0006713970 0.8480810000 0.0000000000
0.0014343500 0.8436560000 0.0000000000
0.0050049600 0.8389720000 0.0000000000
0.0141909000 0.8341190000 0.0000000000
0.0325780000 0.8291600000 0.0000000000
0.0629435000 0.8241550000 0.0000000000
0.1085830000 0.8186620000 0.0000000000
0.1746090000 0.8113370000 0.0000000000
0.2649580000 0.8011290000 0.0000000000
0.3724420000 0.7885250000 0.0019684100
0.4822160000 0.7749600000 0.0070954400
0.5899440000 0.7582820000 0.0186618000
0.6870990000 0.7372090000 0.0392462000
0.7604790000 0.7161820000 0.0675364000
0.8251160000 0.6866100000 0.1057910000
0.8707410000 0.6675970000 0.1324640000
0.9022350000 0.6596630000 0.1499660000
0.9302510000 0.6510410000 0.1653770000
0.9532920000 0.6408180000 0.1764710000
0.9705960000 0.6261230000 0.1844050000
0.9829100000 0.6072170000 0.1896540000
0.9915160000 0.5709930000 0.1901430000
0.9964140000 0.4715190000 0.1826050000
0.9981230000 0.3301750000 0.1696190000
0.9987030000 0.1874880000 0.1571830000
0.9992070000 0.0784619000 0.1510190000
0.9995420000 0.0181582000 0.1476620000
0.9996490000 0.0000000000 0.1461660000
0.0000000000 0.9055310000 0.0000000000
0.0000000000 0.9021290000 0.0000000000
0.0000000000 0.8988630000 0.0000000000
0.0000000000 0.8956280000 0.0000000000
0.0003509580 0.8921340000 0.0000000000
0.0006713970 0.8881210000 0.0000000000
0.0024109300 0.8835580000 0.0000000000
0.0067444900 0.8784920000 0.0000000000
0.0162051000 0.8730750000 0.0000000000
0.0345464000 0.8675210000 0.0000000000
0.0649424000 0.8618600000 0.0000000000
0.1083390000 0.8560770000 0.0000000000
0.1677880000 0.8496530000 0.0000000000
0.2488750000 0.8412300000 0.0008087280
0.3509580000 0.8302740000 0.0051728100
0.4615700000 0.8178990000 0.0155642000
