creator/6-Editing/New LUTS/3-Archive-Sony/SLog3-Fresh.cube
TITLE "Generated by Resolve"
LUT_3D_SIZE 33
0.026978 0.0279393 0.0319524
0.0281682 0.0285954 0.0328985
0.0356909 0.0307164 0.0350042
0.0404212 0.0327001 0.035462
0.0515145 0.0345769 0.0354162
0.0706951 0.0384527 0.0354925
0.0883803 0.0438239 0.0346227
0.12221 0.0475166 0.0319219
0.163836 0.0509346 0.0243534
0.206424 0.0529793 0.00177005
0.264073 0.0536049 0
0.329992 0.0487831 0
0.393164 0.0372473 0
0.447868 0.000854505 0
0.501106 0 0
0.547402 0 0
0.58262 0 0
0.610468 0 0
0.632776 0 0
0.649866 0 0
0.662181 0 0
0.671611 0 0
0.678691 0 0
0.683589 0 0
0.687251 0 0
0.690425 0 0
0.69189 0 0
0.69189 0 0
0.69189 0 0
0.69189 0 0
0.69189 0 0
0.69189 0 0
0.69189 0 0
0.026978 0.0279393 0.0319524
0.026978 0.0279393 0.0319524
0.0316472 0.0299687 0.0346685
0.0389258 0.0319677 0.0353399
0.045243 0.0337377 0.0354314
0.0646525 0.0367742 0.0354314
0.0830701 0.0422522 0.0349889
0.110872 0.0466621 0.0329747
0.154086 0.0500649 0.0269932
0.196429 0.0526131 0.00762951
0.25008 0.054139 0
0.316304 0.050248 0
0.381369 0.0397345 0
0.438361 0.00111391 0
0.493385 0 0
0.542 0 0
0.579492 0 0
0.60827 0 0
0.631373 0 0
0.648951 0 0
0.661692 0 0
0.671321 0 0
0.678553 0 0
0.683528 0 0
0.687221 0 0
0.690425 0 0
0.69189 0 0
0.69189 0 0
0.69189 0 0
0.69189 0 0
0.69189 0 0
0.69189 0 0
0.69189 0 0
0.0266117 0.0301671 0.0330968
0.0268864 0.0284733 0.0322271
0.026978 0.0279393 0.0319524
0.0363165 0.0308232 0.0350347
0.0439002 0.0334478 0.0354314
0.0615549 0.0359045 0.0354009
0.0774853 0.0404517 0.0353552
0.0994736 0.0452277 0.033814
0.139101 0.0487984 0.0303349
0.181857 0.0520943 0.0166018
0.231968 0.0537575 0.000671397
0.295903 0.0523995 0
0.363668 0.043473 0
0.423987 0.01178 0
0.481025 0 0
0.53228 0 0
0.572595 0 0
0.603708 0 0
0.627939 0 0
0.646479 0 0
0.660182 0 0
0.670314 0 0
0.677928 0 0
0.683116 0 0
0.686885 0 0
0.690166 0 0
0.69189 0 0
0.69189 0 0
0.69189 0 0
0.69189 0 0
0.69189 0 0
0.69189 0 0
0.69189 0 0
0.0251164 0.0355383 0.035584
0.0256352 0.0344091 0.0351568
0.0261082 0.0331426 0.0346838
0.0277714 0.0323339 0.0350805
0.0387579 0.0340887 0.0363012
0.0496223 0.0350347 0.0357214
0.0755322 0.039826 0.0354925
0.0998245 0.0452735 0.0337835
0.132921 0.0483253 0.0309148
0.169085 0.0513924 0.0229496
0.211963 0.0531472 0.0015259
0.272328 0.0532845 0
0.34168 0.0475319 0
0.406378 0.0268711 0
0.464454 0.000381476 0
0.519783 0 0
0.56321 0 0
0.596704 0 0
0.623041 0 0
0.642954 0 0
0.657633 0 0
0.668559 0 0
0.676875 0 0
0.682368 0 0
0.68632 0 0
0.689708 0 0
0.69189 0 0
0.69189 0 0
0.69189 0 0
0.69189 0 0
0.69189 0 0
0.69189 0 0
0.69189 0 0
0.0209659 0.0419013 0.0381476
0.0210422 0.0415961 0.0379644
0.0214389 0.0402686 0.037171
0.0211795 0.0409247 0.0375372
0.0294194 0.039353 0.0383001
0.0416114 0.039765 0.0382696
0.063035 0.0417792 0.0379492
0.0886549 0.0472267 0.0363012
0.131838 0.051957 0.0322271
0.179294 0.0541085 0.0211337
0.221805 0.0549783 0.00128176
0.271107 0.0549325 0
0.3299 0.0502327 0
0.390036 0.0379034 0
0.447868 0.000854505 0
0.504814 0 0
0.553292 0 0
0.588861 0 0
0.617319 0 0
0.639109 0 0
0.654795 0 0
0.666468 0 0
0.675334 0 0
0.681392 0 0
0.685664 0 0
0.689158 0 0
0.69189 0 0
0.69189 0 0
0.69189 0 0
0.69189 0 0
0.69189 0 0
0.69189 0 0
0.69189 0 0
0.0175479 0.0466773 0.0404974
0.0178683 0.0463874 0.0403754
0.0195163 0.0448768 0.0398108
0.0205844 0.0436866 0.0393072
0.0186618 0.045655 0.0401007
0.0352178 0.0451514 0.0408026
0.0474403 0.0476844 0.04065
0.077821 0.0522469 0.0393072
0.106523 0.0576181 0.0371405
0.165957 0.0599527 0.0280156
0.226917 0.0617685 0.00132753
0.297658 0.0610208 0
0.365759 0.0563973 0
0.421622 0.0456092 0
0.469703 0.0205539 0
0.519249 1.5259e-05 0
0.56495 0 0
0.599725 0 0
0.625864 0 0
0.64593 0 0
0.659709 0 0
0.66865 0 0
0.674784 0 0
0.680339 0 0
0.684947 0 0
0.688563 0 0
0.6916 0 0
0.69189 0 0
0.69189 0 0
0.69189 0 0
0.69189 0 0
0.69189 0 0
0.69189 0 0
0.00836194 0.0550851 0.043122
0.00894179 0.054551 0.0429847
0.0119631 0.0517739 0.042237
0.0144198 0.0495155 0.0415656
0.0149538 0.0490272 0.0413825
0.0106966 0.0529488 0.0425422
0.0389258 0.0514076 0.043183
0.0655222 0.0545357 0.0424048
0.093019 0.0599832 0.0408789
0.13434 0.0656596 0.0363012
0.200229 0.0699016 0.0199283
0.277516 0.0745251 0.000167849
0.367834 0.0711223 0
0.445075 0.0610819 0
0.502647 0.0316472 0
0.550912 0.00236515 0
0.590066 3.0518e-05 0
0.619699 0 0
0.644007 0 0
0.663752 0 0
0.678645 0 0
0.68867 0 0
0.695781 0 0
0.700572 0 0
0.703258 0 0
0.704814 0 0
0.705852 0 0
0.704616 0 0
0.702556 0 0
0.700298 0 0
0.697826 0 0
0.695155 0 0
0.692226 0 0
9.15541e-05 0.0683757 0.0470283
9.15541e-05 0.0679789 0.046891
0.000106813 0.066743 0.0464942
0.000167849 0.0627146 0.045182
0.00276188 0.0602274 0.0445106
0.000167849 0.0628672 0.0452277
0.000122072 0.0663615 0.0463722
0.0411383 0.0617838 0.045716
0.0827039 0.0638285 0.0434272
0.113848 0.0700847 0.0411841
0.173938 0.0753033 0.0328374
0.241077 0.0806439 0.00483711
0.33077 0.0833906 0
0.430564 0.0785077 0
0.507576 0.0628672 0
0.569512 0.0192569 0
0.613916 3.0518e-05 0
0.643168 0 0
0.66421 0 0
0.680812 0 0
0.693538 0 0
0.702678 0 0
0.709667 0 0
0.714778 0 0
0.717937 0 0
0.71986 0 0
0.72137 0 0
0.721172 0 0
0.719753 0 0
0.718242 0 0
0.716655 0 0
0.715114 0 0
0.713512 0 0
0 0.0817884 0.0516976
0 0.0815137 0.051606
0 0.080766 0.0513313
0 0.0769818 0.0499123
1.5259e-05 0.0745861 0.0490425
0.000381476 0.0727703 0.0485542
0 0.0784619 0.0504616
0 0.0798505 0.0509804
0.0450141 0.0767376 0.0487373
0.100313 0.0821088 0.0443122
0.148531 0.0877241 0.038941
0.217548 0.0922866 0.0178988
0.293919 0.0974899 0.000289921
0.391135 0.0972152 0
0.486442 0.0887617 0
0.562112 0.0673381 0
0.620096 0.0195773 0
0.656413 0.0065156 0
0.680888 0.00263981 0
0.697078 0.000595102 0
0.707942 0.000488289 0
0.715679 0.0009308 0
0.721813 0.00103761 0
0.726467 0.000915541 0
0.72961 0.000411994 0
0.731762 0 0
0.733501 0 0
0.733989 0 0
0.732906 0 0
0.731792 0 0
0.730587 0 0
0.729305 0 0
0.727977 0 0
0 0.099443 0.0561685
0 0.0991531 0.0561074
0 0.0983139 0.0559396
0 0.0929274 0.0548562
0 0.0891127 0.054078
0 0.0862287 0.0533608
0 0.0869154 0.0539254
0 0.0960403 0.0554818
0 0.0968338 0.0558938
0.0675212 0.0932631 0.0517586
0.129412 0.101854 0.0443275
0.196475 0.108049 0.0296025
0.270161 0.115587 0.000488289
0.361486 0.121477 0
0.459861 0.121965 0
0.543664 0.114275 0
0.614267 0.0935836 0
0.661372 0.0600748 0
0.689632 0.0347753 0
0.708461 0.0160372 0
0.720165 0.00958267 0
0.727581 0.00660716 0
0.733028 0.00848402 0
0.736629 0.010193 0
0.7393 0.0113527 0
0.741497 0.0121462 0
0.743328 0.0124361 0
0.744015 0.0121157 0
0.74342 0.0112001 0
0.742657 0.0100252 0
0.741802 0.00872816 0
0.740871 0.00729381 0
0.739849 0.00572213 0
0 0.125841 0.059144
0 0.125551 0.0591287
0 0.124697 0.0590524
0 0.12018 0.0586404
0 0.112581 0.057969
0 0.108064 0.0575723
0 0.105303 0.0577401
0 0.111574 0.0583505
0 0.122866 0.0588846
0 0.123095 0.0594339
0.08748 0.116152 0.053315
0.176257 0.123384 0.0400397
0.250706 0.130861 0.00747692
0.336034 0.141207 0
0.438834 0.146975 0
0.529763 0.147646 0
0.603906 0.140551 0
0.6636 0.127108 0
0.699855 0.110109 0
0.721553 0.0891127 0
0.734981 0.076524 0
0.74284 0.0748302 0
0.748119 0.0748608 0
0.751293 0.0738994 0
0.753277 0.0722057 0
0.754955 0.0707256 0
0.75642 0.0697795 0
0.756298 0.0671855 0
0.755718 0.0640574 0
0.75491 0.0596933 0
0.754055 0.055024 0
0.752956 0.0490883 0
0.751751 0.0425422 0
0 0.156024 0.0623331
0 0.155718 0.0623026
0 0.155123 0.0622568
0 0.152209 0.0619364
0 0.142901 0.0609293
0 0.138201 0.0604105
0 0.133822 0.0599374
0 0.134798 0.0603037
0 0.14583 0.061326
0 0.154009 0.0621347
0 0.155627 0.0612039
0.105455 0.151171 0.0502327
0.232654 0.157504 0.0142367
0.316243 0.167956 0
0.415671 0.176867 0
0.51873 0.181674 0
0.598459 0.179751 0
0.663798 0.171084 0
0.709285 0.160037 0
0.736584 0.147723 0
0.753613 0.140124 0
0.76286 0.136309 0
0.768292 0.134234 0
0.771054 0.133242 0
0.772259 0.130831 0
0.773083 0.128634 0
0.773327 0.126497 0
0.771984 0.123033 0
0.770993 0.120485 0
0.770214 0.118486 0
0.769512 0.11667 0
0.768673 0.114488 0
0.767681 0.11194 0
0 0.187976 0.0641184
0 0.187747 0.0641184
0 0.187304 0.0641337
0 0.184695 0.06421
0 0.174929 0.0638132
0 0.169879 0.0634165
0 0.165423 0.0630655
0 0.164843 0.0629892
0 0.169543 0.06215
0 0.18117 0.0643626
0 0.189059 0.0643473
0 0.191257 0.0623178
0.138354 0.194064 0.0335088
0.298741 0.208301 1.5259e-05
0.395346 0.220172 0
0.503182 0.228138 0
0.594247 0.230884 0
0.666056 0.225544 0
0.719463 0.217151 0
0.752605 0.206928 0
0.773098 0.195605 0
0.785168 0.188342 0
0.791318 0.182879 0
0.794369 0.179232 0
0.795163 0.176333 0
0.79527 0.173816 0
0.794568 0.17084 0
0.791974 0.165972 0
0.789822 0.161959 0
0.788144 0.158801 0
0.786923 0.156512 0
0.786007 0.154788 0
0.785092 0.153063 0
0 0.225086 0.0618448
0 0.224948 0.0618601
0 0.224704 0.0618753
0 0.222416 0.0621195
0 0.211154 0.0633402
0 0.204959 0.0635996
0 0.199969 0.0637522
0 0.197559 0.0639658
0 0.200458 0.0623941
0 0.209354 0.0619059
0 0.22208 0.0623026
0 0.230076 0.0614023
0 0.232685 0.0565652
0.193713 0.244358 0.000854505
0.376379 0.264851 0
0.486259 0.276448 0
0.588861 0.283742 0
0.66807 0.284215 0
0.730526 0.278798 0
0.770413 0.271809 0
0.79469 0.263615 0
0.809888 0.256382 0
0.817426 0.249348 0
0.821347 0.2421 0
0.82211 0.235752 0
0.821424 0.22948 0
0.820203 0.22269 0
0.816587 0.21503 0
0.813123 0.20798 0
0.810086 0.201755 0
0.807614 0.196719 0
0.805646 0.192676 0
0.804089 0.189487 0
0 0.266606 0.0537881
0 0.266484 0.0538186
0 0.266346 0.0538491
0 0.264378 0.0543679
0 0.255299 0.0567025
0 0.245563 0.059205
0 0.239765 0.0602579
0 0.23444 0.0608377
0 0.237858 0.0596017
0 0.243931 0.0557717
0 0.255894 0.0560769
0 0.267842 0.0540169
0 0.27686 0.0499886
0 0.282063 0.0288548
0.261067 0.307515 0
0.465064 0.327245 0
0.579782 0.338155 0
0.667872 0.342657 0
0.738872 0.339773 0
0.787991 0.334569 0
0.817227 0.327718 0
0.835767 0.321355 0
0.846113 0.316426 0
0.851133 0.311315 0
0.852872 0.305669 0
0.851881 0.298863 0
0.849882 0.291051 0
0.845777 0.280858 0
0.840925 0.270115 0
0.836683 0.260365 0
0.832807 0.251423 0
0.82945 0.243702 0
0.826627 0.237201 0
0 0.306493 0.0382391
0 0.306371 0.0383001
0 0.306371 0.0383001
0 0.304784 0.0389868
0 0.300298 0.0409247
0 0.28777 0.0463417
0 0.282063 0.0488136
0 0.276951 0.0510109
0 0.277928 0.0511025
0 0.284688 0.0405585
0 0.293614 0.0302281
0 0.304036 0.0311742
0 0.313161 0.029572
0 0.324208 0.00891127
0 0.339483 0
0.332845 0.382116 0
0.560174 0.399527 0
0.664683 0.40795 0
0.742077 0.408957 0
0.802182 0.4047 0
0.838331 0.397406 0
0.86009 0.389639 0
0.874266 0.384436 0
0.881056 0.380194 0
0.88484 0.375509 0
0.885069 0.369619 0
0.883131 0.362615 0
0.879911 0.353368 0
0.873564 0.340047 0
0.867689 0.327764 0
0.862577 0.316838 0
0.857954 0.30692 0
0.853803 0.298039 0
0 0.341024 0.000900282
0 0.340917 0.000900282
0 0.340917 0.000900282
0 0.339849 0.000946059
0 0.33666 0.00109865
0 0.325399 0.0136263
0 0.320089 0.0207828
0 0.315526 0.0269474
0 0.314351 0.0310216
0 0.323491 0.00932326
0 0.333867 0.00422675
0 0.343008 0.00190738
0 0.347189 0.00213626
0 0.355352 0.00030518
0 0.369345 0
0 0.398779 0
0.411292 0.46096 0
0.651652 0.478752 0
0.743053 0.48365 0
0.810742 0.48249 0
0.85658 0.477256 0
0.88304 0.468467 0
0.900008 0.461082 0
0.909621 0.455863 0
0.914565 0.451408 0
0.916777 0.446418 0
0.916243 0.439704 0
0.914061 0.430213 0
0.908888 0.417136 0
0.902281 0.40209 0
0.896056 0.387915 0
0.890364 0.37528 0
0.884993 0.364019 0
0 0.374411 0
0 0.374411 0
0 0.374411 0
0 0.373526 0
0 0.371054 0
0 0.360815 4.57771e-05
0 0.354864 0.00030518
0 0.350179 0.000503548
0 0.345815 0.000701915
0 0.35552 0.000350958
0 0.369451 0
0 0.380972 0
0 0.386526 0
0 0.388174 0
0 0.397604 0
0 0.413764 0
0.00294499 0.458732 0
0.497475 0.53521 0
0.73135 0.555047 0
0.816052 0.557321 0
0.870542 0.555367 0
0.903944 0.548684 0
0.924498 0.54107 0
0.937163 0.535866 0
0.943557 0.53138 0
0.947005 0.526741 0
0.94754 0.521523 0
0.946212 0.513893 0
0.943633 0.503548 0
0.93724 0.487098 0
0.930678 0.470466 0
0.924132 0.453819 0
0.918151 0.438605 0
0 0.402655 0
0 0.402655 0
0 0.402655 0
0 0.401999 0
0 0.400305 0
0 0.393149 0
0 0.387457 0
0 0.382986 0
0 0.378943 0
0 0.384543 0
0 0.400778 0
0 0.415198 0
0 0.427131 0
0 0.426078 0
0 0.424933 0
0 0.435981 0
0 0.45481 0
0.0278019 0.519631 0
0.587366 0.605859 0
0.803037 0.622522 0
0.878645 0.623163 0
0.919066 0.620035 0
0.944305 0.613519 0
0.960555 0.608759 0
0.969573 0.605509 0
0.974609 0.602441 0
0.976547 0.598459 0
0.976272 0.593317 0
0.975036 0.586343 0
0.971145 0.574929 0
0.965484 0.560403 0
0.958984 0.543511 0
0.952163 0.52575 0
0 0.422919 0
0 0.422858 0
0 0.422919 0
0 0.422492 0
0 0.421424 0
0 0.418677 0
0 0.412116 0
0 0.409308 0
0 0.406317 0
0 0.406363 0
0 0.42533 0
0 0.442893 0
0 0.461723 0
0 0.465736 0
0 0.455222 0
0 0.454368 0
0 0.466163 0
0 0.491905 0
0.111116 0.5776 0
0.67454 0.674525 0
0.866529 0.68632 0
0.928481 0.684993 0
0.958434 0.680262 0
0.9785 0.675029 0
0.98941 0.67129 0
0.994034 0.667201 0
0.998001 0.663966 0
0.999207 0.660166 0
0.996857 0.654582 0
0.995178 0.647883 0
0.992706 0.637781 0
0.989914 0.626352 0
0.985931 0.61294 0
0 0.436362 0
0 0.436286 0
0 0.436332 0
0 0.436118 0
0 0.435554 0
0 0.434195 0
0 0.429175 0
0 0.426902 0
0 0.424994 0
0 0.423209 0
0 0.439948 0
0 0.460883 0
0 0.48217 0
0 0.500954 0
0 0.491585 0
0 0.476081 0
0 0.476829 0
0 0.48986 0
0 0.525689 0
0.291646 0.630381 0
0.750713 0.733867 0
0.920272 0.744213 0
0.968475 0.741909 0
0.990662 0.737163 0
0.998535 0.731243 0
1 0.725368 0
1 0.719951 0
1 0.715236 0
1 0.710765 0
0.999969 0.705318 0
0.999924 0.69807 0
0.999878 0.689601 0
0.999817 0.679942 0
0 0.446601 0
0 0.446571 0
0 0.446601 0
0 0.446448 0
0 0.445975 0
0 0.44509 0
0 0.441428 0
0 0.439445 0
0 0.437919 0
0 0.436469 0
0 0.447196 0
0 0.470878 0
0 0.490791 0
0 0.519036 0
0 0.528878 0
0 0.506615 0
0 0.492775 0
0 0.49604 0
0 0.51104 0
0 0.557946 0
0.387411 0.677943 0
0.815534 0.778897 0
0.961944 0.790051 0
0.998367 0.786938 0
0.999939 0.779828 0
1 0.773526 0
1 0.768673 0
1 0.764416 0
1 0.760281 0
1 0.756237 0
1 0.75108 0
1 0.743816 0
1 0.73608 0
0 0.45481 0
0 0.45478 0
0 0.45481 0
0 0.454704 0
0 0.454383 0
0 0.453773 0
0 0.451392 0
0 0.449317 0
0 0.447959 0
0 0.446723 0
0 0.446738 0
0 0.475319 0
0 0.497597 0
0 0.523415 0
0 0.551171 0
0 0.547784 0
0 0.518975 0
0 0.508278 0
0 0.513985 0
0 0.533654 0
0 0.590387 0
0.480369 0.720577 0
0.872251 0.813214 0
0.992966 0.823316 0
1 0.813642 0
1 0.809262 0
1 0.80528 0
1 0.801785 0
1 0.798627 0
1 0.795651 0
1 0.79263 0
1 0.788312 0
1 0.782818 0
0 0.460899 0
0 0.460853 0
0 0.460883 0
0 0.460822 0
0 0.460609 0
0 0.460182 0
0 0.459236 0
0 0.457008 0
0 0.455894 0
0 0.454932 0
0 0.453986 0
0 0.476448 0
0 0.501656 0
0 0.525017 0
0 0.558328 0
0 0.57818 0
0 0.560464 0
0 0.529747 0
0 0.522362 0
0 0.530236 0
0 0.556237 0
0.00929274 0.621958 0
0.572931 0.758373 0
0.920729 0.840482 0
0.999863 0.843412 0
1 0.834882 0
1 0.831891 0
1 0.829206 0
1 0.826658 0
1 0.824323 0
1 0.821775 0
1 0.818677 0
1 0.815152 0
0 0.466255 0
0 0.466209 0
0 0.466239 0
0 0.466178 0
0 0.46598 0
0 0.465583 0
0 0.464836 0
0 0.462623 0
0 0.461738 0
0 0.460975 0
0 0.460273 0
0 0.473472 0
0 0.503212 0
0 0.525093 0
0 0.556466 0
0 0.590524 0
0 0.59855 0
0 0.568658 0
0 0.539818 0
0 0.535821 0
0 0.548348 0
0 0.579187 0
0.0834516 0.653193 0
0.664042 0.792599 0
0.96051 0.862486 0
1 0.857954 0
1 0.851499 0
1 0.849256 0
1 0.847272 0
1 0.845609 0
1 0.843931 0
1 0.84181 0
1 0.839078 0
0 0.472343 0
0 0.472282 0
0 0.472313 0
0 0.472267 0
0 0.472038 0
0 0.471611 0
0 0.470848 0
0 0.468132 0
0 0.467124 0
0 0.466331 0
0 0.465614 0
0 0.464897 0
0 0.501656 0
0 0.526467 0
0 0.552422 0
0 0.589899 0
0 0.617685 0
9.15541e-05 0.611627 0
0 0.574762 0
0 0.551293 0
0 0.551354 0
0 0.567163 0
0 0.603876 0
0.27715 0.686534 0
0.742458 0.821149 0
0.989425 0.878553 0
1 0.869352 0
1 0.86479 0
1 0.863142 0
1 0.861723 0
1 0.860304 0
1 0.858747 0
1 0.856916 0
0 0.479011 0
0 0.478981 0
0 0.479011 0
0 0.478935 0
0 0.478721 0
0 0.478325 0
0 0.477592 0
0 0.474907 0
0 0.473457 0
0 0.47248 0
0 0.47158 0
0 0.47071 0
0 0.498054 0
0 0.527016 0
0 0.550271 0
0 0.583719 0
0.000732433 0.622126 0
0.0305486 0.639658 0
0.0018616 0.620508 0
0 0.58233 0
0 0.56463 0
0 0.568673 0
0 0.588006 0
0.00628672 0.629038 0
0.385916 0.719966 0
0.805783 0.843915 0
1 0.886351 0
1 0.877577 0
1 0.874464 0
1 0.873503 0
1 0.872465 0
1 0.87126 0
1 0.869978 0
0 0.485527 0
0 0.485496 0
0 0.485496 0
0 0.485466 0
0 0.485252 0
0 0.484916 0
0 0.484321 0
0 0.482933 0
0 0.480323 0
