creator/6-Editing/New LUTS/3-Archive-Sony/SLog3-Fresh.cube
TITLE "Generated by Resolve"
LUT_3D_SIZE 9
0.026978 0.0279393 0.0319524
0.0515145 0.0345769 0.0354162
0.163836 0.0509346 0.0243534
0.393164 0.0372473 0
0.58262 0 0
0.662181 0 0
0.687251 0 0
0.69189 0 0
0.69189 0 0
0.0209659 0.0419013 0.0381476
0.0294194 0.039353 0.0383001
0.131838 0.051957 0.0322271
0.3299 0.0502327 0
0.553292 0 0
0.654795 0 0
0.685664 0 0
0.69189 0 0
0.69189 0 0
0 0.0817884 0.0516976
1.5259e-05 0.0745861 0.0490425
0.0450141 0.0767376 0.0487373
0.293919 0.0974899 0.000289921
0.620096 0.0195773 0
0.707942 0.000488289 0
0.72961 0.000411994 0
0.732906 0 0
0.727977 0 0
0 0.187976 0.0641184
0 0.174929 0.0638132
0 0.169543 0.06215
0.138354 0.194064 0.0335088
0.594247 0.230884 0
0.773098 0.195605 0
0.795163 0.176333 0
0.789822 0.161959 0
0.785092 0.153063 0
0 0.341024 0.000900282
0 0.33666 0.00109865
0 0.314351 0.0310216
0 0.347189 0.00213626
0.411292 0.46096 0
0.85658 0.477256 0
0.914565 0.451408 0
0.908888 0.417136 0
0.884993 0.364019 0
0 0.436362 0
0 0.435554 0
0 0.424994 0
0 0.48217 0
0 0.476829 0
0.750713 0.733867 0
0.998535 0.731243 0
1 0.710765 0
0.999817 0.679942 0
0 0.466255 0
0 0.46598 0
0 0.461738 0
0 0.503212 0
0 0.59855 0
0 0.548348 0
0.96051 0.862486 0
1 0.847272 0
1 0.839078 0
0 0.491402 0
0 0.491203 0
0 0.48687 0
0 0.483024 0
0 0.611795 0
0.00303655 0.631617 0
4.57771e-05 0.629007 0
1 0.892103 0
1 0.884672 0
0 0.500282 0
0 0.500282 0
0 0.500282 0
0 0.500282 0
0 0.591897 0
0.415839 0.735668 0
0 0.644633 0
0.297017 0.701381 0
1 0.89633 0
0.0215305 0.029633 0.0747539
0.0451514 0.0360266 0.0675669
0.170199 0.0525063 0.0506447
0.401419 0.000183108 0
0.592523 0 0
0.667842 0 0
0.688258 0 0
0.69189 0 0
0.69189 0 0
0.0191196 0.0435187 0.052842
0.0292058 0.0381628 0.0509499
0.117327 0.0514687 0.0403296
0.331563 0.0441749 0
0.558038 0 0
0.656321 0 0
0.686076 0 0
0.69189 0 0
0.69189 0 0
0 0.0802625 0.051133
0 0.0746777 0.049073
0.0470588 0.0746319 0.048127
0.320729 0.0914778 0
0.579965 0.0560464 0
0.698344 0.000839246 0
0.728252 0 0
0.730953 0 0
0.725567 0 0
0 0.18526 0.0641947
0 0.174929 0.0638132
0 0.164355 0.061387
0.143114 0.189532 0.0339818
0.598047 0.2224 0
0.77023 0.178439 0
0.792737 0.173083 0
0.797177 0.175723 0
0.790051 0.162387 0
0 0.338674 0.0010071
0 0.335805 0.00112917
0 0.31075 0.0333867
0 0.356237 0
0.417746 0.454017 0
0.854063 0.466957 0
0.908904 0.434379 0
0.899413 0.395544 0
0.883238 0.360327 0
0 0.435584 0
0 0.435019 0
0 0.424674 0
0 0.474311 0
0 0.511345 0
0.756207 0.72903 0
0.997833 0.724865 0
0.999969 0.704616 0
0.999268 0.664637 0
0 0.465858 0
0 0.465675 0
0 0.46157 0
0 0.496269 0
0.0460059 0.630121 0
0 0.586435 0
0.963806 0.861616 0
1 0.845411 0
1 0.837278 0
0 0.491005 0
0 0.490867 0
0 0.486702 0
0 0.482826 0
0 0.603433 0
0.441276 0.738964 0
0.0989242 0.664805 0
1 0.891386 0
1 0.884382 0
0 0.500282 0
0 0.500282 0
0 0.500282 0
0 0.500282 0
0 0.587762 0
0.420371 0.737057 0
0.462348 0.750866 0
0.419928 0.737362 0
1 0.896025 0
0 0 0.212909
0.0217441 0.000167849 0.205386
0.156878 0.0176242 0.188968
0.400778 0 0.154925
0.603235 0 0.124498
0.681559 0 0.0976425
0.704616 0 0.0790112
0.707805 0 0.047303
0.707027 0 0.0223239
0 0.0281987 0.159335
0.00303655 0.0282444 0.150866
0.107622 0.0441138 0.134234
0.341329 0.00793469 0.105165
0.577844 0 0.0801862
0.673198 0 0.0427405
0.701473 0 0.0227207
0.70692 0 0.00921645
0.706554 0 0
0 0.0907607 0.122026
0 0.0825055 0.109865
0.0332189 0.0779126 0.100053
0.303639 0.087541 0.0587625
0.591714 0.00387579 0
0.712963 0 0
0.73962 0 0
0.740246 0 0
0.733471 0 0
0 0.199496 0.105043
0 0.188998 0.0957198
0 0.172595 0.0847639
0.145586 0.19292 0.0576944
0.624002 0.205127 0
0.766354 0.18143 0
0.798795 0.178012 0
0.79939 0.173297 0
0.786389 0.155062 0
0 0.35494 0.0805066
0 0.350774 0.0753643
0 0.316442 0.0495918
0 0.350149 0
0.419959 0.445151 0
0.850935 0.451667 0
0.899397 0.407309 0
0.898451 0.393362 0
0.892699 0.380285 0
0 0.439033 0
0 0.436011 0
0 0.423972 0
0 0.465583 0
0.258579 0.598535 0
0.759319 0.722866 0
0.996887 0.715602 0
0.999847 0.688319 0
0.993545 0.641215 0
0 0.465278 0
0 0.465156 0
0 0.46125 0
0 0.486305 0
0.00973526 0.616724 0
0.210651 0.665492 0
0.965621 0.859541 0
1 0.84242 0
1 0.832456 0
0 0.490364 0
0 0.490257 0
0 0.486336 0
0 0.482383 0
0 0.592218 0
0.550286 0.772107 0
0.382788 0.721645 0
1 0.890593 0
1 0.883467 0
0 0.500282 0
0 0.500282 0
0 0.500282 0
0 0.500282 0
0 0.581353 0
0.377691 0.723354 0
0.776669 0.844327 0
0.562264 0.7823 0
1 0.89572 0
0 0 0.37789
0 0 0.375494
0.139727 0 0.376822
0.404181 0 0.377142
0.622736 0 0.364096
0.705348 0 0.342962
0.727947 0 0.327153
0.730114 0 0.306767
0.727626 0 0.284611
0 0 0.340597
0 0 0.328359
0.0862135 0 0.325277
0.341634 0 0.329732
0.599023 0 0.322026
0.696269 0 0.304021
0.723033 0 0.290089
0.726207 0 0.271107
0.723995 0 0.250126
0 0.0493782 0.304692
0 0.0306249 0.294057
0.00517281 0.0509804 0.30132
0.294408 0.0705119 0.304555
0.606485 0 0.274708
0.726619 0 0.248997
0.750469 0 0.227405
0.750546 0 0.205768
0.743847 0 0.181674
0 0.229145 0.309392
0 0.216159 0.292714
0 0.197406 0.267475
0.124636 0.208957 0.257237
0.601267 0.190631 0.186877
0.756176 0.121233 0.143557
0.787182 0.103792 0.120165
0.789242 0.0924239 0.100679
0.779507 0.0541085 0.0709697
0 0.398459 0.2748
0 0.39443 0.264561
0 0.358862 0.210468
0 0.37673 0.164263
0.407111 0.451881 0.0292363
0.863096 0.432578 0
0.905013 0.413977 0
0.912673 0.411124 0
0.903044 0.384771 0
0 0.479805 0.217762
0 0.477195 0.208255
0 0.456703 0.153994
0 0.479774 0.0855573
0.27129 0.6168 0
0.771954 0.740398 0
1 0.720211 0
1 0.682185 0
0.998672 0.656611 0
0 0.495644 0.180606
0 0.49369 0.17055
0 0.480522 0.115969
0 0.487495 0.0636301
0 0.610849 0
0.667231 0.790951 0
0.974105 0.865873 0
1 0.839185 0
1 0.825559 0
0 0.51635 0.194903
0 0.514946 0.188754
0 0.502113 0.14136
0 0.486839 0.0514534
0 0.58053 0
0.508904 0.759533 0
0.656687 0.806714 0
1 0.88983 0
1 0.882704 0
0 0.516167 0.150088
0 0.514229 0.139925
0 0.506905 0.0977035
0 0.500282 0
0 0.574533 0
0.333242 0.710475 0
0.845182 0.863188 0
0.729763 0.831403 0
1 0.895415 0
0 0 0.474083
0 0 0.477562
0.0984054 0 0.493065
0.392416 0 0.528252
0.636469 0 0.546441
0.729244 0 0.544778
0.753567 0 0.537667
0.756664 0 0.525048
0.753658 0 0.508644
0 0 0.470573
0 0 0.459754
0.0158846 0 0.460914
0.327657 0 0.501915
0.611292 0 0.525795
0.721691 0 0.524544
0.749599 0 0.516381
0.752758 0 0.502495
0.751034 0 0.485863
0 0 0.482551
0 0 0.474159
0 9.15541e-05 0.482887
0.268711 0 0.515709
0.613703 0 0.532708
0.750454 0 0.516579
0.775296 0 0.497642
0.774701 0 0.476173
0.767727 0 0.451347
0 0.2177 0.533944
0 0.199557 0.52137
0 0.170047 0.506615
0.0445258 0.214908 0.530282
0.591745 0.191989 0.539406
0.767605 0.103929 0.490745
0.800137 0.0860914 0.458686
0.801633 0.0858473 0.432273
0.793988 0.0522164 0.402396
0 0.440803 0.560967
0 0.437781 0.558434
0 0.405051 0.518639
0 0.427192 0.518196
0.397787 0.485771 0.513741
0.837644 0.441733 0.434363
0.888945 0.413077 0.402365
0.89395 0.403067 0.379522
0.883589 0.371542 0.34963
0 0.543465 0.524208
0 0.542153 0.518517
0 0.5234 0.464546
0 0.541527 0.430793
0.00827039 0.631434 0.36112
0.715343 0.730877 0.260105
0.973159 0.688151 0.151812
0.983169 0.679698 0.202945
0.978775 0.655344 0.12398
0 0.557931 0.476677
0 0.556542 0.469459
0 0.542473 0.40856
0 0.535164 0.355093
0 0.627832 0.294347
0.619104 0.7776 0.0255741
0.944518 0.854597 3.0518e-05
1 0.847791 0
1 0.829908 0
0 0.56997 0.446693
0 0.568505 0.439506
0 0.555474 0.388144
0 0.53959 0.328771
0 0.605295 0.275608
0.399847 0.739483 0.0714122
0.905974 0.873747 0.000137331
1 0.892485 0
1 0.889052 0
0 0.567239 0.393484
0 0.565896 0.387076
0 0.561257 0.364904
0 0.54789 0.302663
0 0.598016 0.261891
0.11577 0.696529 0.15494
0.795544 0.846448 1.5259e-05
0.880812 0.8636 0.00454719
1 0.891539 0
0 0 0.518166
0 0 0.522698
0.0579538 0 0.541329
0.380209 0 0.591546
0.646693 0 0.628077
0.748211 0 0.64007
0.774624 0 0.645396
0.777829 0 0.642359
0.775753 0 0.636545
0 0 0.529732
0 0 0.518761
0 0 0.523415
0.310887 0 0.573526
0.616953 0 0.618647
0.742214 0 0.635248
0.771557 0 0.638941
0.775402 0 0.635554
0.773312 0 0.627924
0 0 0.565713
0 0 0.559365
0 0 0.571786
0.248157 0 0.61178
0.606043 0 0.658015
0.767895 0 0.6663
0.797604 0 0.661067
0.798306 0 0.649348
0.791867 0 0.632227
0 0.1823 0.636576
0 0.146883 0.62324
0 0.117296 0.61529
0.00918593 0.205707 0.654643
0.556558 0.194873 0.699611
0.771878 0.0212558 0.692271
0.815122 0.0426642 0.678965
0.816663 0.00576791 0.66183
0.81326 0 0.641749
0 0.444373 0.725353
0 0.43978 0.72462
0 0.40087 0.701305
0 0.425071 0.725399
0.376852 0.4869 0.752209
0.823865 0.450553 0.754879
0.888045 0.417029 0.718227
0.894942 0.411597 0.691997
0.886137 0.381598 0.660853
0 0.571588 0.740368
0 0.571023 0.739971
0 0.55845 0.719219
0 0.58085 0.721675
0 0.676677 0.73727
0.717098 0.772717 0.746792
0.954665 0.73254 0.680293
0.970108 0.716411 0.654932
0.966873 0.690517 0.628092
0 0.598505 0.721782
0 0.598245 0.719951
0 0.589288 0.685603
0 0.583474 0.656687
0 0.681712 0.660166
0.454704 0.820172 0.605554
0.89662 0.886152 0.55111
1 0.870207 0.495644
1 0.864591 0.507362
0 0.61117 0.694118
0 0.610666 0.691203
0 0.604212 0.659892
0 0.595422 0.61738
0 0.658412 0.60087
0.129824 0.778698 0.544701
0.848783 0.888426 0.467735
0.990021 0.906966 0.43093
1 0.882445 0.279225
0 0.613931 0.648142
0 0.613062 0.643946
0 0.610697 0.626947
0 0.601434 0.570443
0 0.64651 0.550317
0 0.738842 0.507332
0.713497 0.860288 0.437171
0.975982 0.900313 0.361242
1 0.898344 0.335744
0 0 0.552956
0 0 0.559518
0.0640726 0 0.581537
0.376852 0 0.636484
0.662303 0 0.676768
0.772961 0 0.691127
0.798077 0 0.697322
0.801419 0 0.697215
0.799237 0 0.69308
0 0 0.565179
0 0 0.554849
0 0 0.566583
0.310689 0 0.620737
0.629435 0 0.668925
0.765362 0 0.686702
0.795834 0 0.693736
0.799207 0 0.693019
0.79765 0 0.68896
0 3.0518e-05 0.597971
0 0 0.593484
0 0.00122072 0.608392
0.231907 0.1149 0.655695
0.593454 0.0274357 0.703288
0.775051 1.5259e-05 0.718685
0.812222 0 0.720592
0.815274 1.5259e-05 0.715129
0.809094 0 0.702205
0 0.206027 0.670741
0 0.179629 0.659556
0 0.163973 0.659113
0.000991836 0.240482 0.698497
0.535286 0.259312 0.748196
0.780636 0.183246 0.757061
0.828138 0.121096 0.751751
0.832395 0.0964523 0.746197
0.82739 0.0329442 0.735119
0 0.44155 0.761715
0 0.436072 0.759396
0 0.394369 0.743786
0 0.424872 0.77377
0.349248 0.4934 0.804547
0.802014 0.472084 0.831174
0.889189 0.424308 0.82121
0.897749 0.412375 0.813321
0.889754 0.380285 0.798474
0 0.574929 0.803235
0 0.574166 0.803174
0 0.559289 0.797208
0 0.582086 0.812665
0 0.681453 0.849393
0.707271 0.765942 0.881727
0.941253 0.730861 0.880812
0.962112 0.713191 0.865751
0.95993 0.690364 0.848386
0 0.604913 0.80795
0 0.604868 0.807965
0 0.603937 0.804227
0 0.601709 0.799481
0 0.701305 0.838499
0.332876 0.842222 0.855344
0.89778 0.918273 0.879759
0.99263 0.9084 0.847807
0.996963 0.898756 0.831052
0 0.626047 0.810544
0 0.625971 0.810178
0 0.622293 0.800504
0 0.618036 0.788632
0 0.682734 0.809308
0 0.80589 0.815824
0.766979 0.92282 0.806882
0.965728 0.948867 0.777554
1 0.94229 0.7364
0 0.634638 0.798749
0 0.634424 0.797772
0 0.633158 0.791974
0 0.631006 0.772686
0 0.674434 0.77499
0 0.771695 0.775265
0.623301 0.893477 0.755016
0.948486 0.943343 0.714519
0.999466 0.948455 0.698604
0 0 0.554391
0 0 0.561959
0.0465248 0 0.585962
0.361257 0 0.643549
0.658869 0 0.688869
0.780224 0 0.706645
0.808865 0 0.717113
0.81323 0 0.719753
0.81323 0 0.719753
0 0 0.571496
0 0 0.561379
0 0 0.578286
0.300679 0 0.632792
0.624979 0 0.684138
0.774182 0 0.705394
0.808225 0 0.716777
0.81323 0 0.719753
0.81323 0 0.719753
0 0 0.607889
0 0 0.604593
0 0.00683604 0.620584
0.212619 0.169238 0.673045
0.588357 0.148653 0.723735
0.77435 0.00213626 0.736278
0.816922 3.0518e-05 0.741619
0.821424 0 0.741192
0.819211 0 0.735225
0 0.234836 0.687663
0 0.215396 0.677943
0 0.204898 0.679911
0 0.274235 0.718532
0.520302 0.313817 0.767529
0.78851 0.274388 0.784482
0.849134 0.255329 0.785595
0.860029 0.265644 0.788052
0.852155 0.232685 0.778485
0 0.453529 0.773754
0 0.446723 0.771344
0 0.409079 0.75758
0 0.444022 0.787961
0.321279 0.518563 0.817227
0.789761 0.518181 0.850568
0.897642 0.478416 0.847608
0.910063 0.46804 0.844221
0.903288 0.436332 0.834653
0 0.57525 0.813611
0 0.574121 0.813291
0 0.560281 0.808148
0 0.586313 0.827665
0 0.682628 0.862013
0.690211 0.76614 0.896529
0.931334 0.742962 0.90425
0.961334 0.718669 0.899748
0.959106 0.691142 0.892882
0 0.608347 0.822873
0 0.60824 0.822843
0 0.604364 0.81973
0 0.604822 0.820172
0 0.706874 0.867277
0.370275 0.846922 0.894362
0.893095 0.915633 0.927779
0.98674 0.907195 0.92845
0.992416 0.896315 0.922789
0 0.62916 0.832364
0 0.629084 0.832349
0 0.626642 0.830991
0 0.623438 0.828672
0 0.687572 0.857786
4.57771e-05 0.811093 0.885069
0.733379 0.930175 0.917708
0.968017 0.963699 0.928481
0.999573 0.962783 0.919051
0 0.639002 0.834806
0 0.638972 0.83476
0 0.638376 0.83386
0 0.636759 0.830472
0 0.679927 0.848005
0 0.777478 0.876524
0.544442 0.899931 0.894072
0.914168 0.961959 0.903471
0.989929 0.971664 0.894286
0 0 0.554391
0 0 0.560739
0.028336 0 0.583795
0.344579 0 0.640925
0.648112 0 0.687449
0.777417 0 0.706065
0.808484 0 0.716915
0.81323 0 0.719753
0.81323 0 0.719753
0 0 0.569192
0 0 0.558404
0 0 0.577585
0.286885 0 0.630198
0.61268 0 0.682368
0.770748 0 0.704692
0.807614 0 0.716442
0.81323 0 0.719753
0.81323 0 0.719753
0 0 0.606958
0 0 0.603769
0 0.0040589 0.61912
0.198337 0.166308 0.669749
0.573053 0.148562 0.721218
0.768338 0.00688182 0.735149
0.815961 1.5259e-05 0.740627
0.821057 0 0.7402
0.818555 0 0.733593
0 0.228733 0.684611
0 0.209277 0.674891
0 0.196201 0.675975
0 0.265888 0.715114
0.500313 0.309636 0.763989
0.779767 0.273136 0.783093
0.846174 0.25005 0.783993
0.858518 0.260624 0.786725
0.853605 0.238331 0.780697
0 0.445914 0.771069
0 0.438636 0.76849
0 0.401633 0.754314
0 0.435843 0.785153
0.299702 0.509361 0.813306
0.774945 0.514076 0.8486
0.894133 0.478172 0.847898
0.910658 0.472816 0.846723
0.906508 0.44979 0.840436
0 0.572671 0.813123
0 0.571389 0.812665
0 0.555901 0.807324
0 0.5841 0.828779
0 0.677272 0.861814
0.67776 0.760189 0.896147
0.923644 0.743603 0.90602
0.960784 0.721706 0.903258
0.960006 0.698466 0.898466
0 0.608713 0.824643
0 0.608545 0.824567
0 0.604791 0.822431
0 0.608087 0.825086
0 0.710033 0.871794
0.385779 0.84654 0.898146
0.885756 0.912642 0.931014
0.982376 0.906691 0.933944
0.991577 0.895064 0.93228
0 0.629801 0.834424
0 0.629679 0.834363
0 0.627115 0.833585
0 0.624567 0.832929
0 0.691371 0.864439
1.5259e-05 0.815106 0.892744
0.744137 0.931762 0.928786
0.967025 0.963058 0.941878
0.997253 0.961944 0.940749
0 0.646937 0.843626
0 0.646937 0.843626
0 0.64686 0.843549
0 0.644099 0.84155
0 0.684169 0.85951
0 0.778653 0.88867
0.529778 0.899855 0.913451
0.900923 0.963424 0.938155
0.991547 0.975998 0.942077
